;FLAVOR:Marlin
;TIME:1000
;Filament used: 0.317893m
;Layer height: 0.1
;Generated with Cura_SteamEngine 3.6.0
M140 S60
M105
M190 S60
M104 S200
M105
M109 S200
M82 ;absolute extrusion mode
; Ender 3 Custom Start G-code
G28 ; Home all axes
G92 E0 ; Reset Extruder
G1 Z2.0 F3000 ; Move Z Axis up little to prevent scratching of Heat Bed
G1 X0.1 Y20 Z0.3 F5000.0 ; Move to start position
G1 X0.1 Y200.0 Z0.3 F1500.0 E15 ; Draw the first line
G1 X0.4 Y200.0 Z0.3 F5000.0 ; Move to side a little
G1 X0.4 Y20 Z0.3 F1500.0 E30 ; Draw the second line
G92 E0 ; Reset Extruder
G1 Z2.0 F3000 ; Move Z Axis up little to prevent scratching of Heat Bed
; End of custom start GCode
G92 E0
G1 F2400 E-5
;LAYER_COUNT:59
;LAYER:0
M107
M204 S5000
M205 X30 Y30
G0 F3600 X93.255 Y102.433 Z0.2
M204 S500
M205 X20 Y20
;TYPE:SKIRT
G1 F2400 E0
G1 F1800 X94.045 Y101.773 E0.03424
G1 X94.676 Y101.298 E0.06051
G1 X95.561 Y100.781 E0.0946
G1 X96.49 Y100.317 E0.12914
G1 X97.213 Y100 E0.15539
G1 X98.201 Y99.7 E0.18974
G1 X99.284 Y99.447 E0.22673
G1 X100.061 Y99.306 E0.25299
G1 X100.717 Y99.255 E0.27488
G1 X100.725 Y99.254 E0.27514
G1 X100.734 Y99.254 E0.27544
G1 X100.848 Y99.245 E0.27925
G1 X101.021 Y99.249 E0.285
G1 X101.89 Y99.235 E0.31391
G1 X102.47 Y99.269 E0.33323
G1 X103.255 Y99.355 E0.3595
G1 X103.807 Y99.465 E0.37822
G1 X104.819 Y99.704 E0.4128
G1 X105.577 Y99.924 E0.43906
G1 X106.508 Y100.315 E0.47264
G1 X107.434 Y100.777 E0.50706
G1 X108.122 Y101.165 E0.53333
G1 X108.96 Y101.777 E0.56784
G1 X109.76 Y102.447 E0.60255
G1 X110.339 Y102.984 E0.62882
G1 X110.739 Y103.427 E0.64867
G1 X111.124 Y103.888 E0.66865
G1 X111.599 Y104.519 E0.69491
G1 X111.683 Y104.659 E0.70034
G1 X111.697 Y104.676 E0.70108
G1 X112.122 Y105.341 E0.72733
G1 X112.328 Y105.729 E0.74194
G1 X112.592 Y106.26 E0.76166
G1 X112.596 Y106.27 E0.76202
G1 X113.213 Y106 E0.78442
G1 X114.201 Y105.7 E0.81876
G1 X115.284 Y105.447 E0.85575
G1 X116.061 Y105.306 E0.88202
G1 X116.717 Y105.255 E0.9039
G1 X116.725 Y105.254 E0.90417
G1 X116.734 Y105.254 E0.90447
G1 X116.848 Y105.245 E0.90827
G1 X117.021 Y105.249 E0.91403
G1 X117.89 Y105.235 E0.94294
G1 X118.47 Y105.269 E0.96226
G1 X119.255 Y105.355 E0.98852
G1 X119.807 Y105.465 E1.00725
G1 X120.819 Y105.704 E1.04183
G1 X121.577 Y105.924 E1.06808
G1 X122.508 Y106.315 E1.10167
G1 X123.434 Y106.777 E1.13609
G1 X124.122 Y107.165 E1.16236
G1 X124.961 Y107.778 E1.19692
G1 X125.756 Y108.444 E1.23141
G1 X126.335 Y108.981 E1.25768
G1 X126.711 Y109.396 E1.2763
G1 X127.103 Y109.861 E1.29653
G1 X127.58 Y110.489 E1.32276
G1 X127.688 Y110.665 E1.32963
G1 X127.697 Y110.677 E1.33013
G1 X128.122 Y111.342 E1.35638
G1 X128.321 Y111.714 E1.37041
G1 X128.582 Y112.236 E1.38982
G1 X128.898 Y112.959 E1.41606
G1 X129.073 Y113.473 E1.43412
G1 X129.372 Y114.465 E1.46858
G1 X129.561 Y115.232 E1.49486
G1 X129.69 Y116.241 E1.52869
G1 X129.753 Y117.274 E1.56311
G1 X129.761 Y118.064 E1.58939
G1 X129.65 Y119.098 E1.62398
G1 X129.469 Y120.129 E1.65879
G1 X129.293 Y120.899 E1.68506
G1 X129.123 Y121.428 E1.70354
G1 X128.918 Y121.996 E1.72363
G1 X128.612 Y122.724 E1.74989
G1 X128.509 Y122.914 E1.75708
G1 X128.496 Y122.946 E1.75823
G1 X128.129 Y123.646 E1.78452
G1 X127.681 Y124.321 E1.81146
G1 X127.019 Y125.215 E1.84846
G1 X126.518 Y125.825 E1.87472
G1 X125.758 Y126.553 E1.90972
G1 X124.959 Y127.222 E1.94438
G1 X124.329 Y127.698 E1.97064
G1 X124.316 Y127.705 E1.97113
G1 X124.321 Y127.714 E1.97148
G1 X124.582 Y128.236 E1.99089
G1 X124.898 Y128.959 E2.01713
G1 X125.073 Y129.473 E2.03519
G1 X125.372 Y130.465 E2.06965
G1 X125.561 Y131.232 E2.09592
G1 X125.69 Y132.241 E2.12976
G1 X125.753 Y133.274 E2.16418
G1 X125.761 Y134.064 E2.19046
G1 X125.65 Y135.098 E2.22504
G1 X125.469 Y136.129 E2.25986
G1 X125.293 Y136.899 E2.28613
G1 X125.123 Y137.428 E2.30461
G1 X124.918 Y137.996 E2.3247
G1 X124.612 Y138.724 E2.35096
G1 X124.509 Y138.914 E2.35815
G1 X124.496 Y138.946 E2.3593
G1 X124.129 Y139.646 E2.38559
G1 X123.681 Y140.321 E2.41253
G1 X123.019 Y141.215 E2.44953
G1 X122.518 Y141.825 E2.47579
G1 X121.758 Y142.553 E2.51079
G1 X120.959 Y143.222 E2.54545
G1 X120.329 Y143.698 E2.57171
G1 X119.44 Y144.219 E2.60598
G1 X118.514 Y144.682 E2.64042
G1 X117.791 Y144.998 E2.66666
G1 X116.792 Y145.302 E2.70139
G1 X115.708 Y145.554 E2.73841
G1 X114.931 Y145.694 E2.76467
G1 X114.282 Y145.743 E2.78631
G1 X114.257 Y145.747 E2.78716
G1 X114.215 Y145.749 E2.78856
G1 X114.144 Y145.754 E2.79092
G1 X114.1 Y145.753 E2.79239
G1 X113.468 Y145.777 E2.81342
G1 X112.662 Y145.726 E2.84028
G1 X111.555 Y145.597 E2.87735
G1 X110.776 Y145.466 E2.90362
G1 X109.783 Y145.176 E2.93803
G1 X108.808 Y144.82 E2.97255
G1 X108.081 Y144.512 E2.99881
G1 X107.179 Y143.998 E3.03334
G1 X106.313 Y143.425 E3.06788
G1 X105.677 Y142.956 E3.09417
G1 X104.918 Y142.246 E3.12873
G1 X104.162 Y141.437 E3.16556
G1 X103.653 Y140.833 E3.19183
G1 X103.311 Y140.334 E3.21195
G1 X103.303 Y140.323 E3.2124
G1 X103.287 Y140.298 E3.21339
G1 X103.207 Y140.181 E3.21811
G1 X103.177 Y140.126 E3.22019
G1 X102.878 Y139.658 E3.23866
G1 X102.5 Y138.901 E3.2668
G1 X102.056 Y137.877 E3.30393
G1 X101.779 Y137.137 E3.33021
G1 X101.529 Y136.121 E3.36501
G1 X101.35 Y135.1 E3.39948
G1 X101.253 Y134.316 E3.42576
G1 X101.247 Y133.281 E3.46018
G1 X101.31 Y132.242 E3.4948
G1 X101.398 Y131.457 E3.52108
G1 X101.634 Y130.442 E3.55574
G1 X101.957 Y129.381 E3.59262
G1 X102.225 Y128.639 E3.61886
G1 X102.488 Y128.091 E3.63908
G1 X102.497 Y128.069 E3.63987
G1 X102.529 Y128.007 E3.64219
G1 X102.567 Y127.927 E3.64514
G1 X102.595 Y127.882 E3.6469
G1 X102.862 Y127.369 E3.66613
G1 X103.322 Y126.674 E3.69386
G1 X103.991 Y125.772 E3.73121
G1 X104.493 Y125.163 E3.75746
G1 X105.255 Y124.433 E3.79255
G1 X106.045 Y123.773 E3.82679
G1 X106.676 Y123.298 E3.85306
G1 X106.693 Y123.288 E3.85372
G1 X106.5 Y122.903 E3.86804
G1 X106.422 Y122.722 E3.8746
G1 X105.769 Y123.006 E3.89828
G1 X104.779 Y123.306 E3.93269
G1 X103.703 Y123.555 E3.96942
G1 X102.925 Y123.694 E3.99571
G1 X102.294 Y123.742 E4.01675
G1 X102.274 Y123.745 E4.01743
G1 X102.236 Y123.747 E4.01869
G1 X102.138 Y123.754 E4.02196
G1 X102.086 Y123.753 E4.02369
G1 X101.485 Y123.777 E4.0437
G1 X100.669 Y123.725 E4.07089
G1 X99.562 Y123.597 E4.10796
G1 X98.783 Y123.467 E4.13422
G1 X97.783 Y123.176 E4.16886
G1 X96.808 Y122.82 E4.20339
G1 X96.081 Y122.512 E4.22965
G1 X95.179 Y121.998 E4.26418
G1 X94.313 Y121.425 E4.29871
G1 X93.677 Y120.956 E4.325
G1 X92.918 Y120.246 E4.35956
G1 X92.162 Y119.437 E4.39639
G1 X91.653 Y118.833 E4.42266
G1 X91.311 Y118.334 E4.44278
G1 X91.303 Y118.323 E4.44324
G1 X91.287 Y118.298 E4.44422
G1 X91.207 Y118.181 E4.44894
G1 X91.177 Y118.126 E4.45102
G1 X90.878 Y117.658 E4.46949
G1 X90.5 Y116.901 E4.49764
G1 X90.056 Y115.877 E4.53476
G1 X89.779 Y115.137 E4.56104
G1 X89.526 Y114.105 E4.59638
G1 X89.347 Y113.071 E4.63128
G1 X89.252 Y112.287 E4.65755
G1 X89.248 Y111.252 E4.69197
G1 X89.313 Y110.215 E4.72653
G1 X89.403 Y109.43 E4.75281
G1 X89.639 Y108.421 E4.78728
G1 X89.96 Y107.372 E4.82376
G1 X90.229 Y106.629 E4.85005
G1 X90.487 Y106.094 E4.8698
G1 X90.497 Y106.069 E4.8707
G1 X90.526 Y106.014 E4.87276
G1 X90.572 Y105.918 E4.8763
G1 X90.597 Y105.878 E4.87787
G1 X90.862 Y105.369 E4.89696
G1 X91.322 Y104.674 E4.92468
G1 X91.991 Y103.772 E4.96203
G1 X92.493 Y103.163 E4.98828
G1 X93.255 Y102.433 E5.02338
M204 S5000
M205 X30 Y30
G0 F3600 X93.512 Y102.74
M204 S500
M205 X20 Y20
G1 F1800 X94.302 Y102.08 E5.05762
G1 X94.917 Y101.618 E5.0832
G1 X95.739 Y101.139 E5.11484
G1 X96.668 Y100.675 E5.14938
G1 X97.374 Y100.367 E5.175
G1 X98.292 Y100.089 E5.2069
G1 X99.375 Y99.836 E5.24389
G1 X100.132 Y99.7 E5.26948
G1 X100.899 Y99.644 E5.29505
G1 X100.916 Y99.644 E5.29562
G1 X101.001 Y99.635 E5.29846
G1 X101.867 Y99.635 E5.32727
G1 X102.447 Y99.669 E5.34659
G1 X103.212 Y99.754 E5.37219
G1 X103.715 Y99.854 E5.38925
G1 X104.727 Y100.093 E5.42383
G1 X105.465 Y100.309 E5.44941
G1 X106.33 Y100.673 E5.48062
G1 X107.256 Y101.135 E5.51504
G1 X107.925 Y101.514 E5.54062
G1 X108.703 Y102.084 E5.57269
G1 X109.503 Y102.754 E5.6074
G1 X110.067 Y103.278 E5.63301
G1 X110.432 Y103.684 E5.65116
G1 X110.817 Y104.145 E5.67114
G1 X111.278 Y104.76 E5.6967
G1 X111.392 Y104.95 E5.70407
G1 X111.507 Y105.105 E5.71049
G1 X111.97 Y105.907 E5.74129
G1 X112.234 Y106.438 E5.76102
G1 X112.396 Y106.811 E5.77454
G1 X112.668 Y106.675 E5.78466
G1 X113.374 Y106.367 E5.81028
G1 X114.292 Y106.089 E5.84218
G1 X115.375 Y105.836 E5.87917
G1 X116.132 Y105.7 E5.90475
G1 X116.899 Y105.644 E5.93033
G1 X116.916 Y105.644 E5.93089
G1 X117.001 Y105.635 E5.93374
G1 X117.867 Y105.635 E5.96254
G1 X118.447 Y105.669 E5.98186
G1 X119.212 Y105.754 E6.00747
G1 X119.715 Y105.854 E6.02452
G1 X120.727 Y106.093 E6.05911
G1 X121.465 Y106.309 E6.08468
G1 X122.33 Y106.673 E6.1159
G1 X123.256 Y107.135 E6.15032
G1 X123.925 Y107.514 E6.17589
G1 X124.704 Y108.084 E6.20799
G1 X125.499 Y108.75 E6.24249
G1 X126.062 Y109.274 E6.26807
G1 X126.405 Y109.653 E6.28507
G1 X126.797 Y110.118 E6.3053
G1 X127.261 Y110.731 E6.33087
G1 X127.405 Y110.969 E6.34012
G1 X127.507 Y111.106 E6.3458
G1 X127.963 Y111.893 E6.37606
G1 X128.224 Y112.415 E6.39547
G1 X128.532 Y113.12 E6.42105
G1 X128.69 Y113.588 E6.43748
G1 X128.989 Y114.58 E6.47194
G1 X129.173 Y115.327 E6.49753
G1 X129.29 Y116.266 E6.529
G1 X129.353 Y117.299 E6.56343
G1 X129.36 Y118.068 E6.589
G1 X129.256 Y119.029 E6.62115
G1 X129.075 Y120.06 E6.65597
G1 X128.902 Y120.809 E6.68154
G1 X128.747 Y121.292 E6.69841
G1 X128.542 Y121.86 E6.71849
G1 X128.243 Y122.569 E6.74409
G1 X128.106 Y122.818 E6.75354
G1 X128.029 Y122.995 E6.75996
G1 X127.649 Y123.664 E6.78555
G1 X127.36 Y124.083 E6.80248
G1 X126.698 Y124.977 E6.83948
G1 X126.209 Y125.57 E6.86504
G1 X125.502 Y126.247 E6.8976
G1 X124.703 Y126.916 E6.93226
G1 X124.088 Y127.378 E6.95784
G1 X123.772 Y127.563 E6.97002
G1 X123.963 Y127.893 E6.9827
G1 X124.224 Y128.415 E7.00211
G1 X124.532 Y129.12 E7.0277
G1 X124.69 Y129.588 E7.04413
G1 X124.989 Y130.58 E7.07859
G1 X125.173 Y131.327 E7.10418
G1 X125.29 Y132.266 E7.13565
G1 X125.353 Y133.299 E7.17007
G1 X125.36 Y134.068 E7.19565
G1 X125.256 Y135.029 E7.2278
G1 X125.075 Y136.06 E7.26262
G1 X124.902 Y136.809 E7.28819
G1 X124.747 Y137.292 E7.30506
G1 X124.542 Y137.86 E7.32514
G1 X124.243 Y138.569 E7.35073
G1 X124.106 Y138.818 E7.36019
G1 X124.029 Y138.995 E7.36661
G1 X123.649 Y139.664 E7.3922
G1 X123.36 Y140.083 E7.40913
G1 X122.698 Y140.977 E7.44613
G1 X122.209 Y141.57 E7.47169
G1 X121.502 Y142.247 E7.50425
G1 X120.703 Y142.916 E7.53891
G1 X120.088 Y143.378 E7.56449
G1 X119.261 Y143.861 E7.59634
G1 X118.335 Y144.324 E7.63078
G1 X117.63 Y144.632 E7.65637
G1 X116.702 Y144.913 E7.68862
G1 X115.618 Y145.165 E7.72563
G1 X114.86 Y145.3 E7.75124
G1 X114.093 Y145.355 E7.77682
G1 X114.086 Y145.355 E7.77705
G1 X113.982 Y145.366 E7.78053
G1 X113.213 Y145.37 E7.8061
G1 X112.708 Y145.328 E7.82296
G1 X111.601 Y145.199 E7.86003
G1 X110.843 Y145.071 E7.88559
G1 X109.92 Y144.8 E7.91759
G1 X108.945 Y144.444 E7.95211
G1 X108.237 Y144.143 E7.9777
G1 X107.4 Y143.664 E8.00978
G1 X106.534 Y143.091 E8.04431
G1 X105.915 Y142.634 E8.0699
G1 X105.21 Y141.972 E8.10207
G1 X104.454 Y141.163 E8.1389
G1 X103.959 Y140.575 E8.16446
G1 X103.552 Y139.974 E8.1886
G1 X103.493 Y139.894 E8.19191
G1 X103.101 Y139.232 E8.2175
G1 X102.867 Y138.742 E8.23556
G1 X102.423 Y137.718 E8.27268
G1 X102.154 Y136.997 E8.29828
G1 X101.923 Y136.052 E8.33063
G1 X101.744 Y135.031 E8.36511
G1 X101.651 Y134.267 E8.39071
G1 X101.647 Y133.305 E8.4227
G1 X101.71 Y132.266 E8.45732
G1 X101.796 Y131.502 E8.4829
G1 X102.017 Y130.559 E8.51511
G1 X102.34 Y129.498 E8.552
G1 X102.602 Y128.775 E8.57758
G1 X102.937 Y128.083 E8.60315
G1 X102.964 Y128.02 E8.60543
G1 X103.343 Y127.35 E8.63103
G1 X103.643 Y126.913 E8.64866
G1 X104.312 Y126.011 E8.68601
G1 X104.802 Y125.418 E8.7116
G1 X105.512 Y124.74 E8.74425
G1 X106.302 Y124.08 E8.77849
G1 X106.917 Y123.618 E8.80407
G1 X107.223 Y123.44 E8.81584
G1 X107.101 Y123.233 E8.82384
G1 X106.867 Y122.744 E8.84187
G1 X106.622 Y122.18 E8.86232
G1 X106.315 Y122.333 E8.87373
G1 X105.609 Y122.639 E8.89932
G1 X104.688 Y122.916 E8.93131
G1 X103.612 Y123.165 E8.96804
G1 X102.855 Y123.3 E8.99362
G1 X102.088 Y123.355 E9.01919
G1 X102.081 Y123.355 E9.01943
G1 X101.998 Y123.364 E9.0222
G1 X101.229 Y123.369 E9.04778
G1 X100.715 Y123.328 E9.06493
G1 X99.608 Y123.2 E9.10199
G1 X98.85 Y123.072 E9.12756
G1 X97.92 Y122.8 E9.15979
G1 X96.945 Y122.444 E9.19431
G1 X96.237 Y122.143 E9.2199
G1 X95.4 Y121.664 E9.25198
G1 X94.534 Y121.091 E9.28651
G1 X93.915 Y120.634 E9.3121
G1 X93.21 Y119.972 E9.34427
G1 X92.454 Y119.163 E9.3811
G1 X91.959 Y118.575 E9.40666
G1 X91.552 Y117.974 E9.4308
G1 X91.493 Y117.894 E9.43411
G1 X91.101 Y117.232 E9.4597
G1 X90.867 Y116.742 E9.47776
G1 X90.423 Y115.718 E9.51488
G1 X90.154 Y114.997 E9.54048
G1 X89.92 Y114.036 E9.57337
G1 X89.741 Y113.002 E9.60828
G1 X89.65 Y112.239 E9.63383
G1 X89.647 Y111.277 E9.66583
G1 X89.712 Y110.24 E9.70039
G1 X89.8 Y109.476 E9.72597
G1 X90.022 Y108.538 E9.75803
G1 X90.343 Y107.489 E9.79451
G1 X90.606 Y106.766 E9.8201
G1 X90.927 Y106.104 E9.84457
G1 X90.964 Y106.02 E9.84763
G1 X91.343 Y105.35 E9.87323
G1 X91.643 Y104.913 E9.89086
G1 X92.312 Y104.011 E9.92821
G1 X92.802 Y103.418 E9.95379
G1 X93.512 Y102.74 E9.98645
M204 S5000
M205 X30 Y30
G0 F3600 X93.768 Y103.047
M204 S500
M205 X20 Y20
G1 F1800 X94.558 Y102.387 E10.02069
G1 X95.157 Y101.939 E10.04556
G1 X95.918 Y101.497 E10.07483
G1 X96.847 Y101.033 E10.10937
G1 X97.533 Y100.735 E10.13425
G1 X98.383 Y100.479 E10.16377
G1 X99.466 Y100.226 E10.20077
G1 X100.202 Y100.095 E10.22563
G1 X100.948 Y100.043 E10.2505
G1 X100.997 Y100.045 E10.25213
G1 X101.27 Y100.024 E10.26124
G1 X101.844 Y100.034 E10.28033
G1 X102.424 Y100.068 E10.29966
G1 X103.167 Y100.152 E10.32453
G1 X103.623 Y100.243 E10.33999
G1 X104.635 Y100.482 E10.37458
G1 X105.353 Y100.693 E10.39947
G1 X106.151 Y101.031 E10.42829
G1 X107.077 Y101.493 E10.46271
G1 X107.728 Y101.863 E10.48762
G1 X108.446 Y102.39 E10.51724
G1 X109.246 Y103.06 E10.55195
G1 X109.793 Y103.571 E10.57685
G1 X110.125 Y103.94 E10.59335
G1 X110.51 Y104.401 E10.61333
G1 X110.958 Y105 E10.63821
G1 X111.084 Y105.212 E10.64641
G1 X111.307 Y105.534 E10.65944
G1 X111.612 Y106.085 E10.68039
G1 X111.876 Y106.616 E10.70011
G1 X112.173 Y107.302 E10.72497
G1 X112.192 Y107.36 E10.727
G1 X112.847 Y107.033 E10.75135
G1 X113.533 Y106.735 E10.77623
G1 X114.383 Y106.479 E10.80575
G1 X115.466 Y106.226 E10.84274
G1 X116.202 Y106.095 E10.86761
G1 X116.948 Y106.043 E10.89248
G1 X116.997 Y106.045 E10.89411
G1 X117.27 Y106.024 E10.90322
G1 X117.844 Y106.034 E10.92231
G1 X118.424 Y106.068 E10.94164
G1 X119.167 Y106.152 E10.96651
G1 X119.623 Y106.243 E10.98197
G1 X120.635 Y106.482 E11.01656
G1 X121.353 Y106.693 E11.04145
G1 X122.151 Y107.031 E11.07027
G1 X123.077 Y107.493 E11.10469
G1 X123.728 Y107.863 E11.1296
G1 X124.447 Y108.391 E11.15927
G1 X125.242 Y109.057 E11.19376
G1 X125.789 Y109.567 E11.21863
G1 X126.099 Y109.911 E11.23404
G1 X126.491 Y110.376 E11.25427
G1 X126.942 Y110.973 E11.27915
G1 X127.099 Y111.234 E11.28928
G1 X127.307 Y111.535 E11.30145
G1 X127.605 Y112.072 E11.32188
G1 X127.866 Y112.594 E11.34129
G1 X128.164 Y113.28 E11.36616
G1 X128.307 Y113.704 E11.38105
G1 X128.606 Y114.696 E11.41551
G1 X128.783 Y115.423 E11.44039
G1 X128.891 Y116.29 E11.46945
G1 X128.954 Y117.323 E11.50387
G1 X128.96 Y118.071 E11.52875
G1 X128.862 Y118.959 E11.55847
G1 X128.681 Y119.99 E11.59328
G1 X128.512 Y120.719 E11.61817
G1 X128.37 Y121.156 E11.63346
G1 X128.165 Y121.724 E11.65354
G1 X127.874 Y122.413 E11.67842
G1 X127.73 Y122.672 E11.68827
G1 X127.557 Y123.034 E11.70162
G1 X127.039 Y123.845 E11.73362
G1 X126.377 Y124.739 E11.77062
G1 X125.9 Y125.315 E11.7955
G1 X125.245 Y125.94 E11.82561
G1 X124.446 Y126.609 E11.86027
G1 X123.847 Y127.058 E11.88517
G1 X123.227 Y127.419 E11.90903
G1 X123.307 Y127.535 E11.91372
G1 X123.605 Y128.072 E11.93414
G1 X123.866 Y128.594 E11.95355
G1 X124.164 Y129.28 E11.97843
G1 X124.307 Y129.704 E11.99331
G1 X124.606 Y130.696 E12.02777
G1 X124.783 Y131.423 E12.05266
G1 X124.891 Y132.29 E12.08172
G1 X124.954 Y133.323 E12.11614
G1 X124.96 Y134.071 E12.14102
G1 X124.862 Y134.959 E12.17074
