;FLAVOR:Marlin
;TIME:1465
;Filament used: 1.1698m
;Layer height: 0.2
;Generated with Cura_SteamEngine 3.6.0
M140 S60
M105
M190 S60
M104 S200
M105
M109 S200
M82 ;absolute extrusion mode
; Ender 3 Custom Start G-code
G28 ; Home all axes
G92 E0 ; Reset Extruder
G1 Z2.0 F3000 ; Move Z Axis up little to prevent scratching of Heat Bed
G1 X0.1 Y20 Z0.3 F5000.0 ; Move to start position
G1 X0.1 Y200.0 Z0.3 F1500.0 E15 ; Draw the first line
G1 X0.4 Y200.0 Z0.3 F5000.0 ; Move to side a little
G1 X0.4 Y20 Z0.3 F1500.0 E30 ; Draw the second line
G92 E0 ; Reset Extruder
G1 Z2.0 F3000 ; Move Z Axis up little to prevent scratching of Heat Bed
; End of custom start GCode
G92 E0
G1 F2400 E-5
;LAYER_COUNT:102
;LAYER:0
M107
M204 S5000
M205 X30 Y30
G0 F3600 X110.625 Y86.95 Z0.2
M204 S500
M205 X20 Y20
;TYPE:SKIRT
G1 F2400 E0
G1 F1800 X111.069 Y86.39 E0.02377
G1 X111.573 Y85.882 E0.04757
G1 X112.131 Y85.434 E0.07137
G1 X112.735 Y85.051 E0.09516
G1 X113.378 Y84.738 E0.11894
G1 X114.052 Y84.499 E0.14273
G1 X114.749 Y84.336 E0.16654
G1 X115.459 Y84.252 E0.19032
G1 X116.174 Y84.248 E0.2141
G1 X116.885 Y84.324 E0.23788
G1 X117.584 Y84.478 E0.26169
G1 X118.241 Y84.702 E0.28477
G1 X131.129 Y89.882 E0.74676
G1 X131.776 Y90.185 E0.77052
G1 X132.386 Y90.559 E0.79432
G1 X132.951 Y90.998 E0.81812
G1 X133.462 Y91.498 E0.8419
G1 X133.915 Y92.052 E0.8657
G1 X134.303 Y92.653 E0.88949
G1 X134.741 Y93.589 E0.92386
G1 X136.526 Y98.389 E1.09419
G1 X138.679 Y103.331 E1.27348
G1 X139.508 Y105.056 E1.33714
G1 X139.782 Y105.717 E1.36094
G1 X139.98 Y106.404 E1.38472
G1 X140.1 Y107.109 E1.4085
G1 X140.14 Y107.828 E1.43246
G1 X140.14 Y114.199 E1.64436
G1 X140.1 Y114.913 E1.66814
G1 X139.897 Y115.946 E1.70316
G1 X137.943 Y122.831 E1.9412
G1 X136.813 Y128.063 E2.11922
G1 X136.39 Y130.535 E2.20264
G1 X135.71 Y135.834 E2.38033
G1 X135.126 Y144.78 E2.67851
G1 X135.04 Y145.49 E2.7023
G1 X134.875 Y146.186 E2.72609
G1 X134.633 Y146.859 E2.74987
G1 X134.318 Y147.501 E2.77366
G1 X133.933 Y148.104 E2.79745
G1 X133.483 Y148.66 E2.82124
G1 X132.974 Y149.163 E2.84504
G1 X132.412 Y149.605 E2.86883
G1 X131.804 Y149.982 E2.89262
G1 X131.158 Y150.289 E2.91641
G1 X130.481 Y150.522 E2.94022
G1 X129.783 Y150.677 E2.964
G1 X128.727 Y150.763 E2.99924
G1 X115.862 Y150.737 E3.42713
G1 X115.148 Y150.696 E3.45092
G1 X114.443 Y150.575 E3.47471
G1 X113.756 Y150.376 E3.4985
G1 X113.095 Y150.102 E3.5223
G1 X112.469 Y149.756 E3.54609
G1 X111.886 Y149.342 E3.56987
G1 X111.352 Y148.865 E3.59369
G1 X110.875 Y148.333 E3.61745
G1 X110.461 Y147.75 E3.64123
G1 X110.114 Y147.124 E3.66504
G1 X109.772 Y146.263 E3.69585
G1 X108.927 Y143.584 E3.78929
G1 X107.136 Y138.526 E3.96775
G1 X105.083 Y133.632 E4.14427
G1 X102.769 Y128.884 E4.31994
G1 X100.16 Y124.22 E4.49769
G1 X98.812 Y122.033 E4.58314
G1 X95.95 Y117.778 E4.75369
G1 X95.584 Y117.163 E4.7775
G1 X95.29 Y116.512 E4.80125
G1 X95.07 Y115.831 E4.82506
G1 X94.927 Y115.13 E4.84885
G1 X94.86 Y114.206 E4.87967
G1 X94.86 Y107.826 E5.09187
G1 X94.9 Y107.112 E5.11565
G1 X95.019 Y106.407 E5.13943
G1 X95.217 Y105.719 E5.16324
G1 X95.49 Y105.058 E5.18703
G1 X95.834 Y104.431 E5.21082
G1 X96.247 Y103.847 E5.23461
G1 X96.764 Y103.271 E5.26035
G1 X99.674 Y100.398 E5.39636
G1 X103.311 Y96.471 E5.57438
G1 X104.994 Y94.491 E5.66081
G1 X108.277 Y90.277 E5.83849
G1 X110.625 Y86.95 E5.97393
M204 S5000
M205 X30 Y30
G0 F3600 X110.952 Y87.181
M204 S500
M205 X20 Y20
G1 F1800 X111.383 Y86.639 E5.99696
G1 X111.874 Y86.15 E6.02001
G1 X112.417 Y85.722 E6.043
G1 X113.007 Y85.358 E6.06606
G1 X113.635 Y85.066 E6.08909
G1 X114.292 Y84.847 E6.11213
G1 X114.97 Y84.706 E6.13516
G1 X115.659 Y84.643 E6.15817
G1 X116.352 Y84.661 E6.18123
G1 X117.037 Y84.758 E6.20424
G1 X117.707 Y84.933 E6.22727
G1 X118.092 Y85.073 E6.2409
G1 X130.98 Y90.253 E6.70288
G1 X131.606 Y90.548 E6.7259
G1 X132.195 Y90.913 E6.74895
G1 X132.737 Y91.343 E6.77196
G1 X133.226 Y91.834 E6.795
G1 X133.656 Y92.377 E6.81804
G1 X134.02 Y92.966 E6.84107
G1 X134.366 Y93.728 E6.86891
G1 X136.157 Y98.543 E7.03977
G1 X138.305 Y103.475 E7.21869
G1 X139.148 Y105.229 E7.28342
G1 X139.411 Y105.869 E7.30643
G1 X139.599 Y106.536 E7.32948
G1 X139.709 Y107.22 E7.35253
G1 X139.74 Y107.828 E7.37277
G1 X139.74 Y114.199 E7.58467
G1 X139.7 Y114.89 E7.6077
G1 X139.512 Y115.837 E7.63981
G1 X137.556 Y122.731 E7.87815
G1 X136.422 Y127.981 E8.0568
G1 X135.993 Y130.49 E8.14146
G1 X135.313 Y135.788 E8.31911
G1 X134.727 Y144.754 E8.61796
G1 X134.642 Y145.441 E8.64099
G1 X134.479 Y146.114 E8.66402
G1 X134.239 Y146.764 E8.68706
G1 X133.925 Y147.382 E8.71012
G1 X133.543 Y147.959 E8.73313
G1 X133.097 Y148.488 E8.75615
G1 X132.592 Y148.963 E8.77921
G1 X132.037 Y149.376 E8.80222
G1 X131.437 Y149.723 E8.82527
G1 X130.801 Y149.998 E8.84832
G1 X130.138 Y150.198 E8.87135
G1 X129.457 Y150.32 E8.89436
G1 X128.728 Y150.363 E8.91865
G1 X115.863 Y150.337 E9.34654
G1 X115.172 Y150.296 E9.36956
G1 X114.49 Y150.175 E9.3926
G1 X113.826 Y149.976 E9.41566
G1 X113.19 Y149.703 E9.43868
G1 X112.59 Y149.358 E9.4617
G1 X112.033 Y148.946 E9.48474
G1 X111.528 Y148.472 E9.50778
G1 X111.08 Y147.944 E9.53081
G1 X110.696 Y147.367 E9.55386
G1 X110.382 Y146.75 E9.57688
G1 X110.153 Y146.143 E9.59846
G1 X109.3 Y143.439 E9.69277
G1 X107.508 Y138.379 E9.87131
G1 X105.451 Y133.473 E10.04824
G1 X103.117 Y128.685 E10.22541
G1 X100.514 Y124.031 E10.40276
G1 X99.149 Y121.817 E10.48927
G1 X96.282 Y117.555 E10.66012
G1 X95.929 Y116.959 E10.68315
G1 X95.647 Y116.326 E10.7062
G1 X95.44 Y115.665 E10.72924
G1 X95.311 Y114.985 E10.75226
G1 X95.26 Y114.206 E10.77823
G1 X95.26 Y107.826 E10.99043
G1 X95.3 Y107.135 E11.01345
G1 X95.419 Y106.452 E11.03651
G1 X95.617 Y105.789 E11.05952
G1 X95.889 Y105.152 E11.08256
G1 X96.233 Y104.551 E11.10559
G1 X96.644 Y103.993 E11.12864
G1 X97.045 Y103.556 E11.14837
G1 X99.956 Y100.683 E11.2844
G1 X103.615 Y96.732 E11.46351
G1 X105.297 Y94.752 E11.54992
G1 X108.607 Y90.504 E11.72903
G1 X110.952 Y87.181 E11.86431
M204 S5000
M205 X30 Y30
G0 F3600 X111.278 Y87.411
M204 S500
M205 X20 Y20
G1 F1800 X111.696 Y86.889 E11.88655
G1 X112.173 Y86.42 E11.9088
G1 X112.703 Y86.011 E11.93106
G1 X113.277 Y85.668 E11.9533
G1 X113.888 Y85.396 E11.97555
G1 X114.528 Y85.199 E11.99782
G1 X115.186 Y85.08 E12.02006
G1 X115.854 Y85.04 E12.04232
G1 X116.522 Y85.08 E12.06458
G1 X117.18 Y85.199 E12.08682
G1 X117.942 Y85.444 E12.11344
G1 X130.83 Y90.624 E12.57542
G1 X131.435 Y90.91 E12.59768
G1 X132.001 Y91.266 E12.61992
G1 X132.521 Y91.688 E12.64219
G1 X132.987 Y92.168 E12.66444
G1 X133.392 Y92.7 E12.68668
G1 X133.731 Y93.277 E12.70894
G1 X133.991 Y93.868 E12.73042
G1 X135.787 Y98.697 E12.90178
G1 X137.94 Y103.64 E13.0811
G1 X138.787 Y105.402 E13.14612
G1 X139.041 Y106.021 E13.16838
G1 X139.218 Y106.666 E13.19062
G1 X139.318 Y107.328 E13.21289
G1 X139.34 Y107.828 E13.22954
G1 X139.34 Y114.199 E13.44144
G1 X139.3 Y114.867 E13.4637
G1 X139.127 Y115.728 E13.49291
G1 X137.167 Y122.634 E13.73167
G1 X136.03 Y127.898 E13.91079
G1 X135.595 Y130.441 E13.9966
G1 X134.915 Y135.743 E14.17439
G1 X134.328 Y144.728 E14.47387
G1 X134.245 Y145.392 E14.49612
G1 X134.083 Y146.041 E14.51837
G1 X133.844 Y146.666 E14.54063
G1 X133.533 Y147.258 E14.56287
G1 X133.154 Y147.809 E14.58511
G1 X132.711 Y148.311 E14.60738
G1 X132.212 Y148.757 E14.62964
G1 X131.663 Y149.139 E14.65189
G1 X131.073 Y149.454 E14.67413
G1 X130.449 Y149.696 E14.69639
G1 X129.801 Y149.862 E14.71864
G1 X129.138 Y149.949 E14.74088
G1 X128.729 Y149.963 E14.75449
G1 X115.864 Y149.937 E15.18239
G1 X115.196 Y149.896 E15.20464
G1 X114.538 Y149.775 E15.2269
G1 X113.899 Y149.577 E15.24915
G1 X113.288 Y149.304 E15.27141
G1 X112.714 Y148.96 E15.29366
G1 X112.186 Y148.55 E15.3159
G1 X111.709 Y148.08 E15.33817
G1 X111.293 Y147.556 E15.36042
G1 X110.942 Y146.987 E15.38266
G1 X110.661 Y146.38 E15.40491
G1 X110.535 Y146.022 E15.41753
G1 X109.688 Y143.338 E15.51114
G1 X107.879 Y138.227 E15.69146
G1 X105.815 Y133.307 E15.86892
G1 X103.476 Y128.507 E16.04652
G1 X100.86 Y123.832 E16.2247
G1 X99.481 Y121.593 E16.31216
G1 X96.614 Y117.332 E16.48297
G1 X96.274 Y116.755 E16.50525
G1 X96.005 Y116.142 E16.52751
G1 X95.812 Y115.502 E16.54974
G1 X95.696 Y114.843 E16.572
G1 X95.66 Y114.206 E16.59322
G1 X95.66 Y107.826 E16.80542
G1 X95.7 Y107.158 E16.82768
G1 X95.819 Y106.5 E16.84992
G1 X96.016 Y105.86 E16.87219
G1 X96.288 Y105.249 E16.89443
G1 X96.631 Y104.675 E16.91667
G1 X97.04 Y104.145 E16.93894
G1 X97.326 Y103.84 E16.95285
G1 X100.247 Y100.957 E17.08935
G1 X103.919 Y96.991 E17.26912
G1 X105.613 Y94.999 E17.35609
G1 X108.91 Y90.767 E17.53452
G1 X111.278 Y87.411 E17.67113
M204 S5000
M205 X30 Y30
G0 F3600 X111.605 Y87.642
M204 S500
M205 X20 Y20
G1 F1800 X112.009 Y87.139 E17.69259
G1 X112.471 Y86.69 E17.71402
G1 X112.986 Y86.302 E17.73546
G1 X113.545 Y85.981 E17.7569
G1 X114.139 Y85.731 E17.77834
G1 X114.76 Y85.556 E17.7998
G1 X115.397 Y85.46 E17.82122
G1 X116.042 Y85.443 E17.84268
G1 X116.683 Y85.507 E17.86411
G1 X117.312 Y85.649 E17.88556
G1 X117.793 Y85.815 E17.90248
G1 X130.681 Y90.995 E18.36447
G1 X131.263 Y91.272 E18.3859
G1 X131.807 Y91.619 E18.40736
G1 X132.303 Y92.031 E18.42881
G1 X132.744 Y92.5 E18.45022
G1 X133.124 Y93.021 E18.47167
G1 X133.437 Y93.585 E18.49312
G1 X133.616 Y94.007 E18.50837
G1 X135.416 Y98.847 E18.68012
G1 X137.575 Y103.804 E18.85995
G1 X138.427 Y105.576 E18.92535
G1 X138.67 Y106.173 E18.94678
G1 X138.836 Y106.795 E18.9682
G1 X138.925 Y107.434 E18.98966
G1 X138.94 Y107.828 E19.00277
G1 X138.94 Y114.199 E19.21467
G1 X138.9 Y114.842 E19.2361
G1 X138.743 Y115.618 E19.26243
G1 X136.778 Y122.545 E19.50191
G1 X135.639 Y127.816 E19.68127
G1 X135.202 Y130.373 E19.76755
G1 X134.516 Y135.714 E19.94665
G1 X133.929 Y144.702 E20.24623
G1 X133.847 Y145.341 E20.26766
G1 X133.687 Y145.966 E20.28912
G1 X133.45 Y146.566 E20.31058
G1 X133.142 Y147.132 E20.33201
G1 X132.765 Y147.655 E20.35345
G1 X132.327 Y148.128 E20.37489
G1 X131.834 Y148.543 E20.39633
G1 X131.293 Y148.893 E20.41776
G1 X130.713 Y149.174 E20.43919
G1 X130.102 Y149.381 E20.46065
G1 X129.471 Y149.511 E20.48208
G1 X128.729 Y149.563 E20.50682
G1 X115.864 Y149.537 E20.93471
G1 X115.221 Y149.496 E20.95614
G1 X114.588 Y149.375 E20.97757
G1 X113.974 Y149.177 E20.99903
G1 X113.39 Y148.905 E21.02046
G1 X112.844 Y148.562 E21.0419
G1 X112.344 Y148.155 E21.06335
G1 X111.899 Y147.688 E21.0848
G1 X111.515 Y147.171 E21.10622
G1 X111.198 Y146.61 E21.12765
G1 X110.916 Y145.902 E21.153
G1 X110.061 Y143.193 E21.24748
G1 X108.251 Y138.081 E21.42785
G1 X106.186 Y133.156 E21.60548
G1 X103.827 Y128.316 E21.78456
G1 X101.197 Y123.615 E21.96372
G1 X99.828 Y121.394 E22.0505
G1 X96.945 Y117.108 E22.2223
G1 X96.619 Y116.552 E22.24373
G1 X96.365 Y115.96 E22.26516
G1 X96.185 Y115.341 E22.2866
G1 X96.084 Y114.704 E22.30805
G1 X96.06 Y114.206 E22.32464
G1 X96.06 Y107.826 E22.53683
G1 X96.1 Y107.183 E22.55826
G1 X96.219 Y106.549 E22.57972
G1 X96.416 Y105.935 E22.60116
G1 X96.687 Y105.35 E22.62261
G1 X97.029 Y104.803 E22.64406
G1 X97.607 Y104.125 E22.6737
G1 X100.539 Y101.231 E22.81072
G1 X104.213 Y97.264 E22.99056
G1 X105.916 Y95.26 E23.07803
G1 X109.24 Y90.994 E23.2579
G1 X111.605 Y87.642 E23.39434
M204 S5000
M205 X30 Y30
G0 F3600 X115.85 Y92.818
M204 S500
M205 X20 Y20
;TYPE:SUPPORT
G1 F1800 X125.746 Y96.826 E23.74946
G1 X127.034 Y97.453 E23.7971
G1 X128.463 Y98.457 E23.85519
G1 X128.75 Y98.309 E23.86593
G1 X128.75 Y107.388 E24.1679
G1 X129.149 Y107.787 E24.18667
G1 X133.434 Y107.787 E24.32919
G1 X133.55 Y107.903 E24.33464
G1 X133.55 Y114.126 E24.54162
G1 X133.434 Y114.242 E24.54708
G1 X133.089 Y114.242 E24.55855
G1 X132.655 Y114.53 E24.57588
G1 X132.541 Y114.8 E24.58562
G1 X129.149 Y114.8 E24.69844
G1 X128.75 Y115.199 E24.71721
G1 X128.748 Y140.48 E25.55806
G1 X128.462 Y140.332 E25.56877
G1 X127.138 Y141.268 E25.6227
G1 X125.988 Y141.864 E25.66578
G1 X124.791 Y142.291 E25.70805
G1 X123.532 Y142.552 E25.75081
G1 X122.21 Y142.642 E25.79489
G1 X117.879 Y142.642 E25.93894
G1 X115.85 Y142.543 E26.0065
G1 X115.85 Y114.641 E26.93452
G1 X115.451 Y114.242 E26.95329
G1 X105.289 Y114.242 E27.29128
G1 X104.855 Y114.53 E27.30861
G1 X104.741 Y114.8 E27.31835
G1 X102.459 Y114.8 E27.39425
G1 X102.345 Y114.53 E27.404
G1 X101.911 Y114.242 E27.42133
G1 X101.566 Y114.242 E27.4328
G1 X101.45 Y114.126 E27.43826
G1 X101.45 Y107.903 E27.64523
G1 X101.566 Y107.787 E27.65069
G1 X115.451 Y107.787 E28.11251
G1 X115.85 Y107.388 E28.13128
G1 X115.85 Y92.818 E28.61588
M204 S5000
M205 X30 Y30
G0 F3600 X121.878 Y130.768
M204 S500
M205 X20 Y20
G1 F1800 X121.358 Y130.892 E28.63366
G1 X120.973 Y131.102 E28.64824
G1 X120.458 Y131.451 E28.66893
G1 X120.101 Y131.977 E28.69008
G1 X119.917 Y132.324 E28.70314
G1 X119.795 Y132.756 E28.71807
G1 X119.749 Y133.146 E28.73113
G1 X119.773 Y133.618 E28.74685
G1 X119.897 Y134.091 E28.76311
G1 X120.048 Y134.414 E28.77497
G1 X120.29 Y134.809 E28.79038
G1 X120.637 Y135.157 E28.80673
G1 X121.023 Y135.427 E28.82239
G1 X121.466 Y135.62 E28.83847
G1 X121.841 Y135.706 E28.85126
G1 X122.25 Y135.748 E28.86494
G1 X122.659 Y135.706 E28.87861
G1 X123.034 Y135.62 E28.89141
G1 X123.477 Y135.427 E28.90748
G1 X123.863 Y135.157 E28.92315
G1 X124.21 Y134.809 E28.93949
G1 X124.452 Y134.414 E28.9549
G1 X124.603 Y134.091 E28.96676
G1 X124.727 Y133.618 E28.98302
G1 X124.751 Y133.146 E28.99874
G1 X124.705 Y132.756 E29.0118
G1 X124.583 Y132.324 E29.02673
G1 X124.399 Y131.977 E29.0398
G1 X124.042 Y131.451 E29.06094
G1 X123.527 Y131.102 E29.08163
G1 X123.142 Y130.892 E29.09622
G1 X122.622 Y130.768 E29.114
G1 X122.25 Y130.748 E29.12639
G1 X121.878 Y130.768 E29.13878
M204 S5000
M205 X30 Y30
G0 F3600 X121.541 Y130.683
M204 S500
M205 X20 Y20
G1 F1800 X116.009 Y130.683 E29.32278
M204 S5000
M205 X30 Y30
G0 F3600 X116.009 Y128.016
M204 S500
M205 X20 Y20
G1 F1800 X128.587 Y128.016 E29.74112
M204 S5000
M205 X30 Y30
G0 F3600 X128.587 Y130.683
M204 S500
M205 X20 Y20
G1 F1800 X122.956 Y130.683 E29.92841
M204 S5000
M205 X30 Y30
G0 F3600 X122.682 Y130.617
M204 S500
M205 X20 Y20
G1 F1800 X122.682 Y95.758 E31.08782
M204 S5000
M205 X30 Y30
G0 F3600 X123.313 Y96.012
M204 S500
M205 X20 Y20
G1 F1800 X116.01 Y96.012 E31.33072
M204 S5000
M205 X30 Y30
G0 F3600 X116.01 Y93.345
M204 S500
M205 X20 Y20
G1 F1800 X116.727 Y93.345 E31.35457
M204 S5000
M205 X30 Y30
G0 F3600 X117.348 Y93.597
M204 S500
M205 X20 Y20
G1 F1800 X117.348 Y142.455 E32.97959
M204 S5000
M205 X30 Y30
G0 F3600 X116.009 Y141.351
M204 S500
M205 X20 Y20
G1 F1800 X126.627 Y141.351 E33.33275
M204 S5000
M205 X30 Y30
G0 F3600 X125.349 Y141.924
M204 S500
M205 X20 Y20
G1 F1800 X125.349 Y96.838 E34.83232
M204 S5000
M205 X30 Y30
G0 F3600 X128.016 Y98.339
M204 S500
M205 X20 Y20
G1 F1800 X128.016 Y140.451 E36.23297
M204 S5000
M205 X30 Y30
G0 F3600 X128.587 Y138.684
M204 S500
M205 X20 Y20
G1 F1800 X116.009 Y138.684 E36.65131
M204 S5000
M205 X30 Y30
G0 F3600 X116.009 Y136.017
M204 S500
M205 X20 Y20
G1 F1800 X128.587 Y136.017 E37.06966
M204 S5000
M205 X30 Y30
G0 F3600 X128.587 Y133.35
M204 S500
M205 X20 Y20
G1 F1800 X124.901 Y133.35 E37.19226
M204 S5000
M205 X30 Y30
G0 F3600 X122.682 Y135.864
M204 S500
M205 X20 Y20
G1 F1800 X122.682 Y142.45 E37.41131
M204 S5000
M205 X30 Y30
G0 F3600 X120.015 Y142.482
M204 S500
M205 X20 Y20
G1 F1800 X120.015 Y134.667 E37.67124
M204 S5000
M205 X30 Y30
G0 F3600 X119.598 Y133.35
M204 S500
M205 X20 Y20
G1 F1800 X116.009 Y133.35 E37.79061
M204 S5000
M205 X30 Y30
G0 F3600 X120.015 Y131.819
M204 S500
M205 X20 Y20
G1 F1800 X120.015 Y94.678 E39.02592
M204 S5000
M205 X30 Y30
G0 F3600 X116.01 Y98.679
M204 S500
M205 X20 Y20
G1 F1800 X128.59 Y98.679 E39.44433
M204 S5000
M205 X30 Y30
G0 F3600 X128.59 Y101.346
M204 S500
M205 X20 Y20
G1 F1800 X116.01 Y101.346 E39.86275
M204 S5000
M205 X30 Y30
G0 F3600 X116.01 Y104.013
M204 S500
M205 X20 Y20
G1 F1800 X128.59 Y104.013 E40.28116
M204 S5000
M205 X30 Y30
G0 F3600 X128.59 Y106.68
M204 S500
M205 X20 Y20
G1 F1800 X116.01 Y106.68 E40.69957
M204 S5000
M205 X30 Y30
G0 F3600 X114.681 Y107.947
M204 S500
M205 X20 Y20
G1 F1800 X114.681 Y114.082 E40.90362
M204 S5000
M205 X30 Y30
G0 F3600 X116.01 Y114.681
M204 S500
M205 X20 Y20
G1 F1800 X129.04 Y114.681 E41.337
M204 S5000
M205 X30 Y30
G0 F3600 X130.683 Y114.64
M204 S500
M205 X20 Y20
