;FLAVOR:Marlin
;TIME:1509
;Filament used: 1.23865m
;Layer height: 0.2
;Generated with Cura_SteamEngine 3.6.0
M140 S60
M105
M190 S60
M104 S200
M105
M109 S200
M82 ;absolute extrusion mode
; Ender 3 Custom Start G-code
G28 ; Home all axes
G92 E0 ; Reset Extruder
G1 Z2.0 F3000 ; Move Z Axis up little to prevent scratching of Heat Bed
G1 X0.1 Y20 Z0.3 F5000.0 ; Move to start position
G1 X0.1 Y200.0 Z0.3 F1500.0 E15 ; Draw the first line
G1 X0.4 Y200.0 Z0.3 F5000.0 ; Move to side a little
G1 X0.4 Y20 Z0.3 F1500.0 E30 ; Draw the second line
G92 E0 ; Reset Extruder
G1 Z2.0 F3000 ; Move Z Axis up little to prevent scratching of Heat Bed
; End of custom start GCode
G92 E0
G1 F2400 E-5
;LAYER_COUNT:102
;LAYER:0
M107
M204 S5000
M205 X30 Y30
G0 F3600 X96.722 Y103.377 Z0.2
M204 S500
M205 X20 Y20
;TYPE:SKIRT
G1 F2400 E0
G1 F1800 X97.196 Y102.946 E0.02131
G1 X102.459 Y98.619 E0.24792
G1 X104.377 Y96.908 E0.33341
G1 X108.219 Y93.173 E0.51163
G1 X111.164 Y90.005 E0.65549
G1 X111.679 Y89.51 E0.67925
G1 X112.247 Y89.074 E0.70306
G1 X112.86 Y88.705 E0.72686
G1 X113.649 Y88.354 E0.75558
G1 X126.54 Y83.63 E1.21222
G1 X127.224 Y83.422 E1.236
G1 X127.927 Y83.291 E1.25979
G1 X128.641 Y83.24 E1.28359
G1 X129.356 Y83.268 E1.30739
G1 X130.063 Y83.377 E1.33119
G1 X130.753 Y83.563 E1.35495
G1 X131.418 Y83.826 E1.37874
G1 X132.05 Y84.16 E1.40251
G1 X132.641 Y84.564 E1.42633
G1 X133.183 Y85.031 E1.45012
G1 X133.67 Y85.555 E1.47391
G1 X134.095 Y86.13 E1.4977
G1 X134.453 Y86.75 E1.52151
G1 X134.739 Y87.405 E1.54528
G1 X135.006 Y88.325 E1.57714
G1 X136.332 Y94.649 E1.79205
G1 X136.972 Y97.123 E1.87705
G1 X138.539 Y102.267 E2.0559
G1 X139.772 Y105.747 E2.17869
G1 X139.973 Y106.433 E2.20247
G1 X140.096 Y107.138 E2.22627
G1 X140.14 Y107.885 E2.25116
G1 X140.14 Y114.259 E2.46316
G1 X140.1 Y114.973 E2.48695
G1 X139.981 Y115.678 E2.51073
G1 X139.88 Y116.066 E2.52406
G1 X138.595 Y120.431 E2.6754
G1 X137.332 Y125.656 E2.85419
G1 X136.842 Y128.159 E2.93902
G1 X136.035 Y133.423 E3.11615
G1 X135.525 Y138.749 E3.2941
G1 X135.13 Y145.727 E3.52656
G1 X135.049 Y146.438 E3.55036
G1 X134.89 Y147.135 E3.57414
G1 X134.654 Y147.81 E3.59793
G1 X134.345 Y148.455 E3.62171
G1 X133.965 Y149.061 E3.6455
G1 X133.52 Y149.621 E3.66929
G1 X133.015 Y150.128 E3.69309
G1 X132.457 Y150.575 E3.71687
G1 X131.852 Y150.957 E3.74067
G1 X131.209 Y151.27 E3.76446
G1 X130.535 Y151.508 E3.78823
G1 X129.838 Y151.67 E3.81203
G1 X129.128 Y151.753 E3.83581
G1 X128.74 Y151.765 E3.84872
G1 X115.858 Y151.764 E4.27718
G1 X115.143 Y151.724 E4.30099
G1 X114.438 Y151.605 E4.32477
G1 X113.751 Y151.407 E4.34855
G1 X113.09 Y151.134 E4.37234
G1 X112.463 Y150.789 E4.39614
G1 X111.879 Y150.377 E4.41991
G1 X111.344 Y149.901 E4.44373
G1 X110.866 Y149.369 E4.46752
G1 X110.45 Y148.787 E4.49131
G1 X110.102 Y148.162 E4.5151
G1 X109.728 Y147.202 E4.54937
G1 X108.41 Y142.808 E4.70195
G1 X106.608 Y137.745 E4.88069
G1 X105.657 Y135.398 E4.96492
G1 X103.441 Y130.527 E5.14291
G1 X100.977 Y125.831 E5.31929
G1 X98.247 Y121.278 E5.49586
G1 X95.936 Y117.815 E5.63433
G1 X95.573 Y117.199 E5.65812
G1 X95.281 Y116.546 E5.68191
G1 X95.064 Y115.865 E5.70568
G1 X94.924 Y115.164 E5.72945
G1 X94.86 Y114.263 E5.7595
G1 X94.86 Y107.89 E5.97146
G1 X94.9 Y107.176 E5.99525
G1 X95.019 Y106.471 E6.01903
G1 X95.217 Y105.783 E6.04284
G1 X95.49 Y105.122 E6.06663
G1 X95.834 Y104.495 E6.09041
G1 X96.247 Y103.911 E6.1142
G1 X96.722 Y103.377 E6.13797
M204 S5000
M205 X30 Y30
G0 F3600 X97.116 Y103.551
M204 S500
M205 X20 Y20
G1 F1800 X97.45 Y103.255 E6.15282
G1 X102.723 Y98.92 E6.37986
G1 X104.639 Y97.211 E6.46525
G1 X108.518 Y93.44 E6.64519
G1 X111.457 Y90.278 E6.78877
G1 X111.957 Y89.799 E6.8118
G1 X112.509 Y89.38 E6.83485
G1 X113.105 Y89.028 E6.85787
G1 X113.787 Y88.729 E6.88264
G1 X126.678 Y84.005 E7.33928
G1 X127.34 Y83.805 E7.36228
G1 X128.022 Y83.682 E7.38533
G1 X128.713 Y83.639 E7.40835
G1 X129.405 Y83.676 E7.4314
G1 X130.087 Y83.792 E7.45441
G1 X130.752 Y83.986 E7.47745
G1 X131.39 Y84.255 E7.50048
G1 X131.993 Y84.596 E7.52352
G1 X132.552 Y85.004 E7.54654
G1 X133.061 Y85.474 E7.56958
G1 X133.512 Y86 E7.59263
G1 X133.9 Y86.574 E7.61567
G1 X134.219 Y87.188 E7.63868
G1 X134.465 Y87.836 E7.66174
G1 X134.614 Y88.407 E7.68137
G1 X135.939 Y94.724 E7.89604
G1 X136.586 Y97.226 E7.982
G1 X138.163 Y102.405 E8.16206
G1 X139.395 Y105.881 E8.28472
G1 X139.589 Y106.546 E8.30776
G1 X139.704 Y107.228 E8.33076
G1 X139.74 Y107.885 E8.35265
G1 X139.74 Y114.259 E8.56465
G1 X139.7 Y114.95 E8.58767
G1 X139.496 Y115.953 E8.62171
G1 X138.209 Y120.326 E8.77333
G1 X136.94 Y125.577 E8.953
G1 X136.451 Y128.071 E9.03753
G1 X135.638 Y133.376 E9.21604
G1 X135.124 Y138.741 E9.39529
G1 X134.73 Y145.704 E9.62726
G1 X134.651 Y146.392 E9.65029
G1 X134.494 Y147.067 E9.67334
G1 X134.259 Y147.718 E9.69636
G1 X133.951 Y148.339 E9.71941
G1 X133.574 Y148.919 E9.74242
G1 X133.132 Y149.453 E9.76548
G1 X132.632 Y149.931 E9.78848
G1 X132.08 Y150.35 E9.81153
G1 X131.483 Y150.701 E9.83457
G1 X130.85 Y150.982 E9.8576
G1 X130.189 Y151.187 E9.88062
G1 X129.508 Y151.316 E9.90367
G1 X128.74 Y151.365 E9.92927
G1 X115.858 Y151.364 E10.35773
G1 X115.166 Y151.324 E10.38078
G1 X114.484 Y151.205 E10.40381
G1 X113.82 Y151.007 E10.42685
G1 X113.183 Y150.735 E10.44989
G1 X112.582 Y150.391 E10.47292
G1 X112.025 Y149.98 E10.49595
G1 X111.519 Y149.508 E10.51896
G1 X111.07 Y148.98 E10.54201
G1 X110.685 Y148.404 E10.56506
G1 X110.369 Y147.788 E10.58808
G1 X110.111 Y147.088 E10.6129
G1 X108.787 Y142.674 E10.76617
G1 X106.981 Y137.601 E10.94527
G1 X106.026 Y135.243 E11.02989
G1 X103.796 Y130.339 E11.20907
G1 X101.332 Y125.646 E11.38536
G1 X98.584 Y121.062 E11.56312
G1 X96.269 Y117.593 E11.70184
G1 X95.919 Y116.996 E11.72485
G1 X95.639 Y116.362 E11.7479
G1 X95.435 Y115.701 E11.77091
G1 X95.308 Y115.02 E11.79395
G1 X95.26 Y114.263 E11.81918
G1 X95.26 Y107.89 E12.03115
G1 X95.3 Y107.199 E12.05417
G1 X95.419 Y106.516 E12.07723
G1 X95.617 Y105.853 E12.10024
G1 X95.889 Y105.216 E12.12328
G1 X96.233 Y104.615 E12.14631
G1 X96.644 Y104.057 E12.16936
G1 X97.116 Y103.551 E12.19238
M204 S5000
M205 X30 Y30
G0 F3600 X97.04 Y104.209
M204 S500
M205 X20 Y20
G1 F1800 X97.704 Y103.564 E12.22317
G1 X102.973 Y99.233 E12.45002
G1 X104.925 Y97.491 E12.53704
G1 X108.797 Y93.726 E12.71666
G1 X111.75 Y90.55 E12.8609
G1 X112.234 Y90.088 E12.88316
G1 X112.769 Y89.687 E12.9054
G1 X113.349 Y89.353 E12.92766
G1 X113.924 Y89.105 E12.94849
G1 X126.815 Y84.381 E13.40512
G1 X127.456 Y84.189 E13.42738
G1 X128.115 Y84.074 E13.44963
G1 X128.783 Y84.039 E13.47188
G1 X129.451 Y84.084 E13.49415
G1 X130.108 Y84.208 E13.51638
G1 X130.746 Y84.41 E13.53864
G1 X131.355 Y84.686 E13.56088
G1 X131.927 Y85.033 E13.58313
G1 X132.454 Y85.446 E13.6054
G1 X132.927 Y85.919 E13.62765
G1 X133.341 Y86.444 E13.64989
G1 X133.689 Y87.016 E13.67216
G1 X133.967 Y87.624 E13.69439
G1 X134.223 Y88.49 E13.72443
G1 X135.549 Y94.815 E13.93937
G1 X136.204 Y97.345 E14.02629
G1 X137.78 Y102.521 E14.20625
G1 X139.018 Y106.014 E14.32951
G1 X139.204 Y106.657 E14.35177
G1 X139.311 Y107.317 E14.37401
G1 X139.34 Y107.885 E14.39293
G1 X139.34 Y114.259 E14.60493
G1 X139.3 Y114.927 E14.62719
G1 X139.112 Y115.84 E14.65819
G1 X137.823 Y120.221 E14.81008
G1 X136.553 Y125.475 E14.98986
G1 X136.052 Y128.031 E15.07649
G1 X135.242 Y133.311 E15.25416
G1 X134.726 Y138.705 E15.43438
G1 X134.331 Y145.682 E15.66681
G1 X134.253 Y146.346 E15.68905
G1 X134.097 Y146.997 E15.71131
G1 X133.864 Y147.624 E15.73356
G1 X133.558 Y148.219 E15.75581
G1 X133.184 Y148.773 E15.77804
G1 X132.745 Y149.279 E15.80033
G1 X132.25 Y149.728 E15.82255
G1 X131.705 Y150.116 E15.8448
G1 X131.117 Y150.436 E15.86707
G1 X130.495 Y150.683 E15.88933
G1 X129.849 Y150.854 E15.91155
G1 X129.186 Y150.947 E15.93382
G1 X128.74 Y150.965 E15.94867
G1 X115.858 Y150.964 E16.37713
G1 X115.19 Y150.924 E16.39938
G1 X114.531 Y150.805 E16.42166
G1 X113.892 Y150.608 E16.4439
G1 X113.281 Y150.336 E16.46614
G1 X112.706 Y149.993 E16.48841
G1 X112.177 Y149.584 E16.51065
G1 X111.7 Y149.115 E16.5329
G1 X111.282 Y148.592 E16.55517
G1 X110.93 Y148.023 E16.57742
G1 X110.648 Y147.417 E16.59965
G1 X110.494 Y146.973 E16.61528
G1 X109.17 Y142.557 E16.76862
G1 X107.357 Y137.465 E16.94839
G1 X106.381 Y135.056 E17.03484
G1 X104.16 Y130.174 E17.21323
G1 X101.679 Y125.446 E17.39082
G1 X98.921 Y120.846 E17.56921
G1 X96.602 Y117.371 E17.70816
G1 X96.264 Y116.794 E17.73041
G1 X95.998 Y116.18 E17.75266
G1 X95.807 Y115.539 E17.77491
G1 X95.694 Y114.879 E17.79718
G1 X95.66 Y114.263 E17.8177
G1 X95.66 Y107.89 E18.02966
G1 X95.7 Y107.222 E18.05192
G1 X95.819 Y106.564 E18.07416
G1 X96.016 Y105.924 E18.09643
G1 X96.288 Y105.313 E18.11868
G1 X96.631 Y104.739 E18.14092
G1 X97.04 Y104.209 E18.16319
M204 S5000
M205 X30 Y30
G0 F3600 X97.435 Y104.367
M204 S500
M205 X20 Y20
G1 F1800 X97.958 Y103.873 E18.18711
G1 X103.237 Y99.533 E18.41441
G1 X105.199 Y97.783 E18.50186
G1 X109.077 Y94.013 E18.68174
G1 X112.043 Y90.822 E18.82664
G1 X112.51 Y90.378 E18.84808
G1 X113.029 Y89.996 E18.86951
G1 X113.591 Y89.68 E18.89095
G1 X114.062 Y89.481 E18.90796
G1 X126.953 Y84.757 E19.3646
G1 X127.571 Y84.573 E19.38604
G1 X128.207 Y84.467 E19.40749
G1 X128.851 Y84.44 E19.42893
G1 X129.493 Y84.494 E19.45036
G1 X130.124 Y84.626 E19.4718
G1 X130.734 Y84.836 E19.49326
G1 X131.313 Y85.119 E19.51469
G1 X131.852 Y85.472 E19.53612
G1 X132.344 Y85.889 E19.55757
G1 X132.78 Y86.363 E19.57899
G1 X133.155 Y86.888 E19.60045
G1 X133.461 Y87.455 E19.62188
G1 X133.695 Y88.056 E19.64333
G1 X133.831 Y88.572 E19.66108
G1 X135.157 Y94.895 E19.87596
G1 X135.822 Y97.465 E19.96425
G1 X137.397 Y102.639 E20.14414
G1 X138.641 Y106.148 E20.26796
G1 X138.819 Y106.768 E20.28942
G1 X138.918 Y107.405 E20.31086
G1 X138.94 Y107.885 E20.32684
G1 X138.94 Y114.259 E20.53884
G1 X138.9 Y114.902 E20.56027
G1 X138.729 Y115.727 E20.58829
G1 X137.432 Y120.135 E20.74112
G1 X136.16 Y125.396 E20.92114
G1 X135.662 Y127.939 E21.00733
G1 X134.842 Y133.284 E21.18718
G1 X134.329 Y138.645 E21.3663
G1 X133.932 Y145.659 E21.59996
G1 X133.855 Y146.299 E21.6214
G1 X133.701 Y146.925 E21.64285
G1 X133.469 Y147.527 E21.6643
G1 X133.166 Y148.095 E21.68572
G1 X132.794 Y148.622 E21.70717
G1 X132.36 Y149.098 E21.72859
G1 X131.87 Y149.518 E21.75006
G1 X131.332 Y149.873 E21.7715
G1 X130.754 Y150.159 E21.79295
G1 X130.145 Y150.371 E21.81439
G1 X129.515 Y150.507 E21.83583
G1 X128.74 Y150.565 E21.86168
G1 X115.858 Y150.564 E22.29014
G1 X115.214 Y150.524 E22.3116
G1 X114.581 Y150.405 E22.33302
G1 X113.967 Y150.208 E22.35447
G1 X113.382 Y149.937 E22.37591
G1 X112.835 Y149.595 E22.39737
G1 X112.335 Y149.189 E22.41879
G1 X111.889 Y148.723 E22.44024
G1 X111.504 Y148.206 E22.46168
G1 X111.185 Y147.646 E22.48312
G1 X110.877 Y146.858 E22.51126
G1 X109.548 Y142.428 E22.66509
G1 X107.73 Y137.321 E22.84539
G1 X106.75 Y134.901 E22.93223
G1 X104.521 Y130.001 E23.11127
G1 X102.03 Y125.255 E23.28955
G1 X99.252 Y120.621 E23.46925
G1 X96.935 Y117.149 E23.60808
G1 X96.611 Y116.592 E23.62951
G1 X96.358 Y115.999 E23.65096
G1 X96.181 Y115.379 E23.6724
G1 X96.082 Y114.742 E23.69384
G1 X96.06 Y114.263 E23.70979
G1 X96.06 Y107.89 E23.92176
G1 X96.1 Y107.247 E23.94319
G1 X96.219 Y106.613 E23.96464
G1 X96.416 Y105.999 E23.98609
G1 X96.687 Y105.414 E24.00753
G1 X97.029 Y104.867 E24.02899
G1 X97.435 Y104.367 E24.05041
M204 S5000
M205 X30 Y30
G0 F3600 X101.45 Y107.963
M204 S500
M205 X20 Y20
;TYPE:SUPPORT
G1 F1800 X101.566 Y107.847 E24.05587
G1 X115.451 Y107.847 E24.51768
G1 X115.85 Y107.448 E24.53645
G1 X115.85 Y98.665 E24.82857
G1 X116.138 Y98.814 E24.83936
G1 X117.574 Y97.798 E24.89787
G1 X118.869 Y97.153 E24.94599
G1 X128.75 Y93.149 E25.30059
G1 X128.75 Y107.448 E25.77617
G1 X129.149 Y107.847 E25.79494
G1 X133.434 Y107.847 E25.93746
G1 X133.55 Y107.963 E25.94292
G1 X133.55 Y114.186 E26.14989
G1 X133.434 Y114.302 E26.15535
G1 X133.089 Y114.302 E26.16683
G1 X132.655 Y114.59 E26.18415
G1 X132.541 Y114.86 E26.1939
G1 X129.149 Y114.86 E26.30672
G1 X128.75 Y115.259 E26.32548
G1 X128.75 Y142.3 E27.22487
G1 X126.615 Y142.412 E27.29598
G1 X122.29 Y142.412 E27.43983
G1 X120.993 Y142.323 E27.48307
G1 X119.746 Y142.058 E27.52547
G1 X118.57 Y141.633 E27.56706
G1 X117.449 Y141.041 E27.60922
G1 X116.148 Y140.102 E27.66259
G1 X115.85 Y140.255 E27.67373
G1 X115.85 Y114.701 E28.52366
G1 X115.451 Y114.302 E28.54243
G1 X105.289 Y114.302 E28.88042
G1 X104.855 Y114.59 E28.89774
G1 X104.741 Y114.86 E28.90749
G1 X102.459 Y114.86 E28.98339
G1 X102.345 Y114.59 E28.99314
G1 X101.911 Y114.302 E29.01046
G1 X101.566 Y114.302 E29.02194
G1 X101.45 Y114.186 E29.02739
G1 X101.45 Y107.963 E29.23437
M204 S5000
M205 X30 Y30
G0 F3600 X120.431 Y131.556
M204 S500
M205 X20 Y20
G1 F1800 X120.093 Y132.042 E29.25406
G1 X119.893 Y132.459 E29.26944
G1 X119.789 Y132.886 E29.28406
G1 X119.75 Y133.235 E29.29574
G1 X119.778 Y133.732 E29.3123
G1 X119.907 Y134.162 E29.32723
G1 X120.075 Y134.532 E29.34074
G1 X120.454 Y135.091 E29.3632
G1 X121.047 Y135.498 E29.38713
G1 X121.422 Y135.658 E29.40069
G1 X121.81 Y135.768 E29.4141
G1 X122.25 Y135.8 E29.42877
G1 X122.69 Y135.768 E29.44345
G1 X123.078 Y135.658 E29.45686
G1 X123.453 Y135.498 E29.47042
G1 X124.046 Y135.091 E29.49434
G1 X124.425 Y134.532 E29.51681
G1 X124.593 Y134.162 E29.53032
G1 X124.722 Y133.732 E29.54525
G1 X124.75 Y133.235 E29.56181
G1 X124.711 Y132.886 E29.57349
G1 X124.607 Y132.459 E29.58811
G1 X124.407 Y132.042 E29.60349
G1 X124.069 Y131.556 E29.62318
G1 X123.507 Y131.132 E29.64659
G1 X123.051 Y130.926 E29.66324
G1 X122.601 Y130.828 E29.67855
G1 X122.25 Y130.809 E29.69024
G1 X121.899 Y130.828 E29.70194
G1 X121.449 Y130.926 E29.71725
G1 X120.993 Y131.132 E29.7339
G1 X120.431 Y131.556 E29.75731
M204 S5000
M205 X30 Y30
G0 F3600 X120.015 Y131.875
M204 S500
M205 X20 Y20
G1 F1800 X120.015 Y96.861 E30.92188
M204 S5000
M205 X30 Y30
G0 F3600 X122.109 Y96.012
M204 S500
M205 X20 Y20
G1 F1800 X128.59 Y96.012 E31.13744
M204 S5000
M205 X30 Y30
G0 F3600 X128.016 Y93.618
M204 S500
M205 X20 Y20
G1 F1800 X128.016 Y142.179 E32.75259
M204 S5000
M205 X30 Y30
G0 F3600 X128.589 Y141.351
M204 S500
M205 X20 Y20
G1 F1800 X118.376 Y141.351 E33.09227
M204 S5000
M205 X30 Y30
G0 F3600 X117.348 Y140.77
M204 S500
M205 X20 Y20
G1 F1800 X117.348 Y98.154 E34.50969
M204 S5000
M205 X30 Y30
G0 F3600 X116.607 Y98.679
M204 S500
M205 X20 Y20
G1 F1800 X128.59 Y98.679 E34.90824
M204 S5000
M205 X30 Y30
G0 F3600 X128.59 Y101.346
M204 S500
M205 X20 Y20
G1 F1800 X116.01 Y101.346 E35.32665
M204 S5000
M205 X30 Y30
G0 F3600 X116.01 Y104.013
M204 S500
M205 X20 Y20
G1 F1800 X128.59 Y104.013 E35.74507
M204 S5000
M205 X30 Y30
G0 F3600 X128.59 Y106.68
M204 S500
M205 X20 Y20
G1 F1800 X116.01 Y106.68 E36.16348
M204 S5000
M205 X30 Y30
G0 F3600 X114.681 Y108.007
M204 S500
M205 X20 Y20
G1 F1800 X114.681 Y114.142 E36.36753
M204 S5000
M205 X30 Y30
G0 F3600 X116.01 Y114.681
M204 S500
M205 X20 Y20
G1 F1800 X132.441 Y114.681 E36.91403
M204 S5000
M205 X30 Y30
G0 F3600 X133.35 Y114.142
M204 S500
M205 X20 Y20
G1 F1800 X133.35 Y108.007 E37.11808
M204 S5000
M205 X30 Y30
G0 F3600 X133.39 Y109.347
M204 S500
M205 X20 Y20
G1 F1800 X101.61 Y109.347 E38.17509
M204 S5000
M205 X30 Y30
G0 F3600 X101.61 Y112.014
M204 S500
M205 X20 Y20
G1 F1800 X133.39 Y112.014 E39.23209
M204 S5000
M205 X30 Y30
G0 F3600 X130.683 Y114.7
M204 S500
M205 X20 Y20
G1 F1800 X130.683 Y108.007 E39.4547
M204 S5000
M205 X30 Y30
G0 F3600 X128.59 Y117.348
M204 S500
M205 X20 Y20
G1 F1800 X116.01 Y117.348 E39.87312
M204 S5000
M205 X30 Y30
G0 F3600 X116.009 Y120.015
M204 S500
M205 X20 Y20
G1 F1800 X128.589 Y120.015 E40.29153
M204 S5000
M205 X30 Y30
G0 F3600 X128.589 Y122.682
M204 S500
M205 X20 Y20
G1 F1800 X116.009 Y122.682 E40.70994
M204 S5000
M205 X30 Y30
G0 F3600 X116.009 Y125.349
M204 S500
M205 X20 Y20
G1 F1800 X128.589 Y125.349 E41.12835
M204 S5000
M205 X30 Y30
G0 F3600 X128.589 Y128.016
M204 S500
M205 X20 Y20
G1 F1800 X116.009 Y128.016 E41.54677
M204 S5000
M205 X30 Y30
G0 F3600 X116.009 Y130.683
M204 S500
M205 X20 Y20
G1 F1800 X121.807 Y130.683 E41.73961
M204 S5000
M205 X30 Y30
G0 F3600 X122.682 Y130.681
M204 S500
M205 X20 Y20
G1 F1800 X122.682 Y95.78 E42.90042
M204 S5000
M205 X30 Y30
G0 F3600 X125.349 Y94.699
M204 S500
M205 X20 Y20
