;FLAVOR:Marlin
;TIME:5252
;Filament used: 2.95958m
;Layer height: 0.2
;Generated with Cura_SteamEngine 3.6.0
M140 S60
M105
M190 S60
M104 S200
M105
M109 S200
M82 ;absolute extrusion mode
; Ender 3 Custom Start G-code
G28 ; Home all axes
G92 E0 ; Reset Extruder
G1 Z2.0 F3000 ; Move Z Axis up little to prevent scratching of Heat Bed
G1 X0.1 Y20 Z0.3 F5000.0 ; Move to start position
G1 X0.1 Y200.0 Z0.3 F1500.0 E15 ; Draw the first line
G1 X0.4 Y200.0 Z0.3 F5000.0 ; Move to side a little
G1 X0.4 Y20 Z0.3 F1500.0 E30 ; Draw the second line
G92 E0 ; Reset Extruder
G1 Z2.0 F3000 ; Move Z Axis up little to prevent scratching of Heat Bed
; End of custom start GCode
G92 E0
G1 F2400 E-5
;LAYER_COUNT:311
;LAYER:0
M107
M204 S5000
M205 X30 Y30
G0 F3600 X74.057 Y27.247 Z0.2
M204 S500
M205 X20 Y20
;TYPE:SKIRT
G1 F2400 E0
G1 F1800 X74.331 Y26.507 E0.02625
G1 X74.679 Y25.798 E0.05251
G1 X75.097 Y25.127 E0.07881
G1 X75.58 Y24.503 E0.10505
G1 X76.123 Y23.93 E0.13131
G1 X76.722 Y23.415 E0.15758
G1 X77.37 Y22.964 E0.18384
G1 X78.061 Y22.58 E0.21014
G1 X78.786 Y22.268 E0.23639
G1 X79.539 Y22.031 E0.26264
G1 X80.313 Y21.872 E0.28892
G1 X81.098 Y21.791 E0.31517
G1 X81.5 Y21.781 E0.32855
G1 X83.5 Y21.781 E0.39507
G1 X84.289 Y21.821 E0.42134
G1 X85.069 Y21.94 E0.44759
G1 X85.075 Y21.941 E0.44779
G1 X85.413 Y21.872 E0.45926
G1 X86.198 Y21.791 E0.48551
G1 X86.6 Y21.781 E0.49888
G1 X88.6 Y21.781 E0.5654
G1 X89.389 Y21.821 E0.59168
G1 X90.169 Y21.94 E0.61792
G1 X90.934 Y22.138 E0.64421
G1 X91.674 Y22.412 E0.67045
G1 X92.383 Y22.76 E0.69672
G1 X93.054 Y23.178 E0.72301
G1 X93.678 Y23.661 E0.74926
G1 X94.251 Y24.204 E0.77552
G1 X94.766 Y24.803 E0.80179
G1 X95.217 Y25.451 E0.82805
G1 X95.601 Y26.142 E0.85434
G1 X95.617 Y26.179 E0.85568
G1 X95.954 Y26.389 E0.86889
G1 X96.578 Y26.872 E0.89513
G1 X96.705 Y26.992 E0.90095
G1 X138.296 Y26.992 E2.28427
G1 X138.722 Y26.626 E2.30295
G1 X139.37 Y26.175 E2.32921
G1 X139.403 Y26.157 E2.33046
G1 X139.579 Y25.798 E2.34376
G1 X139.997 Y25.127 E2.37005
G1 X140.48 Y24.503 E2.39629
G1 X141.023 Y23.93 E2.42255
G1 X141.622 Y23.415 E2.44882
G1 X142.27 Y22.964 E2.47508
G1 X142.961 Y22.58 E2.50138
G1 X143.686 Y22.268 E2.52763
G1 X144.439 Y22.031 E2.55388
G1 X145.213 Y21.872 E2.58016
G1 X145.998 Y21.791 E2.60641
G1 X146.4 Y21.781 E2.61979
G1 X148.4 Y21.781 E2.68631
G1 X149.189 Y21.821 E2.71258
G1 X149.969 Y21.94 E2.73883
G1 X149.975 Y21.941 E2.73903
G1 X150.313 Y21.872 E2.7505
G1 X151.098 Y21.791 E2.77675
G1 X151.496 Y21.781 E2.78999
G1 X153.496 Y21.78 E2.85651
G1 X154.285 Y21.82 E2.88279
G1 X155.065 Y21.939 E2.90903
G1 X155.83 Y22.136 E2.93531
G1 X156.571 Y22.41 E2.96158
G1 X157.28 Y22.757 E2.98784
G1 X157.951 Y23.174 E3.01411
G1 X158.575 Y23.657 E3.04036
G1 X159.148 Y24.201 E3.06664
G1 X159.663 Y24.799 E3.09289
G1 X160.115 Y25.447 E3.11916
G1 X160.499 Y26.137 E3.14543
G1 X160.811 Y26.862 E3.17168
G1 X161.049 Y27.616 E3.19798
G1 X161.209 Y28.389 E3.22423
G1 X161.289 Y29.174 E3.25048
G1 X161.3 Y29.58 E3.26399
G1 X161.3 Y42.792 E3.70342
G1 X161.26 Y43.581 E3.72969
G1 X161.141 Y44.361 E3.75594
G1 X160.943 Y45.126 E3.78222
G1 X160.669 Y45.866 E3.80847
G1 X160.321 Y46.575 E3.83473
G1 X159.903 Y47.246 E3.86103
G1 X159.42 Y47.87 E3.88727
G1 X159.3 Y47.997 E3.89308
G1 X159.3 Y92.588 E5.37619
G1 X159.666 Y93.014 E5.39487
G1 X160.117 Y93.662 E5.42113
G1 X160.501 Y94.353 E5.44742
G1 X160.813 Y95.078 E5.47367
G1 X161.05 Y95.831 E5.49993
G1 X161.209 Y96.605 E5.52621
G1 X161.29 Y97.39 E5.55246
G1 X161.3 Y97.792 E5.56583
G1 X161.3 Y107.792 E5.89843
G1 X161.26 Y108.581 E5.92471
G1 X161.141 Y109.361 E5.95095
G1 X160.943 Y110.126 E5.97723
G1 X160.669 Y110.866 E6.00348
G1 X160.321 Y111.575 E6.02975
G1 X159.903 Y112.246 E6.05604
G1 X159.42 Y112.87 E6.08229
G1 X158.877 Y113.443 E6.10854
G1 X158.278 Y113.958 E6.13482
G1 X157.63 Y114.409 E6.16108
G1 X156.939 Y114.793 E6.18737
G1 X156.214 Y115.105 E6.21362
G1 X155.461 Y115.342 E6.23988
G1 X154.687 Y115.501 E6.26616
G1 X153.902 Y115.582 E6.2924
G1 X153.5 Y115.592 E6.30578
G1 X143.5 Y115.592 E6.63838
G1 X142.711 Y115.552 E6.66466
G1 X141.931 Y115.433 E6.6909
G1 X141.166 Y115.235 E6.71718
G1 X140.426 Y114.961 E6.74343
G1 X139.717 Y114.613 E6.7697
G1 X139.046 Y114.195 E6.79599
G1 X138.422 Y113.712 E6.82224
G1 X138.295 Y113.592 E6.82805
G1 X96.704 Y113.592 E8.21137
G1 X96.278 Y113.958 E8.23005
G1 X95.63 Y114.409 E8.25631
G1 X94.939 Y114.793 E8.2826
G1 X94.214 Y115.105 E8.30885
G1 X93.461 Y115.342 E8.33511
G1 X92.687 Y115.501 E8.36139
G1 X91.902 Y115.582 E8.38764
G1 X91.5 Y115.592 E8.40101
G1 X81.5 Y115.592 E8.73361
G1 X80.711 Y115.552 E8.75989
G1 X79.931 Y115.433 E8.78613
G1 X79.166 Y115.235 E8.81242
G1 X78.426 Y114.961 E8.83866
G1 X77.717 Y114.613 E8.86493
G1 X77.046 Y114.195 E8.89122
G1 X76.422 Y113.712 E8.91747
G1 X75.849 Y113.169 E8.94372
G1 X75.334 Y112.57 E8.97
G1 X74.883 Y111.922 E8.99626
G1 X74.499 Y111.231 E9.02255
G1 X74.187 Y110.506 E9.0488
G1 X73.95 Y109.753 E9.07506
G1 X73.791 Y108.979 E9.10134
G1 X73.71 Y108.194 E9.12759
G1 X73.7 Y107.792 E9.14096
G1 X73.7 Y97.792 E9.47356
G1 X73.74 Y97.003 E9.49984
G1 X73.859 Y96.223 E9.52608
G1 X74.057 Y95.458 E9.55236
G1 X74.331 Y94.718 E9.57861
G1 X74.679 Y94.009 E9.60488
G1 X75.097 Y93.338 E9.63117
G1 X75.58 Y92.714 E9.65742
G1 X75.7 Y92.587 E9.66323
G1 X75.7 Y47.996 E11.14633
G1 X75.334 Y47.57 E11.16501
G1 X74.883 Y46.922 E11.19127
G1 X74.499 Y46.231 E11.21756
G1 X74.187 Y45.506 E11.24382
G1 X73.95 Y44.753 E11.27007
G1 X73.791 Y43.979 E11.29635
G1 X73.71 Y43.194 E11.3226
G1 X73.7 Y42.792 E11.33598
G1 X73.7 Y29.581 E11.77537
G1 X73.74 Y28.792 E11.80165
G1 X73.859 Y28.012 E11.82789
G1 X74.057 Y27.247 E11.85418
M204 S5000
M205 X30 Y30
G0 F3600 X74.457 Y27.31
M204 S500
M205 X20 Y20
G1 F1800 X74.731 Y26.591 E11.87977
G1 X75.078 Y25.905 E11.90534
G1 X75.494 Y25.258 E11.93092
G1 X75.975 Y24.658 E11.9565
G1 X76.516 Y24.111 E11.98209
G1 X77.111 Y23.623 E12.00768
G1 X77.753 Y23.2 E12.03325
G1 X78.436 Y22.845 E12.05885
G1 X79.151 Y22.564 E12.08441
G1 X79.893 Y22.358 E12.11002
G1 X80.651 Y22.23 E12.13559
G1 X81.5 Y22.181 E12.16387
G1 X83.5 Y22.181 E12.23039
G1 X84.268 Y22.221 E12.25597
G1 X85.028 Y22.34 E12.28156
G1 X85.056 Y22.347 E12.28252
G1 X85.751 Y22.23 E12.30596
G1 X86.6 Y22.181 E12.33424
G1 X88.6 Y22.181 E12.40076
G1 X89.368 Y22.221 E12.42634
G1 X90.128 Y22.34 E12.45193
G1 X90.871 Y22.538 E12.4775
G1 X91.59 Y22.812 E12.50309
G1 X92.276 Y23.159 E12.52866
G1 X92.923 Y23.575 E12.55425
G1 X93.523 Y24.056 E12.57982
G1 X94.07 Y24.597 E12.60541
G1 X94.558 Y25.192 E12.63101
G1 X94.981 Y25.834 E12.65658
G1 X95.302 Y26.451 E12.67971
G1 X95.823 Y26.786 E12.70031
G1 X96.423 Y27.267 E12.72589
G1 X96.549 Y27.392 E12.73179
G1 X138.447 Y27.392 E14.12532
G1 X138.516 Y27.322 E14.12859
G1 X139.111 Y26.834 E14.15419
G1 X139.707 Y26.442 E14.17791
G1 X139.978 Y25.905 E14.19792
G1 X140.394 Y25.258 E14.2235
G1 X140.875 Y24.658 E14.24908
G1 X141.416 Y24.111 E14.27467
G1 X142.011 Y23.623 E14.30026
G1 X142.653 Y23.2 E14.32584
G1 X143.336 Y22.845 E14.35144
G1 X144.051 Y22.564 E14.37699
G1 X144.793 Y22.358 E14.4026
G1 X145.551 Y22.23 E14.42817
G1 X146.4 Y22.181 E14.45645
G1 X148.4 Y22.181 E14.52297
G1 X149.168 Y22.221 E14.54855
G1 X149.928 Y22.34 E14.57414
G1 X149.956 Y22.347 E14.5751
G1 X150.651 Y22.23 E14.59854
G1 X151.496 Y22.181 E14.62669
G1 X153.496 Y22.18 E14.69321
G1 X154.264 Y22.22 E14.71879
G1 X155.024 Y22.339 E14.74438
G1 X155.768 Y22.536 E14.76997
G1 X156.487 Y22.809 E14.79555
G1 X157.173 Y23.156 E14.82112
G1 X157.82 Y23.572 E14.84671
G1 X158.421 Y24.053 E14.87231
G1 X158.968 Y24.594 E14.8979
G1 X159.456 Y25.188 E14.92347
G1 X159.879 Y25.83 E14.94904
G1 X160.234 Y26.512 E14.97461
G1 X160.516 Y27.228 E15.00021
G1 X160.722 Y27.969 E15.02579
G1 X160.851 Y28.727 E15.05136
G1 X160.9 Y29.58 E15.07978
G1 X160.9 Y42.792 E15.51921
G1 X160.86 Y43.56 E15.54479
G1 X160.741 Y44.32 E15.57037
G1 X160.543 Y45.063 E15.59595
G1 X160.269 Y45.782 E15.62154
G1 X159.922 Y46.468 E15.64711
G1 X159.506 Y47.115 E15.67269
G1 X159.025 Y47.715 E15.69827
G1 X158.9 Y47.841 E15.70417
G1 X158.9 Y92.739 E17.19749
G1 X158.97 Y92.808 E17.20076
G1 X159.458 Y93.403 E17.22635
G1 X159.881 Y94.045 E17.25192
G1 X160.236 Y94.728 E17.27752
G1 X160.517 Y95.443 E17.30308
G1 X160.723 Y96.185 E17.32869
G1 X160.851 Y96.943 E17.35426
G1 X160.9 Y97.792 E17.38254
G1 X160.9 Y107.792 E17.71514
G1 X160.86 Y108.56 E17.74072
G1 X160.741 Y109.32 E17.76631
G1 X160.543 Y110.063 E17.79188
G1 X160.269 Y110.782 E17.81747
G1 X159.922 Y111.468 E17.84304
G1 X159.506 Y112.115 E17.86863
G1 X159.025 Y112.715 E17.8942
G1 X158.484 Y113.262 E17.91979
G1 X157.889 Y113.75 E17.94539
G1 X157.247 Y114.173 E17.97096
G1 X156.564 Y114.528 E17.99656
G1 X155.849 Y114.809 E18.02211
G1 X155.107 Y115.015 E18.04772
G1 X154.349 Y115.143 E18.07329
G1 X153.5 Y115.192 E18.10158
G1 X143.5 Y115.192 E18.43418
G1 X142.732 Y115.152 E18.45976
G1 X141.972 Y115.033 E18.48534
G1 X141.229 Y114.835 E18.51092
G1 X140.51 Y114.561 E18.53651
G1 X139.824 Y114.214 E18.56208
G1 X139.177 Y113.798 E18.58766
G1 X138.577 Y113.317 E18.61324
G1 X138.451 Y113.192 E18.61914
G1 X96.553 Y113.192 E20.01267
G1 X96.484 Y113.262 E20.01594
G1 X95.889 Y113.75 E20.04154
G1 X95.247 Y114.173 E20.06711
G1 X94.564 Y114.528 E20.09271
G1 X93.849 Y114.809 E20.11826
G1 X93.107 Y115.015 E20.14388
G1 X92.349 Y115.143 E20.16944
G1 X91.5 Y115.192 E20.19773
G1 X81.5 Y115.192 E20.53033
G1 X80.732 Y115.152 E20.55591
G1 X79.972 Y115.033 E20.58149
G1 X79.229 Y114.835 E20.60707
G1 X78.51 Y114.561 E20.63266
G1 X77.824 Y114.214 E20.65823
G1 X77.177 Y113.798 E20.68381
G1 X76.577 Y113.317 E20.70939
G1 X76.03 Y112.776 E20.73498
G1 X75.542 Y112.181 E20.76057
G1 X75.119 Y111.539 E20.78614
G1 X74.764 Y110.856 E20.81175
G1 X74.483 Y110.141 E20.8373
G1 X74.277 Y109.399 E20.86291
G1 X74.149 Y108.641 E20.88848
G1 X74.1 Y107.792 E20.91676
G1 X74.1 Y97.792 E21.24937
G1 X74.14 Y97.024 E21.27494
G1 X74.259 Y96.264 E21.30053
G1 X74.457 Y95.521 E21.3261
G1 X74.731 Y94.802 E21.3517
G1 X75.078 Y94.116 E21.37726
G1 X75.494 Y93.469 E21.40285
G1 X75.975 Y92.869 E21.42843
G1 X76.1 Y92.743 E21.43433
G1 X76.1 Y47.845 E22.92764
G1 X76.03 Y47.776 E22.93091
G1 X75.542 Y47.181 E22.95651
G1 X75.119 Y46.539 E22.98208
G1 X74.764 Y45.856 E23.00768
G1 X74.483 Y45.141 E23.03323
G1 X74.277 Y44.399 E23.05884
G1 X74.149 Y43.641 E23.08441
G1 X74.1 Y42.792 E23.1127
G1 X74.1 Y29.581 E23.5521
G1 X74.14 Y28.813 E23.57767
G1 X74.259 Y28.053 E23.60326
G1 X74.457 Y27.31 E23.62883
M204 S5000
M205 X30 Y30
G0 F3600 X74.857 Y27.374
M204 S500
M205 X20 Y20
G1 F1800 X75.13 Y26.678 E23.6537
G1 X75.477 Y26.015 E23.67859
G1 X75.892 Y25.392 E23.70349
G1 X76.371 Y24.818 E23.72835
G1 X76.908 Y24.297 E23.75324
G1 X77.498 Y23.838 E23.7781
G1 X78.134 Y23.443 E23.803
G1 X78.808 Y23.119 E23.82788
G1 X79.513 Y22.869 E23.85275
G1 X80.241 Y22.695 E23.87765
G1 X80.983 Y22.6 E23.90253
G1 X81.5 Y22.581 E23.91974
G1 X83.5 Y22.581 E23.98626
G1 X84.247 Y22.621 E24.01114
G1 X84.985 Y22.74 E24.036
G1 X85.063 Y22.761 E24.03869
G1 X85.341 Y22.695 E24.04819
G1 X86.083 Y22.6 E24.07307
G1 X86.6 Y22.581 E24.09028
G1 X88.6 Y22.581 E24.1568
G1 X89.347 Y22.621 E24.18168
G1 X90.085 Y22.74 E24.20654
G1 X90.807 Y22.938 E24.23144
G1 X91.503 Y23.211 E24.25631
G1 X92.166 Y23.558 E24.2812
G1 X92.789 Y23.973 E24.3061
G1 X93.363 Y24.452 E24.33096
G1 X93.884 Y24.989 E24.35585
G1 X94.343 Y25.579 E24.38071
G1 X94.738 Y26.215 E24.40561
G1 X94.984 Y26.726 E24.42447
G1 X95.066 Y26.769 E24.42755
G1 X95.689 Y27.184 E24.45245
G1 X96.263 Y27.663 E24.47732
G1 X96.388 Y27.792 E24.48329
G1 X138.615 Y27.792 E25.88777
G1 X138.908 Y27.508 E25.90134
G1 X139.498 Y27.049 E25.9262
G1 X140.009 Y26.732 E25.9462
G1 X140.03 Y26.678 E25.94813
G1 X140.377 Y26.015 E25.97302
G1 X140.792 Y25.392 E25.99792
G1 X141.271 Y24.818 E26.02278
G1 X141.808 Y24.297 E26.04767
G1 X142.398 Y23.838 E26.07253
G1 X143.034 Y23.443 E26.09743
G1 X143.708 Y23.119 E26.1223
G1 X144.413 Y22.869 E26.14718
G1 X145.141 Y22.695 E26.17208
G1 X145.883 Y22.6 E26.19696
G1 X146.4 Y22.581 E26.21416
G1 X148.4 Y22.581 E26.28068
G1 X149.147 Y22.621 E26.30557
G1 X149.885 Y22.74 E26.33043
G1 X149.963 Y22.761 E26.33312
G1 X150.241 Y22.695 E26.34262
G1 X150.983 Y22.6 E26.3675
G1 X151.497 Y22.581 E26.38461
G1 X153.497 Y22.58 E26.45113
G1 X154.244 Y22.62 E26.47601
G1 X154.982 Y22.739 E26.50087
G1 X155.704 Y22.936 E26.52576
G1 X156.4 Y23.209 E26.55063
G1 X157.063 Y23.555 E26.5755
G1 X157.686 Y23.97 E26.6004
G1 X158.261 Y24.448 E26.62527
G1 X158.781 Y24.986 E26.65016
G1 X159.241 Y25.575 E26.67501
G1 X159.636 Y26.211 E26.69991
G1 X159.96 Y26.885 E26.72479
G1 X160.211 Y27.59 E26.74968
G1 X160.385 Y28.317 E26.77454
G1 X160.481 Y29.059 E26.79942
G1 X160.5 Y29.58 E26.81676
G1 X160.5 Y42.792 E27.2562
G1 X160.46 Y43.539 E27.28108
G1 X160.341 Y44.277 E27.30594
G1 X160.143 Y44.999 E27.33084
G1 X159.87 Y45.695 E27.35571
G1 X159.523 Y46.358 E27.3806
G1 X159.108 Y46.981 E27.40549
G1 X158.629 Y47.555 E27.43036
G1 X158.5 Y47.68 E27.43633
G1 X158.5 Y92.907 E28.94059
G1 X158.784 Y93.2 E28.95416
G1 X159.243 Y93.79 E28.97903
G1 X159.638 Y94.426 E29.00393
G1 X159.962 Y95.1 E29.0288
G1 X160.212 Y95.805 E29.05368
G1 X160.386 Y96.533 E29.07857
G1 X160.481 Y97.275 E29.10345
G1 X160.5 Y97.792 E29.12066
G1 X160.5 Y107.792 E29.45326
G1 X160.46 Y108.539 E29.47814
G1 X160.341 Y109.277 E29.50301
G1 X160.143 Y109.999 E29.52791
G1 X159.87 Y110.695 E29.55277
G1 X159.523 Y111.358 E29.57766
G1 X159.108 Y111.981 E29.60256
G1 X158.629 Y112.555 E29.62743
G1 X158.092 Y113.076 E29.65231
G1 X157.502 Y113.535 E29.67717
G1 X156.866 Y113.93 E29.70207
G1 X156.192 Y114.254 E29.72695
G1 X155.487 Y114.504 E29.75183
G1 X154.759 Y114.678 E29.77672
G1 X154.017 Y114.773 E29.8016
G1 X153.5 Y114.792 E29.81881
G1 X143.5 Y114.792 E30.15141
G1 X142.753 Y114.752 E30.17629
G1 X142.015 Y114.633 E30.20115
G1 X141.293 Y114.435 E30.22606
G1 X140.597 Y114.162 E30.25092
G1 X139.934 Y113.815 E30.27581
G1 X139.311 Y113.4 E30.30071
G1 X138.737 Y112.921 E30.32557
G1 X138.612 Y112.792 E30.33155
G1 X96.385 Y112.792 E31.73602
G1 X96.092 Y113.076 E31.7496
G1 X95.502 Y113.535 E31.77446
G1 X94.866 Y113.93 E31.79936
G1 X94.192 Y114.254 E31.82423
G1 X93.487 Y114.504 E31.84911
G1 X92.759 Y114.678 E31.87401
G1 X92.017 Y114.773 E31.89889
G1 X91.5 Y114.792 E31.91609
G1 X81.5 Y114.792 E32.2487
G1 X80.753 Y114.752 E32.27358
G1 X80.015 Y114.633 E32.29844
G1 X79.293 Y114.435 E32.32334
G1 X78.597 Y114.162 E32.34821
G1 X77.934 Y113.815 E32.37309
G1 X77.311 Y113.4 E32.39799
G1 X76.737 Y112.921 E32.42286
G1 X76.216 Y112.384 E32.44774
G1 X75.757 Y111.794 E32.47261
G1 X75.362 Y111.158 E32.49751
G1 X75.038 Y110.484 E32.52238
G1 X74.788 Y109.779 E32.54726
G1 X74.614 Y109.051 E32.57215
G1 X74.519 Y108.309 E32.59703
G1 X74.5 Y107.792 E32.61424
G1 X74.5 Y97.792 E32.94684
G1 X74.54 Y97.045 E32.97172
G1 X74.659 Y96.307 E32.99659
G1 X74.857 Y95.585 E33.02149
G1 X75.13 Y94.889 E33.04635
G1 X75.477 Y94.226 E33.07124
G1 X75.892 Y93.603 E33.09614
G1 X76.371 Y93.029 E33.12101
G1 X76.5 Y92.904 E33.12698
G1 X76.5 Y47.677 E34.63124
G1 X76.216 Y47.384 E34.64481
G1 X75.757 Y46.794 E34.66967
G1 X75.362 Y46.158 E34.69457
G1 X75.038 Y45.484 E34.71945
G1 X74.788 Y44.779 E34.74432
G1 X74.614 Y44.051 E34.76922
G1 X74.519 Y43.309 E34.7941
G1 X74.5 Y42.792 E34.81131
G1 X74.5 Y29.581 E35.25071
G1 X74.54 Y28.834 E35.27559
G1 X74.659 Y28.096 E35.30045
G1 X74.857 Y27.374 E35.32535
M204 S5000
M205 X30 Y30
G0 F3600 X75.257 Y27.44
M204 S500
M205 X20 Y20
G1 F1800 X75.53 Y26.767 E35.34951
G1 X75.875 Y26.128 E35.37366
G1 X76.289 Y25.531 E35.39782
G1 X76.765 Y24.983 E35.42197
G1 X77.299 Y24.49 E35.44614
G1 X77.884 Y24.06 E35.47029
G1 X78.513 Y23.696 E35.49446
G1 X79.178 Y23.403 E35.51863
G1 X79.871 Y23.185 E35.54279
G1 X80.583 Y23.045 E35.56692
G1 X81.5 Y22.981 E35.5975
G1 X83.5 Y22.981 E35.66402
G1 X84.225 Y23.021 E35.68817
G1 X84.942 Y23.14 E35.71234
G1 X85.048 Y23.17 E35.71601
G1 X85.683 Y23.045 E35.73753
G1 X86.6 Y22.981 E35.76811
G1 X88.6 Y22.981 E35.83463
G1 X89.325 Y23.021 E35.85878
G1 X90.042 Y23.14 E35.88295
G1 X90.741 Y23.338 E35.90711
G1 X91.414 Y23.611 E35.93127
G1 X92.053 Y23.956 E35.95542
G1 X92.65 Y24.37 E35.97959
G1 X93.198 Y24.846 E36.00373
