;FLAVOR:Marlin
;TIME:1517
;Filament used: 1.23959m
;Layer height: 0.2
;Generated with Cura_SteamEngine 3.6.0
M140 S60
M105
M190 S60
M104 S200
M105
M109 S200
M82 ;absolute extrusion mode
; Ender 3 Custom Start G-code
G28 ; Home all axes
G92 E0 ; Reset Extruder
G1 Z2.0 F3000 ; Move Z Axis up little to prevent scratching of Heat Bed
G1 X0.1 Y20 Z0.3 F5000.0 ; Move to start position
G1 X0.1 Y200.0 Z0.3 F1500.0 E15 ; Draw the first line
G1 X0.4 Y200.0 Z0.3 F5000.0 ; Move to side a little
G1 X0.4 Y20 Z0.3 F1500.0 E30 ; Draw the second line
G92 E0 ; Reset Extruder
G1 Z2.0 F3000 ; Move Z Axis up little to prevent scratching of Heat Bed
; End of custom start GCode
G92 E0
G1 F2400 E-5
;LAYER_COUNT:102
;LAYER:0
M107
M204 S5000
M205 X30 Y30
G0 F3600 X96.722 Y103.373 Z0.2
M204 S500
M205 X20 Y20
;TYPE:SKIRT
G1 F2400 E0
G1 F1800 X97.199 Y102.939 E0.02145
G1 X102.428 Y98.647 E0.24645
G1 X106.314 Y95.077 E0.42196
G1 X111.225 Y89.94 E0.65833
G1 X111.748 Y89.452 E0.68213
G1 X112.321 Y89.024 E0.70591
G1 X112.939 Y88.664 E0.7297
G1 X113.649 Y88.354 E0.75547
G1 X126.54 Y83.63 E1.21211
G1 X127.224 Y83.422 E1.23589
G1 X127.927 Y83.291 E1.25967
G1 X128.641 Y83.24 E1.28348
G1 X129.356 Y83.268 E1.30728
G1 X130.063 Y83.377 E1.33107
G1 X130.753 Y83.563 E1.35484
G1 X131.418 Y83.826 E1.37862
G1 X132.05 Y84.16 E1.4024
G1 X132.641 Y84.564 E1.42621
G1 X133.183 Y85.031 E1.45001
G1 X133.67 Y85.555 E1.4738
G1 X134.095 Y86.13 E1.49758
G1 X134.453 Y86.75 E1.52139
G1 X134.739 Y87.405 E1.54516
G1 X135.006 Y88.325 E1.57703
G1 X136.332 Y94.649 E1.79194
G1 X136.972 Y97.123 E1.87693
G1 X138.539 Y102.267 E2.05578
G1 X139.772 Y105.747 E2.17858
G1 X139.973 Y106.433 E2.20236
G1 X140.096 Y107.138 E2.22616
G1 X140.14 Y107.885 E2.25105
G1 X140.14 Y114.259 E2.46305
G1 X140.1 Y114.973 E2.48683
G1 X139.9 Y115.994 E2.52144
G1 X138 Y122.737 E2.75444
G1 X136.875 Y127.97 E2.93247
G1 X136.453 Y130.449 E3.01611
G1 X135.773 Y135.771 E3.19456
G1 X135.389 Y141.221 E3.37627
G1 X135.129 Y145.734 E3.52663
G1 X135.048 Y146.444 E3.55039
G1 X134.889 Y147.141 E3.57417
G1 X134.652 Y147.816 E3.59797
G1 X134.341 Y148.461 E3.62178
G1 X133.961 Y149.066 E3.64554
G1 X133.515 Y149.626 E3.66936
G1 X133.01 Y150.132 E3.69313
G1 X132.451 Y150.579 E3.71694
G1 X131.847 Y150.96 E3.74069
G1 X131.203 Y151.272 E3.76449
G1 X130.528 Y151.51 E3.7883
G1 X129.831 Y151.671 E3.81209
G1 X129.121 Y151.754 E3.83586
G1 X128.735 Y151.765 E3.84871
G1 X115.85 Y151.754 E4.27726
G1 X115.135 Y151.713 E4.30109
G1 X114.43 Y151.593 E4.32487
G1 X113.743 Y151.395 E4.34865
G1 X113.082 Y151.122 E4.37244
G1 X112.456 Y150.777 E4.39621
G1 X111.872 Y150.363 E4.42002
G1 X111.338 Y149.888 E4.44379
G1 X110.86 Y149.355 E4.4676
G1 X110.445 Y148.773 E4.49138
G1 X110.097 Y148.148 E4.51517
G1 X109.751 Y147.276 E4.54637
G1 X107.529 Y140.219 E4.79245
G1 X106.642 Y137.836 E4.87702
G1 X104.569 Y132.916 E5.05459
G1 X102.244 Y128.166 E5.23049
G1 X99.662 Y123.567 E5.40591
G1 X95.889 Y117.745 E5.63666
G1 X95.534 Y117.124 E5.66045
G1 X95.251 Y116.468 E5.68421
G1 X95.043 Y115.783 E5.70802
G1 X94.912 Y115.08 E5.73181
G1 X94.86 Y114.265 E5.75897
G1 X94.86 Y107.886 E5.97114
G1 X94.9 Y107.172 E5.99492
G1 X95.019 Y106.467 E6.0187
G1 X95.217 Y105.779 E6.04251
G1 X95.49 Y105.118 E6.0663
G1 X95.834 Y104.491 E6.09008
G1 X96.247 Y103.907 E6.11387
G1 X96.722 Y103.373 E6.13765
M204 S5000
M205 X30 Y30
G0 F3600 X97.116 Y103.547
M204 S500
M205 X20 Y20
G1 F1800 X97.453 Y103.248 E6.15263
G1 X102.698 Y98.943 E6.37832
G1 X106.591 Y95.366 E6.55416
G1 X111.514 Y90.217 E6.79109
G1 X112.021 Y89.745 E6.81413
G1 X112.579 Y89.334 E6.83718
G1 X113.18 Y88.99 E6.86022
G1 X113.787 Y88.729 E6.88219
G1 X126.678 Y84.005 E7.33883
G1 X127.34 Y83.805 E7.36183
G1 X128.022 Y83.682 E7.38488
G1 X128.713 Y83.639 E7.40791
G1 X129.405 Y83.676 E7.43096
G1 X130.087 Y83.792 E7.45397
G1 X130.752 Y83.986 E7.47701
G1 X131.39 Y84.255 E7.50004
G1 X131.993 Y84.596 E7.52308
G1 X132.552 Y85.004 E7.54609
G1 X133.061 Y85.474 E7.56914
G1 X133.512 Y86 E7.59218
G1 X133.9 Y86.574 E7.61523
G1 X134.219 Y87.188 E7.63824
G1 X134.465 Y87.836 E7.66129
G1 X134.614 Y88.407 E7.68092
G1 X135.939 Y94.724 E7.8956
G1 X136.586 Y97.226 E7.98155
G1 X138.163 Y102.405 E8.16161
G1 X139.395 Y105.881 E8.28427
G1 X139.589 Y106.546 E8.30731
G1 X139.704 Y107.228 E8.33032
G1 X139.74 Y107.885 E8.3522
G1 X139.74 Y114.259 E8.5642
G1 X139.7 Y114.95 E8.58722
G1 X139.515 Y115.886 E8.61896
G1 X137.612 Y122.641 E8.85237
G1 X136.484 Y127.888 E9.03088
G1 X136.055 Y130.404 E9.11577
G1 X135.376 Y135.726 E9.29421
G1 X134.995 Y141.117 E9.47397
G1 X134.73 Y145.711 E9.62702
G1 X134.65 Y146.398 E9.65002
G1 X134.492 Y147.073 E9.67308
G1 X134.257 Y147.724 E9.6961
G1 X133.948 Y148.344 E9.71914
G1 X133.57 Y148.924 E9.74216
G1 X133.128 Y149.457 E9.76519
G1 X132.627 Y149.936 E9.78825
G1 X132.075 Y150.353 E9.81126
G1 X131.478 Y150.704 E9.83429
G1 X130.844 Y150.984 E9.85734
G1 X130.183 Y151.189 E9.88036
G1 X129.502 Y151.316 E9.9034
G1 X128.735 Y151.365 E9.92896
G1 X115.85 Y151.354 E10.35752
G1 X115.159 Y151.313 E10.38054
G1 X114.476 Y151.193 E10.40361
G1 X113.813 Y150.996 E10.42661
G1 X113.176 Y150.723 E10.44966
G1 X112.575 Y150.378 E10.47271
G1 X112.018 Y149.967 E10.49574
G1 X111.512 Y149.494 E10.51877
G1 X111.064 Y148.966 E10.54181
G1 X110.68 Y148.39 E10.56483
G1 X110.364 Y147.774 E10.58786
G1 X110.132 Y147.156 E10.60981
G1 X107.904 Y140.08 E10.85655
G1 X107.008 Y137.673 E10.94198
G1 X104.939 Y132.763 E11.11919
G1 X102.602 Y127.987 E11.29604
G1 X99.999 Y123.352 E11.47285
G1 X96.225 Y117.528 E11.70367
G1 X95.882 Y116.926 E11.72671
G1 X95.612 Y116.289 E11.74972
G1 X95.416 Y115.624 E11.77278
G1 X95.298 Y114.942 E11.7958
G1 X95.26 Y114.265 E11.81835
G1 X95.26 Y107.886 E12.03052
G1 X95.3 Y107.195 E12.05354
G1 X95.419 Y106.512 E12.0766
G1 X95.617 Y105.849 E12.09961
G1 X95.889 Y105.212 E12.12265
G1 X96.233 Y104.611 E12.14568
G1 X96.644 Y104.053 E12.16873
G1 X97.116 Y103.547 E12.19175
M204 S5000
M205 X30 Y30
G0 F3600 X97.04 Y104.205
M204 S500
M205 X20 Y20
G1 F1800 X97.707 Y103.557 E12.22268
G1 X102.949 Y99.254 E12.44825
G1 X106.876 Y95.646 E12.62562
G1 X111.803 Y90.493 E12.86274
G1 X112.294 Y90.038 E12.88501
G1 X112.835 Y89.645 E12.90725
G1 X113.419 Y89.319 E12.92949
G1 X113.924 Y89.105 E12.94774
G1 X126.815 Y84.381 E13.40437
G1 X127.456 Y84.189 E13.42663
G1 X128.115 Y84.074 E13.44888
G1 X128.783 Y84.039 E13.47113
G1 X129.451 Y84.084 E13.4934
G1 X130.108 Y84.208 E13.51563
G1 X130.746 Y84.41 E13.53789
G1 X131.355 Y84.686 E13.56013
G1 X131.927 Y85.033 E13.58238
G1 X132.454 Y85.446 E13.60465
G1 X132.927 Y85.919 E13.6269
G1 X133.341 Y86.444 E13.64914
G1 X133.689 Y87.016 E13.67141
G1 X133.967 Y87.624 E13.69364
G1 X134.223 Y88.49 E13.72368
G1 X135.549 Y94.815 E13.93862
G1 X136.204 Y97.345 E14.02554
G1 X137.78 Y102.521 E14.2055
G1 X139.018 Y106.014 E14.32876
G1 X139.204 Y106.657 E14.35102
G1 X139.311 Y107.317 E14.37326
G1 X139.34 Y107.885 E14.39218
G1 X139.34 Y114.259 E14.60418
G1 X139.3 Y114.927 E14.62644
G1 X139.13 Y115.778 E14.6553
G1 X137.222 Y122.549 E14.88927
G1 X136.088 Y127.824 E15.06873
G1 X135.66 Y130.333 E15.15338
G1 X134.978 Y135.684 E15.3328
G1 X134.596 Y141.093 E15.51315
G1 X134.331 Y145.687 E15.6662
G1 X134.252 Y146.352 E15.68848
G1 X134.095 Y147.002 E15.71072
G1 X133.862 Y147.629 E15.73296
G1 X133.555 Y148.224 E15.75523
G1 X133.18 Y148.778 E15.77748
G1 X132.741 Y149.283 E15.79974
G1 X132.246 Y149.732 E15.82197
G1 X131.7 Y150.119 E15.84423
G1 X131.112 Y150.438 E15.86648
G1 X130.49 Y150.685 E15.88874
G1 X129.843 Y150.855 E15.91099
G1 X129.18 Y150.948 E15.93325
G1 X128.735 Y150.965 E15.94806
G1 X115.85 Y150.954 E16.37662
G1 X115.182 Y150.913 E16.39888
G1 X114.524 Y150.794 E16.42112
G1 X113.885 Y150.596 E16.44337
G1 X113.274 Y150.324 E16.46562
G1 X112.7 Y149.98 E16.48787
G1 X112.17 Y149.571 E16.51014
G1 X111.694 Y149.102 E16.53236
G1 X111.277 Y148.579 E16.55461
G1 X110.925 Y148.01 E16.57687
G1 X110.643 Y147.403 E16.59913
G1 X110.514 Y147.036 E16.61207
G1 X108.283 Y139.952 E16.85909
G1 X107.388 Y137.547 E16.94444
G1 X105.3 Y132.589 E17.12337
G1 X102.952 Y127.794 E17.30095
G1 X100.347 Y123.153 E17.47796
G1 X96.56 Y117.31 E17.70955
G1 X96.231 Y116.728 E17.73178
G1 X95.973 Y116.111 E17.75403
G1 X95.791 Y115.467 E17.77629
G1 X95.686 Y114.806 E17.79855
G1 X95.66 Y114.265 E17.81656
G1 X95.66 Y107.886 E18.02873
G1 X95.7 Y107.218 E18.05098
G1 X95.819 Y106.56 E18.07322
G1 X96.016 Y105.92 E18.0955
G1 X96.288 Y105.309 E18.11774
G1 X96.631 Y104.735 E18.13998
G1 X97.04 Y104.205 E18.16225
M204 S5000
M205 X30 Y30
G0 F3600 X97.435 Y104.363
M204 S500
M205 X20 Y20
G1 F1800 X97.961 Y103.867 E18.18629
G1 X103.21 Y99.559 E18.41215
G1 X107.146 Y95.942 E18.58994
G1 X112.092 Y90.769 E18.82798
G1 X112.566 Y90.332 E18.84943
G1 X113.09 Y89.957 E18.87086
G1 X113.656 Y89.649 E18.89229
G1 X114.062 Y89.481 E18.9069
G1 X126.953 Y84.757 E19.36354
G1 X127.571 Y84.573 E19.38499
G1 X128.207 Y84.467 E19.40643
G1 X128.851 Y84.44 E19.42787
G1 X129.493 Y84.494 E19.4493
G1 X130.124 Y84.626 E19.47074
G1 X130.734 Y84.836 E19.4922
G1 X131.313 Y85.119 E19.51364
G1 X131.852 Y85.472 E19.53506
G1 X132.344 Y85.889 E19.55652
G1 X132.78 Y86.363 E19.57794
G1 X133.155 Y86.888 E19.59939
G1 X133.461 Y87.455 E19.62082
G1 X133.695 Y88.056 E19.64228
G1 X133.831 Y88.572 E19.66002
G1 X135.157 Y94.895 E19.8749
G1 X135.822 Y97.465 E19.9632
G1 X137.397 Y102.639 E20.14308
G1 X138.641 Y106.148 E20.26691
G1 X138.819 Y106.768 E20.28836
G1 X138.918 Y107.405 E20.3098
G1 X138.94 Y107.885 E20.32578
G1 X138.94 Y114.259 E20.53778
G1 X138.9 Y114.902 E20.55921
G1 X138.745 Y115.669 E20.58524
G1 X136.835 Y122.45 E20.81955
G1 X135.698 Y127.736 E20.99939
G1 X135.263 Y130.288 E21.08549
G1 X134.58 Y135.64 E21.26494
G1 X134.192 Y141.137 E21.44823
G1 X133.931 Y145.664 E21.59905
G1 X133.854 Y146.305 E21.62052
G1 X133.699 Y146.93 E21.64194
G1 X133.467 Y147.532 E21.66339
G1 X133.163 Y148.1 E21.68482
G1 X132.79 Y148.626 E21.70627
G1 X132.356 Y149.102 E21.72769
G1 X131.865 Y149.521 E21.74916
G1 X131.327 Y149.876 E21.7706
G1 X130.749 Y150.161 E21.79204
G1 X130.14 Y150.373 E21.81348
G1 X129.51 Y150.508 E21.83491
G1 X128.736 Y150.565 E21.86073
G1 X115.851 Y150.554 E22.28928
G1 X115.207 Y150.513 E22.31075
G1 X114.574 Y150.394 E22.33217
G1 X113.96 Y150.196 E22.35363
G1 X113.375 Y149.925 E22.37507
G1 X112.829 Y149.583 E22.3965
G1 X112.329 Y149.176 E22.41794
G1 X111.883 Y148.71 E22.43939
G1 X111.498 Y148.193 E22.46083
G1 X111.181 Y147.632 E22.48227
G1 X110.895 Y146.916 E22.50791
G1 X108.658 Y139.813 E22.7556
G1 X107.758 Y137.393 E22.84147
G1 X105.667 Y132.43 E23.02059
G1 X103.303 Y127.601 E23.19942
G1 X100.692 Y122.95 E23.37682
G1 X96.896 Y117.093 E23.60896
G1 X96.58 Y116.531 E23.63041
G1 X96.335 Y115.935 E23.65184
G1 X96.167 Y115.312 E23.6733
G1 X96.076 Y114.674 E23.69474
G1 X96.06 Y114.265 E23.70835
G1 X96.06 Y107.886 E23.92052
G1 X96.1 Y107.243 E23.94194
G1 X96.219 Y106.609 E23.9634
G1 X96.416 Y105.995 E23.98485
G1 X96.687 Y105.41 E24.00629
G1 X97.029 Y104.863 E24.02775
G1 X97.435 Y104.363 E24.04917
M204 S5000
M205 X30 Y30
G0 F3600 X101.45 Y107.963
M204 S500
M205 X20 Y20
;TYPE:SUPPORT
G1 F1800 X101.566 Y107.847 E24.05462
G1 X115.451 Y107.847 E24.51644
G1 X115.85 Y107.448 E24.53521
G1 X115.85 Y98.549 E24.83119
G1 X116.133 Y98.697 E24.84181
G1 X117.564 Y97.698 E24.89986
G1 X118.829 Y97.071 E24.94682
G1 X128.75 Y93.051 E25.30285
G1 X128.75 Y107.448 E25.7817
G1 X129.149 Y107.847 E25.80046
G1 X133.434 Y107.847 E25.94298
G1 X133.55 Y107.963 E25.94844
G1 X133.55 Y114.186 E26.15542
G1 X133.434 Y114.302 E26.16087
G1 X133.089 Y114.302 E26.17235
G1 X132.655 Y114.59 E26.18967
G1 X132.541 Y114.86 E26.19942
G1 X129.149 Y114.86 E26.31224
G1 X128.75 Y115.259 E26.33101
G1 X128.75 Y142.391 E27.23342
G1 X126.618 Y142.502 E27.30443
G1 X122.29 Y142.502 E27.44838
G1 X120.99 Y142.413 E27.49172
G1 X119.75 Y142.154 E27.53385
G1 X118.57 Y141.732 E27.57553
G1 X117.454 Y141.15 E27.61739
G1 X116.139 Y140.217 E27.67102
G1 X115.85 Y140.367 E27.68185
G1 X115.85 Y114.701 E28.53551
G1 X115.451 Y114.302 E28.55427
G1 X105.289 Y114.302 E28.89226
G1 X104.855 Y114.59 E28.90959
G1 X104.741 Y114.86 E28.91933
G1 X102.459 Y114.86 E28.99523
G1 X102.345 Y114.59 E29.00498
G1 X101.911 Y114.302 E29.02231
G1 X101.566 Y114.302 E29.03378
G1 X101.45 Y114.186 E29.03924
G1 X101.45 Y107.963 E29.24622
M204 S5000
M205 X30 Y30
G0 F3600 X120.431 Y131.556
M204 S500
M205 X20 Y20
G1 F1800 X120.093 Y132.042 E29.2659
G1 X119.893 Y132.459 E29.28129
G1 X119.789 Y132.886 E29.2959
G1 X119.75 Y133.235 E29.30758
G1 X119.778 Y133.732 E29.32414
G1 X119.907 Y134.162 E29.33907
G1 X120.075 Y134.532 E29.35259
G1 X120.454 Y135.091 E29.37505
G1 X121.047 Y135.498 E29.39897
G1 X121.422 Y135.658 E29.41253
G1 X121.81 Y135.768 E29.42595
G1 X122.25 Y135.8 E29.44062
G1 X122.69 Y135.768 E29.45529
G1 X123.078 Y135.658 E29.46871
G1 X123.453 Y135.498 E29.48227
G1 X124.046 Y135.091 E29.50619
G1 X124.425 Y134.532 E29.52865
G1 X124.593 Y134.162 E29.54217
G1 X124.722 Y133.732 E29.5571
G1 X124.75 Y133.235 E29.57365
G1 X124.711 Y132.886 E29.58533
G1 X124.607 Y132.459 E29.59995
G1 X124.407 Y132.042 E29.61533
G1 X124.069 Y131.556 E29.63502
G1 X123.507 Y131.132 E29.65844
G1 X123.051 Y130.926 E29.67508
G1 X122.601 Y130.828 E29.6904
G1 X122.25 Y130.809 E29.70209
G1 X121.899 Y130.828 E29.71378
G1 X121.449 Y130.926 E29.7291
G1 X120.993 Y131.132 E29.74574
G1 X120.431 Y131.556 E29.76916
M204 S5000
M205 X30 Y30
G0 F3600 X120.015 Y131.875
M204 S500
M205 X20 Y20
G1 F1800 X120.015 Y96.762 E30.93702
M204 S5000
M205 X30 Y30
G0 F3600 X121.865 Y96.012
M204 S500
M205 X20 Y20
G1 F1800 X128.59 Y96.012 E31.16069
M204 S5000
M205 X30 Y30
G0 F3600 X128.016 Y93.52
M204 S500
M205 X20 Y20
G1 F1800 X128.016 Y142.269 E32.78209
M204 S5000
M205 X30 Y30
G0 F3600 X128.589 Y141.351
M204 S500
M205 X20 Y20
G1 F1800 X118.183 Y141.351 E33.1282
M204 S5000
M205 X30 Y30
G0 F3600 X117.348 Y140.878
M204 S500
M205 X20 Y20
G1 F1800 X117.348 Y98.043 E34.5529
M204 S5000
M205 X30 Y30
G0 F3600 X116.439 Y98.679
M204 S500
M205 X20 Y20
G1 F1800 X128.59 Y98.679 E34.95704
M204 S5000
M205 X30 Y30
G0 F3600 X128.59 Y101.346
M204 S500
M205 X20 Y20
G1 F1800 X116.01 Y101.346 E35.37545
M204 S5000
M205 X30 Y30
G0 F3600 X116.01 Y104.013
M204 S500
M205 X20 Y20
G1 F1800 X128.59 Y104.013 E35.79386
M204 S5000
M205 X30 Y30
G0 F3600 X128.59 Y106.68
M204 S500
M205 X20 Y20
G1 F1800 X116.01 Y106.68 E36.21228
M204 S5000
M205 X30 Y30
G0 F3600 X114.681 Y108.007
M204 S500
M205 X20 Y20
G1 F1800 X114.681 Y114.142 E36.41633
M204 S5000
M205 X30 Y30
G0 F3600 X116.01 Y114.681
M204 S500
M205 X20 Y20
G1 F1800 X132.441 Y114.681 E36.96283
M204 S5000
M205 X30 Y30
G0 F3600 X133.35 Y114.142
M204 S500
M205 X20 Y20
G1 F1800 X133.35 Y108.007 E37.16688
M204 S5000
M205 X30 Y30
G0 F3600 X133.39 Y109.347
M204 S500
M205 X20 Y20
G1 F1800 X101.61 Y109.347 E38.22388
M204 S5000
M205 X30 Y30
G0 F3600 X101.61 Y112.014
M204 S500
M205 X20 Y20
G1 F1800 X133.39 Y112.014 E39.28089
M204 S5000
M205 X30 Y30
G0 F3600 X130.683 Y114.7
M204 S500
M205 X20 Y20
G1 F1800 X130.683 Y108.007 E39.5035
M204 S5000
M205 X30 Y30
G0 F3600 X128.59 Y117.348
M204 S500
M205 X20 Y20
G1 F1800 X116.01 Y117.348 E39.92191
M204 S5000
M205 X30 Y30
G0 F3600 X116.009 Y120.015
M204 S500
M205 X20 Y20
G1 F1800 X128.589 Y120.015 E40.34033
M204 S5000
M205 X30 Y30
G0 F3600 X128.589 Y122.682
M204 S500
M205 X20 Y20
G1 F1800 X116.009 Y122.682 E40.75874
M204 S5000
M205 X30 Y30
G0 F3600 X116.009 Y125.349
M204 S500
M205 X20 Y20
G1 F1800 X128.589 Y125.349 E41.17715
M204 S5000
M205 X30 Y30
G0 F3600 X128.589 Y128.016
M204 S500
M205 X20 Y20
G1 F1800 X116.009 Y128.016 E41.59556
M204 S5000
M205 X30 Y30
G0 F3600 X116.009 Y130.683
M204 S500
M205 X20 Y20
G1 F1800 X121.807 Y130.683 E41.78841
M204 S5000
M205 X30 Y30
G0 F3600 X122.682 Y130.681
M204 S500
M205 X20 Y20
G1 F1800 X122.682 Y95.681 E42.95251
M204 S5000
M205 X30 Y30
G0 F3600 X125.349 Y94.601
M204 S500
M205 X20 Y20
G1 F1800 X125.349 Y142.342 E44.54038
M204 S5000
M205 X30 Y30
G0 F3600 X122.682 Y142.342
M204 S500
M205 X20 Y20
G1 F1800 X122.682 Y135.928 E44.75371
M204 S5000
M205 X30 Y30
G0 F3600 X120.015 Y134.729
M204 S500
M205 X20 Y20
G1 F1800 X120.015 Y142.046 E44.99708
M204 S5000
M205 X30 Y30
G0 F3600 X116.009 Y138.684
