;FLAVOR:Marlin
;TIME:717
;Filament used: 0.174182m
;Layer height: 0.1
;Generated with Cura_SteamEngine 3.6.0
M140 S60
M105
M190 S60
M104 S200
M105
M109 S200
M82 ;absolute extrusion mode
; Ender 3 Custom Start G-code
G28 ; Home all axes
G92 E0 ; Reset Extruder
G1 Z2.0 F3000 ; Move Z Axis up little to prevent scratching of Heat Bed
G1 X0.1 Y20 Z0.3 F5000.0 ; Move to start position
G1 X0.1 Y200.0 Z0.3 F1500.0 E15 ; Draw the first line
G1 X0.4 Y200.0 Z0.3 F5000.0 ; Move to side a little
G1 X0.4 Y20 Z0.3 F1500.0 E30 ; Draw the second line
G92 E0 ; Reset Extruder
G1 Z2.0 F3000 ; Move Z Axis up little to prevent scratching of Heat Bed
; End of custom start GCode
G92 E0
G1 F2400 E-5
;LAYER_COUNT:57
;LAYER:0
M107
M204 S5000
M205 X30 Y30
G0 F3600 X97.871 Y112.684 Z0.2
M204 S500
M205 X20 Y20
;TYPE:SKIRT
G1 F2400 E0
G1 F1800 X98.506 Y112.214 E0.01314
G1 X98.69 Y112.105 E0.01669
G1 X98.902 Y111.923 E0.02134
G1 X99.551 Y111.472 E0.03448
G1 X100.201 Y111.109 E0.04687
G1 X100.352 Y111.034 E0.04967
G1 X101.076 Y110.719 E0.0628
G1 X101.829 Y110.479 E0.07594
G1 X101.919 Y110.46 E0.07747
G1 X102.061 Y110.398 E0.08005
G1 X102.813 Y110.157 E0.09318
G1 X103.598 Y109.992 E0.10652
G1 X103.763 Y109.966 E0.1093
G1 X104.548 Y109.883 E0.12243
G1 X105.338 Y109.879 E0.13556
G1 X105.5 Y109.895 E0.13827
G1 X105.677 Y109.878 E0.14123
G1 X106.467 Y109.883 E0.15437
G1 X107.336 Y109.981 E0.16891
G1 X107.5 Y110.009 E0.17168
G1 X108.27 Y110.181 E0.1848
G1 X108.419 Y110.231 E0.18741
G1 X108.663 Y109.898 E0.19428
G1 X109.218 Y109.286 E0.20802
G1 X109.328 Y109.177 E0.21059
G1 X109.916 Y108.651 E0.22371
G1 X110.555 Y108.186 E0.23685
G1 X110.678 Y108.114 E0.23922
G1 X110.902 Y107.923 E0.24412
G1 X111.551 Y107.472 E0.25726
G1 X112.164 Y107.128 E0.26895
G1 X112.313 Y107.053 E0.27173
G1 X113.035 Y106.734 E0.28485
G1 X113.786 Y106.49 E0.29798
G1 X113.913 Y106.462 E0.30015
G1 X114.061 Y106.398 E0.30283
G1 X114.813 Y106.157 E0.31596
G1 X115.605 Y105.991 E0.32942
G1 X115.771 Y105.965 E0.33221
G1 X116.556 Y105.882 E0.34534
G1 X117.346 Y105.88 E0.35848
G1 X117.496 Y105.895 E0.36098
G1 X117.681 Y105.877 E0.36408
G1 X118.471 Y105.883 E0.37721
G1 X119.237 Y105.965 E0.39003
G1 X119.402 Y105.991 E0.3928
G1 X120.175 Y106.153 E0.40594
G1 X120.927 Y106.393 E0.41906
G1 X121.089 Y106.463 E0.422
G1 X121.259 Y106.501 E0.4249
G1 X122.008 Y106.75 E0.43802
G1 X122.78 Y107.099 E0.45211
G1 X122.928 Y107.176 E0.45489
G1 X123.609 Y107.576 E0.46802
G1 X124.247 Y108.042 E0.48116
G1 X124.32 Y108.108 E0.4828
G1 X124.432 Y108.173 E0.48495
G1 X125.071 Y108.638 E0.49809
G1 X125.688 Y109.193 E0.51189
G1 X125.806 Y109.311 E0.51467
G1 X126.336 Y109.897 E0.52781
G1 X126.803 Y110.533 E0.54093
G1 X126.895 Y110.689 E0.54394
G1 X127.077 Y110.902 E0.5486
G1 X127.528 Y111.551 E0.56174
G1 X127.844 Y112.108 E0.57239
G1 X127.92 Y112.256 E0.57516
G1 X128.244 Y112.976 E0.58829
G1 X128.495 Y113.725 E0.60143
G1 X128.539 Y113.92 E0.60475
G1 X128.605 Y114.072 E0.60751
G1 X128.844 Y114.825 E0.62065
G1 X128.992 Y115.508 E0.63227
G1 X129.02 Y115.673 E0.63505
G1 X129.113 Y116.457 E0.64818
G1 X129.125 Y117.247 E0.66132
G1 X129.104 Y117.488 E0.66534
G1 X129.122 Y117.672 E0.66842
G1 X129.118 Y118.462 E0.68155
G1 X129.026 Y119.29 E0.69541
G1 X128.999 Y119.454 E0.69817
G1 X128.832 Y120.226 E0.71131
G1 X128.587 Y120.977 E0.72445
G1 X128.536 Y121.092 E0.72654
G1 X128.497 Y121.266 E0.7295
G1 X128.248 Y122.015 E0.74263
G1 X127.91 Y122.761 E0.75625
G1 X127.833 Y122.91 E0.75904
G1 X127.436 Y123.592 E0.77216
G1 X126.971 Y124.231 E0.7853
G1 X126.888 Y124.324 E0.78738
G1 X126.8 Y124.473 E0.79025
G1 X126.332 Y125.109 E0.80339
G1 X125.784 Y125.712 E0.81694
G1 X125.665 Y125.83 E0.81972
G1 X125.077 Y126.357 E0.83285
G1 X124.439 Y126.821 E0.84597
G1 X124.317 Y126.892 E0.84832
G1 X124.183 Y127.01 E0.85129
G1 X123.541 Y127.469 E0.86442
G1 X122.854 Y127.862 E0.87758
G1 X122.708 Y127.936 E0.8803
G1 X121.987 Y128.257 E0.89342
G1 X121.237 Y128.504 E0.90656
G1 X121.09 Y128.536 E0.90906
G1 X120.939 Y128.602 E0.9118
G1 X120.187 Y128.843 E0.92493
G1 X119.395 Y129.009 E0.93839
G1 X119.229 Y129.035 E0.94118
G1 X118.444 Y129.118 E0.95431
G1 X117.654 Y129.12 E0.96745
G1 X117.504 Y129.105 E0.96995
G1 X117.319 Y129.123 E0.97305
G1 X116.529 Y129.117 E0.98618
G1 X115.71 Y129.026 E0.99989
G1 X115.546 Y128.999 E1.00265
G1 X114.774 Y128.832 E1.01579
G1 X114.581 Y128.769 E1.01916
G1 X114.34 Y129.098 E1.02595
G1 X113.831 Y129.665 E1.03862
G1 X113.713 Y129.784 E1.0414
G1 X113.129 Y130.316 E1.05454
G1 X112.494 Y130.786 E1.06768
G1 X112.323 Y130.888 E1.07099
G1 X112.194 Y131.002 E1.07385
G1 X111.552 Y131.463 E1.087
G1 X110.817 Y131.882 E1.10107
G1 X110.669 Y131.956 E1.10382
G1 X109.946 Y132.272 E1.11694
G1 X109.194 Y132.515 E1.13008
G1 X109.085 Y132.538 E1.13194
G1 X108.939 Y132.602 E1.13459
G1 X108.187 Y132.843 E1.14772
G1 X107.402 Y133.008 E1.16106
G1 X107.237 Y133.034 E1.16384
G1 X106.452 Y133.117 E1.17696
G1 X105.662 Y133.121 E1.1901
G1 X105.503 Y133.105 E1.19276
G1 X105.319 Y133.123 E1.19583
G1 X104.529 Y133.117 E1.20897
G1 X103.664 Y133.019 E1.22345
G1 X103.5 Y132.991 E1.22622
G1 X102.73 Y132.819 E1.23934
G1 X101.98 Y132.569 E1.25248
G1 X101.908 Y132.537 E1.25379
G1 X101.768 Y132.506 E1.25618
G1 X101.018 Y132.26 E1.26931
G1 X100.22 Y131.901 E1.28386
G1 X100.072 Y131.824 E1.28663
G1 X99.391 Y131.424 E1.29977
G1 X98.753 Y130.958 E1.3129
G1 X98.673 Y130.886 E1.31469
G1 X98.534 Y130.804 E1.31738
G1 X97.898 Y130.337 E1.3305
G1 X97.335 Y129.831 E1.34309
G1 X97.216 Y129.713 E1.34588
G1 X96.684 Y129.129 E1.35901
G1 X96.214 Y128.494 E1.37215
G1 X96.105 Y128.31 E1.37571
G1 X95.923 Y128.098 E1.38035
G1 X95.472 Y127.449 E1.3935
G1 X95.156 Y126.892 E1.40415
G1 X95.08 Y126.744 E1.40691
G1 X94.756 Y126.024 E1.42004
G1 X94.505 Y125.275 E1.43318
G1 X94.463 Y125.088 E1.43637
G1 X94.398 Y124.939 E1.43907
G1 X94.157 Y124.187 E1.4522
G1 X93.99 Y123.388 E1.46578
G1 X93.964 Y123.221 E1.46859
G1 X93.882 Y122.435 E1.48173
G1 X93.88 Y121.646 E1.49485
G1 X93.895 Y121.498 E1.49733
G1 X93.878 Y121.323 E1.50025
G1 X93.883 Y120.533 E1.51339
G1 X93.983 Y119.656 E1.52807
G1 X94.011 Y119.493 E1.53082
G1 X94.184 Y118.723 E1.54394
G1 X94.433 Y117.974 E1.55707
G1 X94.463 Y117.908 E1.55827
G1 X94.49 Y117.783 E1.5604
G1 X94.734 Y117.032 E1.57353
G1 X95.061 Y116.296 E1.58693
G1 X95.137 Y116.146 E1.58972
G1 X95.529 Y115.46 E1.60286
G1 X95.989 Y114.818 E1.616
G1 X96.108 Y114.683 E1.61899
G1 X96.193 Y114.538 E1.62178
G1 X96.66 Y113.902 E1.63491
G1 X97.169 Y113.335 E1.64758
G1 X97.287 Y113.216 E1.65036
G1 X97.871 Y112.684 E1.6635
M204 S5000
M205 X30 Y30
G0 F3600 X98.141 Y112.98
M204 S500
M205 X20 Y20
G1 F1800 X98.76 Y112.525 E1.67628
G1 X98.929 Y112.426 E1.67953
G1 X99.323 Y112.107 E1.68796
G1 X99.968 Y111.688 E1.70076
G1 X100.379 Y111.467 E1.70852
G1 X100.53 Y111.392 E1.71132
G1 X101.236 Y111.087 E1.72411
G1 X101.97 Y110.856 E1.73691
G1 X102.064 Y110.837 E1.7385
G1 X102.409 Y110.698 E1.74469
G1 X103.149 Y110.486 E1.75749
G1 X103.66 Y110.387 E1.76614
G1 X103.825 Y110.361 E1.76892
G1 X104.59 Y110.281 E1.78171
G1 X105.359 Y110.281 E1.7945
G1 X105.518 Y110.297 E1.79716
G1 X105.915 Y110.271 E1.80378
G1 X106.684 Y110.3 E1.81657
G1 X107.268 Y110.376 E1.82637
G1 X107.432 Y110.404 E1.82913
G1 X108.183 Y110.572 E1.84193
G1 X108.571 Y110.703 E1.84874
G1 X108.653 Y110.573 E1.8513
G1 X109.128 Y109.967 E1.8641
G1 X109.499 Y109.571 E1.87313
G1 X109.609 Y109.462 E1.8757
G1 X110.183 Y108.949 E1.8885
G1 X110.807 Y108.499 E1.9013
G1 X110.917 Y108.436 E1.90341
G1 X111.323 Y108.107 E1.9121
G1 X111.968 Y107.688 E1.92489
G1 X112.344 Y107.485 E1.93199
G1 X112.493 Y107.41 E1.93477
G1 X113.197 Y107.1 E1.94756
G1 X113.929 Y106.866 E1.96034
G1 X114.06 Y106.839 E1.96256
G1 X114.409 Y106.698 E1.96882
G1 X115.149 Y106.486 E1.98163
G1 X115.667 Y106.386 E1.9904
G1 X115.833 Y106.36 E1.99319
G1 X116.598 Y106.281 E2.00598
G1 X117.367 Y106.281 E2.01877
G1 X117.522 Y106.297 E2.02136
G1 X117.919 Y106.271 E2.02798
G1 X118.687 Y106.3 E2.04076
G1 X119.175 Y106.36 E2.04894
G1 X119.34 Y106.386 E2.05171
G1 X120.092 Y106.545 E2.0645
G1 X120.824 Y106.782 E2.07729
G1 X120.982 Y106.852 E2.08017
G1 X121.363 Y106.948 E2.0867
G1 X122.085 Y107.213 E2.09949
G1 X122.595 Y107.454 E2.10887
G1 X122.743 Y107.531 E2.11165
G1 X123.406 Y107.921 E2.12444
G1 X124.025 Y108.378 E2.13723
G1 X124.104 Y108.45 E2.13901
G1 X124.396 Y108.631 E2.14472
G1 X125.004 Y109.102 E2.15751
G1 X125.406 Y109.475 E2.16663
G1 X125.524 Y109.593 E2.16941
G1 X126.038 Y110.165 E2.1822
G1 X126.491 Y110.787 E2.19499
G1 X126.572 Y110.926 E2.19767
G1 X126.893 Y111.323 E2.20616
G1 X127.488 Y112.291 E2.22506
G1 X127.564 Y112.439 E2.22782
G1 X127.879 Y113.14 E2.2406
G1 X128.12 Y113.871 E2.2534
G1 X128.163 Y114.068 E2.25676
G1 X128.304 Y114.42 E2.26306
G1 X128.515 Y115.16 E2.27586
G1 X128.598 Y115.575 E2.2829
G1 X128.626 Y115.74 E2.28568
G1 X128.715 Y116.504 E2.29847
G1 X128.724 Y117.273 E2.31126
G1 X128.702 Y117.513 E2.31527
G1 X128.729 Y117.91 E2.32189
G1 X128.701 Y118.679 E2.33468
G1 X128.632 Y119.225 E2.34384
G1 X128.605 Y119.389 E2.3466
G1 X128.44 Y120.141 E2.3594
G1 X128.199 Y120.871 E2.37219
G1 X128.147 Y120.985 E2.37427
G1 X128.05 Y121.37 E2.38087
G1 X127.784 Y122.092 E2.39367
G1 X127.555 Y122.577 E2.40259
G1 X127.478 Y122.726 E2.40538
G1 X127.09 Y123.39 E2.41817
G1 X126.635 Y124.011 E2.43097
G1 X126.55 Y124.104 E2.43307
G1 X126.342 Y124.434 E2.43955
G1 X125.867 Y125.039 E2.45234
G1 X125.502 Y125.428 E2.46122
G1 X125.383 Y125.546 E2.464
G1 X124.81 Y126.058 E2.47678
G1 X124.186 Y126.508 E2.48958
G1 X124.063 Y126.578 E2.49193
G1 X123.76 Y126.831 E2.49849
G1 X123.121 Y127.259 E2.51128
G1 X122.673 Y127.506 E2.51979
G1 X122.527 Y127.58 E2.52251
G1 X121.824 Y127.891 E2.5353
G1 X121.093 Y128.128 E2.54808
G1 X120.945 Y128.159 E2.55059
G1 X120.591 Y128.302 E2.55694
G1 X119.851 Y128.514 E2.56974
G1 X119.333 Y128.614 E2.57851
G1 X119.167 Y128.64 E2.58131
G1 X118.402 Y128.719 E2.5941
G1 X117.633 Y128.719 E2.60689
G1 X117.478 Y128.703 E2.60948
G1 X117.081 Y128.729 E2.61609
G1 X116.313 Y128.7 E2.62888
G1 X115.775 Y128.632 E2.63789
G1 X115.611 Y128.605 E2.64066
G1 X114.859 Y128.44 E2.65346
G1 X114.428 Y128.298 E2.66101
G1 X114.349 Y128.424 E2.66348
G1 X113.876 Y129.029 E2.67625
G1 X113.547 Y129.383 E2.68429
G1 X113.429 Y129.502 E2.68708
G1 X112.859 Y130.02 E2.69988
G1 X112.24 Y130.475 E2.71266
G1 X112.067 Y130.577 E2.716
G1 X111.77 Y130.824 E2.72242
G1 X111.132 Y131.253 E2.73521
G1 X110.638 Y131.524 E2.74458
G1 X110.49 Y131.598 E2.74733
G1 X109.785 Y131.906 E2.76013
G1 X109.052 Y132.138 E2.77291
G1 X108.942 Y132.161 E2.77478
G1 X108.591 Y132.302 E2.78107
G1 X107.851 Y132.514 E2.79387
G1 X107.34 Y132.613 E2.80253
G1 X107.175 Y132.639 E2.80531
G1 X106.41 Y132.719 E2.8181
G1 X105.641 Y132.719 E2.83089
G1 X105.481 Y132.702 E2.83356
G1 X105.081 Y132.729 E2.84023
G1 X104.313 Y132.7 E2.85301
G1 X103.732 Y132.624 E2.86275
G1 X103.568 Y132.596 E2.86552
G1 X102.817 Y132.428 E2.87832
G1 X102.088 Y132.182 E2.89111
G1 X102.007 Y132.145 E2.8926
G1 X101.662 Y132.059 E2.89851
G1 X100.939 Y131.797 E2.9113
G1 X100.405 Y131.546 E2.92111
G1 X100.257 Y131.469 E2.92388
G1 X99.594 Y131.079 E2.93668
G1 X98.975 Y130.622 E2.94947
G1 X98.896 Y130.55 E2.95125
G1 X98.573 Y130.347 E2.95759
G1 X97.967 Y129.872 E2.9704
G1 X97.617 Y129.547 E2.97834
G1 X97.498 Y129.429 E2.98113
G1 X96.98 Y128.859 E2.99394
G1 X96.525 Y128.24 E3.00671
G1 X96.426 Y128.071 E3.00997
G1 X96.107 Y127.677 E3.0184
G1 X95.512 Y126.709 E3.0373
G1 X95.436 Y126.561 E3.04006
G1 X95.121 Y125.86 E3.05284
G1 X94.88 Y125.129 E3.06564
G1 X94.839 Y124.941 E3.06884
G1 X94.698 Y124.591 E3.07512
G1 X94.486 Y123.851 E3.08792
G1 X94.385 Y123.326 E3.09681
G1 X94.359 Y123.159 E3.09962
G1 X94.28 Y122.394 E3.11241
G1 X94.282 Y121.625 E3.1252
G1 X94.297 Y121.479 E3.12764
G1 X94.271 Y121.085 E3.13421
G1 X94.3 Y120.316 E3.147
G1 X94.377 Y119.724 E3.15693
G1 X94.405 Y119.561 E3.15968
G1 X94.574 Y118.811 E3.17247
G1 X94.821 Y118.082 E3.18527
G1 X94.855 Y118.008 E3.18662
G1 X94.937 Y117.676 E3.19231
G1 X95.197 Y116.953 E3.20509
G1 X95.418 Y116.476 E3.21383
G1 X95.494 Y116.326 E3.21663
G1 X95.877 Y115.659 E3.22942
G1 X96.327 Y115.036 E3.2422
G1 X96.446 Y114.902 E3.24518
G1 X96.651 Y114.576 E3.25158
G1 X97.124 Y113.971 E3.26435
G1 X97.453 Y113.617 E3.27239
G1 X97.571 Y113.498 E3.27518
G1 X98.141 Y112.98 E3.28799
M204 S5000
M205 X30 Y30
G0 F3600 X98.41 Y113.277
M204 S500
M205 X20 Y20
G1 F1800 X99.015 Y112.837 E3.30043
G1 X99.129 Y112.771 E3.30262
G1 X99.147 Y112.754 E3.30303
G1 X99.742 Y112.301 E3.31547
G1 X100.557 Y111.826 E3.33115
G1 X100.708 Y111.751 E3.33396
G1 X101.395 Y111.454 E3.3464
G1 X102.109 Y111.233 E3.35883
G1 X102.168 Y111.222 E3.35983
G1 X102.754 Y111.006 E3.37022
G1 X103.722 Y110.782 E3.38674
G1 X103.887 Y110.756 E3.38952
G1 X104.632 Y110.68 E3.40197
G1 X105.38 Y110.683 E3.41441
G1 X105.487 Y110.695 E3.4162
G1 X106.146 Y110.671 E3.42717
G1 X107.201 Y110.77 E3.44479
G1 X107.365 Y110.798 E3.44756
G1 X108.095 Y110.963 E3.46
G1 X108.73 Y111.18 E3.47116
G1 X108.755 Y111.154 E3.47176
G1 X109.113 Y110.62 E3.48245
G1 X109.781 Y109.855 E3.49934
G1 X109.891 Y109.746 E3.50192
G1 X110.45 Y109.248 E3.51437
G1 X111.058 Y108.813 E3.5268
G1 X111.123 Y108.776 E3.52805
G1 X111.147 Y108.754 E3.52859
G1 X111.742 Y108.301 E3.54102
G1 X112.524 Y107.842 E3.5561
G1 X112.673 Y107.767 E3.55888
G1 X113.358 Y107.467 E3.57131
G1 X114.071 Y107.242 E3.58375
G1 X114.162 Y107.224 E3.58529
G1 X114.754 Y107.006 E3.59578
G1 X115.729 Y106.781 E3.61242
G1 X115.895 Y106.755 E3.61521
G1 X116.639 Y106.679 E3.62765
G1 X117.387 Y106.683 E3.64009
G1 X117.491 Y106.695 E3.64183
G1 X118.15 Y106.671 E3.6528
G1 X119.113 Y106.755 E3.66887
G1 X119.278 Y106.781 E3.67165
G1 X120.009 Y106.937 E3.68408
G1 X120.72 Y107.17 E3.69653
G1 X120.836 Y107.223 E3.69865
G1 X121.46 Y107.401 E3.70944
G1 X122.411 Y107.809 E3.72665
G1 X122.559 Y107.886 E3.72942
G1 X123.203 Y108.266 E3.74186
G1 X123.803 Y108.713 E3.7543
G1 X123.86 Y108.766 E3.75559
G1 X124.351 Y109.092 E3.76539
G1 X125.123 Y109.758 E3.78235
G1 X125.241 Y109.876 E3.78513
G1 X125.741 Y110.433 E3.79757
G1 X126.178 Y111.039 E3.81
G1 X126.23 Y111.13 E3.81174
G1 X126.246 Y111.147 E3.81213
G1 X126.699 Y111.742 E3.82457
G1 X127.132 Y112.473 E3.83869
G1 X127.208 Y112.621 E3.84146
G1 X127.514 Y113.304 E3.85391
G1 X127.745 Y114.016 E3.86636
G1 X127.776 Y114.162 E3.86884
G1 X127.995 Y114.764 E3.87949
G1 X128.203 Y115.642 E3.8945
G1 X128.231 Y115.807 E3.89728
G1 X128.317 Y116.55 E3.90972
G1 X128.323 Y117.298 E3.92216
G1 X128.305 Y117.478 E3.92517
G1 X128.329 Y118.142 E3.93622
G1 X128.237 Y119.16 E3.95321
G1 X128.21 Y119.324 E3.95598
G1 X128.049 Y120.055 E3.96843
G1 X127.811 Y120.764 E3.98086
G1 X127.777 Y120.839 E3.98223
G1 X127.597 Y121.466 E3.99308
G1 X127.2 Y122.394 E4.00987
G1 X127.123 Y122.543 E4.01266
G1 X126.744 Y123.188 E4.0251
G1 X126.299 Y123.789 E4.03753
G1 X126.243 Y123.85 E4.03891
G1 X125.882 Y124.386 E4.04966
G1 X125.221 Y125.144 E4.06638
G1 X125.102 Y125.262 E4.06917
G1 X124.543 Y125.759 E4.08161
G1 X123.935 Y126.194 E4.09404
G1 X123.851 Y126.241 E4.09564
G1 X123.338 Y126.643 E4.10648
G1 X122.493 Y127.149 E4.12286
G1 X122.347 Y127.223 E4.12558
G1 X121.662 Y127.525 E4.13803
G1 X120.95 Y127.752 E4.15046
G1 X120.847 Y127.773 E4.15221
G1 X120.246 Y127.994 E4.16286
G1 X119.271 Y128.219 E4.1795
G1 X119.105 Y128.245 E4.18229
G1 X118.361 Y128.321 E4.19473
G1 X117.613 Y128.317 E4.20717
G1 X117.509 Y128.305 E4.20891
G1 X116.85 Y128.329 E4.21988
G1 X115.84 Y128.237 E4.23674
G1 X115.676 Y128.21 E4.2395
G1 X114.945 Y128.049 E4.25195
G1 X114.269 Y127.822 E4.26381
G1 X114.24 Y127.854 E4.26453
G1 X113.889 Y128.376 E4.27499
G1 X113.263 Y129.102 E4.29093
G1 X113.145 Y129.221 E4.29372
G1 X112.59 Y129.723 E4.30616
G1 X111.985 Y130.163 E4.31861
G1 X111.857 Y130.237 E4.32106
G1 X111.347 Y130.637 E4.33184
G1 X110.459 Y131.166 E4.34903
G1 X110.311 Y131.24 E4.35178
G1 X109.625 Y131.538 E4.36422
G1 X108.912 Y131.762 E4.37665
G1 X108.836 Y131.777 E4.37794
G1 X108.246 Y131.994 E4.38839
G1 X107.278 Y132.218 E4.40492
G1 X107.113 Y132.244 E4.40769
G1 X106.368 Y132.32 E4.42015
G1 X105.62 Y132.317 E4.43259
G1 X105.512 Y132.305 E4.43439
G1 X104.85 Y132.329 E4.44541
