;FLAVOR:Marlin
;TIME:1852
;Filament used: 0.649257m
;Layer height: 0.1
;Generated with Cura_SteamEngine 3.6.0
M140 S60
M105
M190 S60
M104 S200
M105
M109 S200
M82 ;absolute extrusion mode
; Ender 3 Custom Start G-code
G28 ; Home all axes
G92 E0 ; Reset Extruder
G1 Z2.0 F3000 ; Move Z Axis up little to prevent scratching of Heat Bed
G1 X0.1 Y20 Z0.3 F5000.0 ; Move to start position
G1 X0.1 Y200.0 Z0.3 F1500.0 E15 ; Draw the first line
G1 X0.4 Y200.0 Z0.3 F5000.0 ; Move to side a little
G1 X0.4 Y20 Z0.3 F1500.0 E30 ; Draw the second line
G92 E0 ; Reset Extruder
G1 Z2.0 F3000 ; Move Z Axis up little to prevent scratching of Heat Bed
; End of custom start GCode
G92 E0
G1 F2400 E-5
;LAYER_COUNT:59
;LAYER:0
M107
M204 S5000
M205 X30 Y30
G0 F3600 X108.237 Y91.475 Z0.2
M204 S500
M205 X20 Y20
;TYPE:SKIRT
G1 F2400 E0
G1 F1800 X108.759 Y90.883 E0.02625
G1 X109.524 Y90.196 E0.06045
G1 X110.344 Y89.552 E0.09513
G1 X110.989 Y89.096 E0.1214
G1 X111.88 Y88.61 E0.15516
G1 X112.822 Y88.173 E0.1897
G1 X113.554 Y87.878 E0.21594
G1 X114.567 Y87.602 E0.25087
G1 X115.597 Y87.395 E0.28581
G1 X116.378 Y87.279 E0.31207
G1 X117.386 Y87.246 E0.34561
G1 X118.407 Y87.279 E0.37959
G1 X119.194 Y87.345 E0.40586
G1 X120.181 Y87.543 E0.43934
G1 X121.185 Y87.813 E0.47392
G1 X121.936 Y88.056 E0.50017
G1 X122.875 Y88.487 E0.53454
G1 X123.781 Y88.978 E0.56881
G1 X124.456 Y89.389 E0.5951
G1 X125.238 Y89.998 E0.62806
G1 X126.01 Y90.682 E0.66237
G1 X126.573 Y91.235 E0.68862
G1 X127.216 Y92.032 E0.72267
G1 X127.8 Y92.862 E0.75643
G1 X128.221 Y93.53 E0.78269
G1 X128.661 Y94.447 E0.81652
G1 X129.062 Y95.447 E0.85235
G1 X129.318 Y96.194 E0.87862
G1 X129.539 Y97.215 E0.91336
G1 X129.689 Y98.235 E0.94765
G1 X129.764 Y99.021 E0.97392
G1 X129.742 Y100.057 E1.00838
G1 X129.65 Y101.098 E1.04314
G1 X129.54 Y101.88 E1.0694
G1 X129.283 Y102.869 E1.10339
G1 X128.958 Y103.848 E1.1377
G1 X128.671 Y104.583 E1.16394
G1 X128.198 Y105.478 E1.19761
G1 X127.654 Y106.362 E1.23214
G1 X127.267 Y106.925 E1.25486
G1 X127.341 Y106.878 E1.25778
G1 X128.097 Y106.5 E1.28589
G1 X129.116 Y106.058 E1.32283
G1 X129.856 Y105.781 E1.34911
G1 X130.869 Y105.532 E1.38381
G1 X131.898 Y105.351 E1.41856
G1 X132.681 Y105.254 E1.4448
G1 X133.264 Y105.233 E1.4642
G1 X133.779 Y105.234 E1.48133
G1 X134.568 Y105.276 E1.50761
G1 X135.123 Y105.353 E1.52625
G1 X136.135 Y105.532 E1.56043
G1 X136.904 Y105.709 E1.58667
G1 X137.416 Y105.873 E1.60456
G1 X137.986 Y106.078 E1.6247
G1 X138.714 Y106.383 E1.65095
G1 X138.902 Y106.485 E1.65807
G1 X138.93 Y106.496 E1.65907
G1 X139.63 Y106.861 E1.68533
G1 X139.968 Y107.072 E1.69858
G1 X140.457 Y107.394 E1.71805
G1 X141.093 Y107.861 E1.7443
G1 X141.514 Y108.23 E1.76292
G1 X142.269 Y108.941 E1.79741
G1 X142.816 Y109.51 E1.82366
G1 X143.429 Y110.318 E1.85739
G1 X144 Y111.182 E1.89184
G1 X144.402 Y111.862 E1.91811
G1 X144.822 Y112.813 E1.95269
G1 X145.179 Y113.793 E1.98738
G1 X145.411 Y114.548 E2.01365
G1 X145.524 Y115.068 E2.03135
G1 X145.632 Y115.662 E2.05143
G1 X145.734 Y116.445 E2.07769
G1 X145.741 Y116.697 E2.08608
G1 X145.745 Y116.726 E2.08705
G1 X145.777 Y117.515 E2.11332
G1 X145.726 Y118.325 E2.14031
G1 X145.599 Y119.431 E2.17734
G1 X145.469 Y120.21 E2.20361
G1 X145.178 Y121.213 E2.23834
G1 X144.824 Y122.184 E2.27272
G1 X144.516 Y122.911 E2.29898
G1 X144.01 Y123.802 E2.33306
G1 X143.439 Y124.669 E2.36759
G1 X142.972 Y125.306 E2.39386
G1 X142.252 Y126.077 E2.42894
G1 X141.439 Y126.837 E2.46596
G1 X140.835 Y127.346 E2.49223
G1 X140.724 Y127.422 E2.4967
G1 X141.216 Y128.032 E2.52277
G1 X141.8 Y128.862 E2.55652
G1 X142.221 Y129.53 E2.58279
G1 X142.661 Y130.447 E2.61661
G1 X143.062 Y131.447 E2.65245
G1 X143.318 Y132.194 E2.67871
G1 X143.539 Y133.215 E2.71346
G1 X143.689 Y134.235 E2.74775
G1 X143.764 Y135.021 E2.77401
G1 X143.742 Y136.057 E2.80847
G1 X143.65 Y137.098 E2.84323
G1 X143.54 Y137.88 E2.8695
G1 X143.283 Y138.869 E2.90349
G1 X142.958 Y139.848 E2.93779
G1 X142.671 Y140.583 E2.96404
G1 X142.198 Y141.478 E2.99771
G1 X141.654 Y142.362 E3.03223
G1 X141.207 Y143.013 E3.0585
G1 X140.515 Y143.801 E3.09338
G1 X139.771 Y144.542 E3.1283
G1 X139.184 Y145.07 E3.15456
G1 X138.342 Y145.666 E3.18887
G1 X137.454 Y146.21 E3.22351
G1 X136.76 Y146.588 E3.24979
G1 X135.819 Y146.968 E3.28355
G1 X134.832 Y147.293 E3.31811
G1 X134.07 Y147.501 E3.34438
G1 X133.052 Y147.656 E3.37863
G1 X132.015 Y147.744 E3.41324
G1 X131.225 Y147.771 E3.43953
G1 X130.189 Y147.684 E3.47411
G1 X129.17 Y147.53 E3.50839
G1 X128.397 Y147.373 E3.53462
G1 X127.432 Y147.057 E3.5684
G1 X126.45 Y146.663 E3.60359
G1 X125.732 Y146.332 E3.62989
G1 X124.837 Y145.783 E3.66481
G1 X123.991 Y145.182 E3.69932
G1 X123.371 Y144.692 E3.72561
G1 X123 Y144.346 E3.74248
G1 X122.649 Y143.996 E3.75897
G1 X122.35 Y143.665 E3.7738
G1 X122.026 Y143.895 E3.78702
G1 X121.537 Y144.181 E3.80586
G1 X121.087 Y144.423 E3.82285
G1 X120.374 Y144.761 E3.8491
G1 X119.862 Y144.952 E3.86727
G1 X118.882 Y145.279 E3.90164
G1 X118.121 Y145.491 E3.92791
G1 X117.101 Y145.65 E3.96225
G1 X116.062 Y145.742 E3.99694
G1 X115.273 Y145.771 E4.0232
G1 X114.253 Y145.691 E4.05723
G1 X113.227 Y145.542 E4.09171
G1 X112.452 Y145.389 E4.11798
G1 X111.492 Y145.081 E4.15152
G1 X110.534 Y144.704 E4.18576
G1 X109.814 Y144.378 E4.21205
G1 X108.922 Y143.839 E4.24671
G1 X108.062 Y143.238 E4.28161
G1 X107.438 Y142.754 E4.30787
G1 X106.706 Y142.033 E4.34205
G1 X106.013 Y141.255 E4.3767
G1 X105.518 Y140.64 E4.40296
G1 X104.982 Y139.789 E4.43641
G1 X104.49 Y138.883 E4.4707
G1 X104.149 Y138.171 E4.49695
G1 X103.811 Y137.181 E4.53175
G1 X103.54 Y136.17 E4.56656
G1 X103.374 Y135.397 E4.59286
G1 X103.278 Y134.384 E4.6267
G1 X103.247 Y133.351 E4.66107
G1 X103.263 Y132.561 E4.68736
G1 X103.407 Y131.528 E4.72205
G1 X103.622 Y130.495 E4.75714
G1 X103.821 Y129.731 E4.7834
G1 X103.908 Y129.507 E4.79139
G1 X103.104 Y129.649 E4.81855
G1 X102.32 Y129.746 E4.84482
G1 X101.721 Y129.767 E4.86476
G1 X101.199 Y129.765 E4.88212
G1 X100.411 Y129.722 E4.90836
G1 X99.857 Y129.643 E4.92698
G1 X98.833 Y129.46 E4.96158
G1 X98.063 Y129.282 E4.98786
G1 X97.536 Y129.111 E5.00629
G1 X96.984 Y128.91 E5.02583
G1 X96.257 Y128.603 E5.05208
G1 X96.094 Y128.513 E5.05827
G1 X96.07 Y128.504 E5.05912
G1 X95.37 Y128.139 E5.08538
G1 X94.677 Y127.68 E5.11302
G1 X93.776 Y127.012 E5.15033
G1 X93.166 Y126.51 E5.17661
G1 X92.423 Y125.733 E5.21236
G1 X91.752 Y124.926 E5.24727
G1 X91.279 Y124.294 E5.27352
G1 X90.763 Y123.406 E5.30768
G1 X90.305 Y122.483 E5.34195
G1 X89.99 Y121.759 E5.36822
G1 X89.695 Y120.786 E5.40203
G1 X89.445 Y119.713 E5.43868
G1 X89.305 Y118.936 E5.46494
G1 X89.245 Y118.148 E5.49122
G1 X89.247 Y118.072 E5.49375
G1 X89.223 Y117.485 E5.51329
G1 X89.275 Y116.668 E5.54052
G1 X89.403 Y115.562 E5.57755
G1 X89.533 Y114.783 E5.60382
G1 X89.823 Y113.786 E5.63835
G1 X90.179 Y112.81 E5.67291
G1 X90.487 Y112.083 E5.69917
G1 X91.01 Y111.167 E5.73425
G1 X91.592 Y110.291 E5.76923
G1 X92.062 Y109.656 E5.7955
G1 X92.77 Y108.902 E5.82991
G1 X93.569 Y108.157 E5.86624
G1 X94.173 Y107.649 E5.89249
G1 X94.651 Y107.323 E5.91173
G1 X94.676 Y107.303 E5.9128
G1 X94.738 Y107.263 E5.91525
G1 X94.825 Y107.204 E5.91875
G1 X94.864 Y107.183 E5.92022
G1 X95.341 Y106.878 E5.93905
G1 X96.097 Y106.5 E5.96717
G1 X97.116 Y106.058 E6.00411
G1 X97.856 Y105.781 E6.03039
G1 X98.869 Y105.532 E6.06509
G1 X99.898 Y105.351 E6.09984
G1 X100.681 Y105.254 E6.12608
G1 X101.264 Y105.233 E6.14548
G1 X101.779 Y105.234 E6.16261
G1 X102.568 Y105.276 E6.18889
G1 X103.123 Y105.353 E6.20752
G1 X104.135 Y105.532 E6.24171
G1 X104.904 Y105.709 E6.26795
G1 X105.416 Y105.873 E6.28583
G1 X105.986 Y106.078 E6.30598
G1 X106.714 Y106.383 E6.33223
G1 X106.902 Y106.485 E6.33935
G1 X106.93 Y106.496 E6.34035
G1 X107.63 Y106.861 E6.36661
G1 X107.768 Y106.947 E6.37201
G1 X107.765 Y106.943 E6.37218
G1 X107.165 Y106.085 E6.407
G1 X106.746 Y105.416 E6.43326
G1 X106.301 Y104.478 E6.46779
G1 X105.921 Y103.515 E6.50222
G1 X105.669 Y102.767 E6.52847
G1 X105.459 Y101.777 E6.56213
G1 X105.31 Y100.755 E6.59648
G1 X105.235 Y99.969 E6.62275
G1 X105.258 Y98.944 E6.65685
G1 X105.35 Y97.902 E6.69164
G1 X105.459 Y97.12 E6.7179
G1 X105.72 Y96.121 E6.75224
G1 X106.048 Y95.137 E6.78674
G1 X106.336 Y94.402 E6.813
G1 X106.586 Y93.895 E6.8318
G1 X106.839 Y93.427 E6.84949
G1 X107.25 Y92.752 E6.87578
G1 X107.596 Y92.281 E6.89521
G1 X108.237 Y91.475 E6.92947
M204 S5000
M205 X30 Y30
G0 F3600 X108.55 Y91.724
M204 S500
M205 X20 Y20
G1 F1800 X109.06 Y91.148 E6.95505
G1 X109.771 Y90.51 E6.98683
G1 X110.591 Y89.866 E7.02151
G1 X111.22 Y89.423 E7.04709
G1 X112.048 Y88.973 E7.07844
G1 X112.99 Y88.536 E7.11298
G1 X113.703 Y88.249 E7.13854
G1 X114.646 Y87.994 E7.17103
G1 X115.676 Y87.787 E7.20597
G1 X116.437 Y87.675 E7.23156
G1 X117.373 Y87.646 E7.2627
G1 X118.394 Y87.679 E7.29668
G1 X119.16 Y87.744 E7.32225
G1 X120.077 Y87.929 E7.35336
G1 X121.081 Y88.199 E7.38794
G1 X121.812 Y88.437 E7.41351
G1 X122.685 Y88.839 E7.44548
G1 X123.591 Y89.33 E7.47975
G1 X124.247 Y89.731 E7.50533
G1 X124.972 Y90.297 E7.53592
G1 X125.744 Y90.981 E7.57022
G1 X126.293 Y91.521 E7.59584
G1 X126.889 Y92.262 E7.62746
G1 X127.473 Y93.092 E7.66122
G1 X127.882 Y93.743 E7.68679
G1 X128.289 Y94.596 E7.71822
G1 X128.69 Y95.596 E7.75406
G1 X128.939 Y96.324 E7.77965
G1 X129.143 Y97.273 E7.81193
G1 X129.293 Y98.293 E7.84622
G1 X129.365 Y99.059 E7.87181
G1 X129.343 Y100.021 E7.90382
G1 X129.251 Y101.062 E7.93858
G1 X129.144 Y101.824 E7.96417
G1 X128.903 Y102.742 E7.99574
G1 X128.578 Y103.721 E8.03005
G1 X128.298 Y104.438 E8.05565
G1 X127.857 Y105.268 E8.08691
G1 X127.313 Y106.152 E8.12143
G1 X126.877 Y106.786 E8.14702
G1 X126.233 Y107.517 E8.17943
G1 X125.489 Y108.258 E8.21435
G1 X125.218 Y108.501 E8.22646
G1 X125.264 Y108.542 E8.22851
G1 X125.502 Y108.767 E8.2394
G1 X125.842 Y108.45 E8.25486
G1 X126.431 Y107.955 E8.28045
G1 X127.016 Y107.559 E8.30395
G1 X127.105 Y107.493 E8.30763
G1 X127.767 Y107.101 E8.33322
G1 X128.256 Y106.867 E8.35125
G1 X129.275 Y106.425 E8.3882
G1 X129.996 Y106.156 E8.41379
G1 X130.938 Y105.926 E8.44604
G1 X131.967 Y105.745 E8.48079
G1 X132.73 Y105.651 E8.50636
G1 X133.263 Y105.633 E8.5241
G1 X133.778 Y105.634 E8.54123
G1 X134.546 Y105.675 E8.56681
G1 X135.053 Y105.747 E8.58384
G1 X136.065 Y105.926 E8.61802
G1 X136.814 Y106.099 E8.64359
G1 X137.28 Y106.25 E8.65988
G1 X137.85 Y106.455 E8.68003
G1 X138.56 Y106.752 E8.70563
G1 X138.811 Y106.89 E8.71515
G1 X138.979 Y106.963 E8.72125
G1 X139.748 Y107.406 E8.75076
G1 X140.237 Y107.728 E8.77024
G1 X140.856 Y108.183 E8.79579
G1 X141.24 Y108.521 E8.8128
G1 X141.995 Y109.232 E8.8473
G1 X142.527 Y109.787 E8.87287
G1 X143.096 Y110.539 E8.90423
G1 X143.667 Y111.403 E8.93868
G1 X144.057 Y112.066 E8.96426
G1 X144.446 Y112.95 E8.99638
G1 X144.803 Y113.93 E9.03107
G1 X145.028 Y114.666 E9.05667
G1 X145.131 Y115.139 E9.07277
G1 X145.239 Y115.733 E9.09285
G1 X145.337 Y116.496 E9.11844
G1 X145.345 Y116.829 E9.12952
G1 X145.364 Y117.002 E9.13531
G1 X145.369 Y117.771 E9.16088
G1 X145.329 Y118.279 E9.17783
G1 X145.202 Y119.385 E9.21486
G1 X145.074 Y120.144 E9.24046
G1 X144.802 Y121.076 E9.27275
G1 X144.448 Y122.047 E9.30713
G1 X144.148 Y122.755 E9.3327
G1 X143.676 Y123.582 E9.36437
G1 X143.105 Y124.449 E9.3989
G1 X142.649 Y125.069 E9.4245
G1 X141.978 Y125.785 E9.45714
G1 X141.165 Y126.545 E9.49415
G1 X140.577 Y127.04 E9.51972
G1 X140.119 Y127.35 E9.53811
G1 X140.293 Y127.521 E9.54623
G1 X140.889 Y128.262 E9.57785
G1 X141.473 Y129.092 E9.61161
G1 X141.882 Y129.743 E9.63718
G1 X142.289 Y130.596 E9.66862
G1 X142.69 Y131.596 E9.70445
G1 X142.939 Y132.324 E9.73004
G1 X143.143 Y133.273 E9.76233
G1 X143.293 Y134.293 E9.79662
G1 X143.365 Y135.059 E9.8222
G1 X143.343 Y136.021 E9.85421
G1 X143.251 Y137.062 E9.88897
G1 X143.144 Y137.824 E9.91456
G1 X142.903 Y138.742 E9.94613
G1 X142.578 Y139.721 E9.98044
G1 X142.298 Y140.438 E10.00604
G1 X141.857 Y141.268 E10.0373
G1 X141.313 Y142.152 E10.07182
G1 X140.877 Y142.786 E10.09741
G1 X140.233 Y143.517 E10.12982
G1 X139.489 Y144.258 E10.16474
G1 X138.917 Y144.772 E10.19032
G1 X138.133 Y145.325 E10.22223
G1 X137.245 Y145.869 E10.25687
G1 X136.569 Y146.236 E10.28245
G1 X135.693 Y146.588 E10.31385
G1 X134.706 Y146.913 E10.34841
G1 X133.964 Y147.115 E10.37399
G1 X133.018 Y147.257 E10.40581
G1 X131.981 Y147.345 E10.44042
G1 X131.212 Y147.371 E10.46601
G1 X130.249 Y147.289 E10.49816
G1 X129.23 Y147.135 E10.53243
G1 X128.477 Y146.981 E10.558
G1 X127.58 Y146.686 E10.5894
G1 X126.598 Y146.292 E10.6246
G1 X125.9 Y145.969 E10.65018
G1 X125.068 Y145.457 E10.68267
G1 X124.222 Y144.856 E10.71719
G1 X123.619 Y144.378 E10.74278
G1 X123.283 Y144.063 E10.7581
G1 X122.932 Y143.713 E10.77458
G1 X122.416 Y143.142 E10.80018
G1 X122.41 Y143.133 E10.80054
G1 X121.794 Y143.568 E10.82562
G1 X121.348 Y143.828 E10.84279
G1 X120.898 Y144.07 E10.85979
G1 X120.202 Y144.399 E10.88539
G1 X119.735 Y144.573 E10.90197
G1 X118.755 Y144.9 E10.93633
G1 X118.014 Y145.105 E10.9619
G1 X117.066 Y145.251 E10.9938
G1 X116.027 Y145.343 E11.02849
G1 X115.258 Y145.371 E11.05409
G1 X114.31 Y145.295 E11.08572
G1 X113.284 Y145.146 E11.1202
G1 X112.53 Y144.996 E11.14577
G1 X111.638 Y144.709 E11.17694
G1 X110.68 Y144.332 E11.21118
G1 X109.98 Y144.014 E11.23675
G1 X109.151 Y143.512 E11.26899
G1 X108.291 Y142.911 E11.30388
G1 X107.684 Y142.438 E11.32948
G1 X107.004 Y141.767 E11.36125
G1 X106.311 Y140.989 E11.39591
G1 X105.83 Y140.389 E11.42148
G1 X105.334 Y139.598 E11.45254
G1 X104.842 Y138.692 E11.48683
G1 X104.511 Y137.998 E11.5124
G1 X104.197 Y137.077 E11.54476
G1 X103.926 Y136.066 E11.57958
G1 X103.766 Y135.314 E11.60515
G1 X103.677 Y134.372 E11.63662
G1 X103.646 Y133.339 E11.67099
G1 X103.663 Y132.57 E11.69657
G1 X103.798 Y131.609 E11.72885
G1 X104.013 Y130.576 E11.76395
G1 X104.209 Y129.832 E11.78954
G1 X104.552 Y128.954 E11.82089
G1 X104.062 Y129.074 E11.83767
G1 X103.034 Y129.255 E11.87238
G1 X102.271 Y129.349 E11.89795
G1 X101.723 Y129.367 E11.91619
G1 X101.201 Y129.365 E11.93355
G1 X100.433 Y129.322 E11.95913
G1 X99.927 Y129.25 E11.97613
G1 X98.903 Y129.067 E12.01073
G1 X98.154 Y128.892 E12.03631
G1 X97.673 Y128.735 E12.05314
G1 X97.121 Y128.534 E12.07268
G1 X96.413 Y128.234 E12.09826
G1 X96.189 Y128.11 E12.10677
G1 X96.021 Y128.037 E12.11287
G1 X95.351 Y127.658 E12.13847
G1 X94.915 Y127.358 E12.15607
G1 X94.014 Y126.69 E12.19338
G1 X93.421 Y126.201 E12.21894
G1 X92.731 Y125.477 E12.2522
G1 X92.06 Y124.67 E12.28711
G1 X91.6 Y124.054 E12.31268
G1 X91.121 Y123.228 E12.34444
G1 X90.663 Y122.305 E12.37871
G1 X90.358 Y121.599 E12.40429
G1 X90.085 Y120.695 E12.4357
G1 X89.835 Y119.622 E12.47234
G1 X89.7 Y118.865 E12.49792
G1 X89.644 Y118.098 E12.5235
G1 X89.645 Y118.076 E12.52423
G1 X89.636 Y117.998 E12.52684
G1 X89.631 Y117.229 E12.55242
G1 X89.672 Y116.714 E12.5696
G1 X89.8 Y115.608 E12.60663
G1 X89.928 Y114.85 E12.6322
G1 X90.199 Y113.923 E12.66432
G1 X90.555 Y112.947 E12.69888
G1 X90.856 Y112.239 E12.72446
G1 X91.343 Y111.388 E12.75708
G1 X91.925 Y110.512 E12.79206
G1 X92.384 Y109.894 E12.81766
G1 X93.043 Y109.195 E12.84961
G1 X93.842 Y108.45 E12.88595
G1 X94.431 Y107.955 E12.91154
G1 X95.016 Y107.559 E12.93503
G1 X95.105 Y107.493 E12.93872
G1 X95.767 Y107.101 E12.96431
G1 X96.256 Y106.867 E12.98234
G1 X97.275 Y106.425 E13.01928
G1 X97.996 Y106.156 E13.04488
G1 X98.938 Y105.926 E13.07713
G1 X99.967 Y105.745 E13.11188
G1 X100.73 Y105.651 E13.13745
G1 X101.263 Y105.633 E13.15518
G1 X101.778 Y105.634 E13.17231
G1 X102.546 Y105.675 E13.19789
G1 X103.053 Y105.747 E13.21493
G1 X104.065 Y105.926 E13.24911
G1 X104.814 Y106.099 E13.27467
G1 X105.28 Y106.25 E13.29097
G1 X105.85 Y106.455 E13.31111
G1 X106.56 Y106.752 E13.33671
G1 X106.811 Y106.89 E13.34624
G1 X106.979 Y106.963 E13.35233
G1 X107.748 Y107.406 E13.38185
G1 X108.237 Y107.728 E13.40132
G1 X108.856 Y108.183 E13.42687
G1 X109.24 Y108.521 E13.44389
G1 X109.501 Y108.767 E13.45582
G1 X109.78 Y108.506 E13.46852
G1 X109.619 Y108.378 E13.47537
G1 X109.283 Y108.063 E13.49068
G1 X108.932 Y107.713 E13.50717
G1 X108.416 Y107.142 E13.53277
G1 X108.093 Y106.714 E13.5506
G1 X107.493 Y105.856 E13.58542
G1 X107.085 Y105.203 E13.61103
G1 X106.674 Y104.331 E13.6431
G1 X106.294 Y103.368 E13.67753
G1 X106.049 Y102.639 E13.70311
