;FLAVOR:Marlin
;TIME:3086
;Filament used: 2.58061m
;Layer height: 0.2
;Generated with Cura_SteamEngine 3.6.0
M140 S60
M105
M190 S60
M104 S200
M105
M109 S200
M82 ;absolute extrusion mode
; Ender 3 Custom Start G-code
G28 ; Home all axes
G92 E0 ; Reset Extruder
G1 Z2.0 F3000 ; Move Z Axis up little to prevent scratching of Heat Bed
G1 X0.1 Y20 Z0.3 F5000.0 ; Move to start position
G1 X0.1 Y200.0 Z0.3 F1500.0 E15 ; Draw the first line
G1 X0.4 Y200.0 Z0.3 F5000.0 ; Move to side a little
G1 X0.4 Y20 Z0.3 F1500.0 E30 ; Draw the second line
G92 E0 ; Reset Extruder
G1 Z2.0 F3000 ; Move Z Axis up little to prevent scratching of Heat Bed
; End of custom start GCode
G92 E0
G1 F2400 E-5
;LAYER_COUNT:102
;LAYER:0
M107
M204 S5000
M205 X30 Y30
G0 F3600 X64.301 Y108.748 Z0.2
M204 S500
M205 X20 Y20
;TYPE:SKIRT
G1 F2400 E0
G1 F1800 X64.927 Y108.403 E0.02377
G1 X65.629 Y108.116 E0.049
G1 X69.062 Y106.943 E0.16966
G1 X71.51 Y106.018 E0.2567
G1 X76.414 Y103.924 E0.43406
G1 X81.15 Y101.579 E0.60983
G1 X85.754 Y98.963 E0.78595
G1 X90.203 Y96.093 E0.96204
G1 X94.485 Y92.974 E1.13824
G1 X98.571 Y89.627 E1.31391
G1 X102.483 Y86.037 E1.49051
G1 X106.165 Y82.25 E1.66619
G1 X109.689 Y78.191 E1.84497
G1 X110.849 Y76.742 E1.90671
G1 X111.327 Y76.209 E1.93052
G1 X111.861 Y75.734 E1.95429
G1 X112.444 Y75.32 E1.97807
G1 X113.07 Y74.975 E2.00185
G1 X113.731 Y74.701 E2.02564
G1 X114.419 Y74.503 E2.04946
G1 X115.124 Y74.383 E2.07324
G1 X115.838 Y74.342 E2.09703
G1 X116.552 Y74.381 E2.12081
G1 X117.264 Y74.501 E2.14483
G1 X130.155 Y77.432 E2.58453
G1 X130.842 Y77.63 E2.60831
G1 X131.504 Y77.902 E2.63211
G1 X132.13 Y78.247 E2.65588
G1 X132.715 Y78.66 E2.6797
G1 X133.249 Y79.135 E2.70347
G1 X133.727 Y79.667 E2.72726
G1 X134.143 Y80.249 E2.75105
G1 X134.491 Y80.874 E2.77485
G1 X134.768 Y81.533 E2.79862
G1 X134.969 Y82.22 E2.82243
G1 X135.092 Y82.924 E2.8462
G1 X135.128 Y83.346 E2.86029
G1 X135.554 Y91.663 E3.13727
G1 X136.089 Y96.958 E3.31428
G1 X136.919 Y102.182 E3.49021
G1 X138.047 Y107.372 E3.66686
G1 X138.714 Y109.919 E3.75443
G1 X139.868 Y113.775 E3.8883
G1 X140.035 Y114.47 E3.91208
G1 X140.123 Y115.18 E3.93587
G1 X140.137 Y115.607 E3.95008
G1 X140.14 Y121.998 E4.16265
G1 X140.1 Y122.712 E4.18643
G1 X139.981 Y123.417 E4.21021
G1 X139.871 Y123.836 E4.22462
G1 X138.616 Y128.029 E4.37019
G1 X137.33 Y133.257 E4.54926
G1 X136.818 Y135.799 E4.63551
G1 X136.377 Y138.366 E4.72214
G1 X135.697 Y143.656 E4.89953
G1 X135.209 Y150.889 E5.14065
G1 X135.138 Y153.25 E5.21921
G1 X135.077 Y153.962 E5.24298
G1 X134.936 Y154.664 E5.26679
G1 X134.718 Y155.345 E5.29058
G1 X134.426 Y155.998 E5.31437
G1 X134.062 Y156.614 E5.33817
G1 X133.632 Y157.185 E5.36194
G1 X133.141 Y157.705 E5.38573
G1 X132.595 Y158.167 E5.40952
G1 X132.001 Y158.565 E5.4333
G1 X131.366 Y158.895 E5.4571
G1 X130.699 Y159.151 E5.48086
G1 X130.006 Y159.332 E5.50468
G1 X129.34 Y159.43 E5.52707
G1 X116.473 Y160.639 E5.95692
G1 X115.758 Y160.666 E5.98071
G1 X115.082 Y160.618 E6.00326
G1 X108.334 Y159.776 E6.22943
G1 X103.103 Y159.445 E6.40377
G1 X96.446 Y159.459 E6.62518
G1 X95.29 Y159.492 E6.66364
G1 X94.782 Y159.487 E6.68054
G1 X81.738 Y158.823 E7.11495
G1 X81.026 Y158.747 E7.13876
G1 X80.328 Y158.591 E7.16255
G1 X79.652 Y158.359 E7.18632
G1 X79.005 Y158.053 E7.21013
G1 X78.397 Y157.677 E7.2339
G1 X77.834 Y157.235 E7.25771
G1 X77.325 Y156.733 E7.28149
G1 X76.874 Y156.178 E7.30527
G1 X76.489 Y155.575 E7.32907
G1 X76.173 Y154.934 E7.35284
G1 X75.972 Y154.397 E7.37191
G1 X73.955 Y148.148 E7.59031
G1 X72.03 Y143.236 E7.76578
G1 X69.822 Y138.424 E7.94188
G1 X67.347 Y133.744 E8.11796
G1 X64.6 Y129.197 E8.29465
G1 X62.157 Y125.568 E8.44015
G1 X61.791 Y124.953 E8.46396
G1 X61.497 Y124.302 E8.48771
G1 X61.276 Y123.621 E8.51153
G1 X61.133 Y122.92 E8.53532
G1 X61.066 Y121.994 E8.5662
G1 X61.066 Y114.403 E8.81868
G1 X61.106 Y113.689 E8.84246
G1 X61.225 Y112.984 E8.86624
G1 X61.423 Y112.296 E8.89006
G1 X61.696 Y111.635 E8.91384
G1 X62.04 Y111.008 E8.93763
G1 X62.453 Y110.424 E8.96142
G1 X62.95 Y109.868 E8.98622
G1 X63.182 Y109.637 E8.99711
G1 X63.717 Y109.161 E9.02093
G1 X64.301 Y108.748 E9.04472
M204 S5000
M205 X30 Y30
G0 F3600 X64.55 Y109.064
M204 S500
M205 X20 Y20
G1 F1800 X65.16 Y108.735 E9.06777
G1 X65.758 Y108.494 E9.08922
G1 X69.216 Y107.312 E9.21076
G1 X71.66 Y106.389 E9.29765
G1 X76.577 Y104.29 E9.47547
G1 X81.333 Y101.935 E9.65199
G1 X85.969 Y99.301 E9.82933
G1 X90.422 Y96.428 E10.00559
G1 X94.728 Y93.291 E10.18278
G1 X98.85 Y89.915 E10.35999
G1 X102.749 Y86.336 E10.53603
G1 X106.462 Y82.517 E10.71319
G1 X109.996 Y78.447 E10.89246
G1 X111.161 Y76.992 E10.95446
G1 X111.625 Y76.477 E10.97751
G1 X112.144 Y76.019 E11.00054
G1 X112.713 Y75.624 E11.02357
G1 X113.324 Y75.298 E11.04661
G1 X113.968 Y75.043 E11.06965
G1 X114.637 Y74.865 E11.09267
G1 X115.322 Y74.765 E11.1157
G1 X116.014 Y74.744 E11.13872
G1 X116.704 Y74.804 E11.16176
G1 X117.175 Y74.891 E11.17769
G1 X130.066 Y77.822 E11.61739
G1 X130.732 Y78.015 E11.64045
G1 X131.37 Y78.282 E11.66345
G1 X131.974 Y78.622 E11.68651
G1 X132.534 Y79.028 E11.70951
G1 X133.044 Y79.497 E11.73256
G1 X133.497 Y80.021 E11.7556
G1 X133.886 Y80.594 E11.77863
G1 X134.206 Y81.208 E11.80166
G1 X134.454 Y81.855 E11.82471
G1 X134.625 Y82.526 E11.84774
G1 X134.728 Y83.366 E11.87588
G1 X135.154 Y91.683 E12.15287
G1 X135.692 Y97.009 E12.33092
G1 X136.526 Y102.259 E12.50772
G1 X137.659 Y107.467 E12.68499
G1 X138.324 Y110.01 E12.77242
G1 X139.485 Y113.889 E12.90709
G1 X139.645 Y114.563 E12.93013
G1 X139.726 Y115.251 E12.95317
G1 X139.737 Y115.607 E12.96502
G1 X139.74 Y121.998 E13.17758
G1 X139.7 Y122.69 E13.20064
G1 X139.581 Y123.372 E13.22366
G1 X139.488 Y123.721 E13.23567
G1 X138.226 Y127.939 E13.38211
G1 X136.943 Y133.152 E13.56067
G1 X136.419 Y135.758 E13.64908
G1 X135.983 Y138.294 E13.73467
G1 X135.299 Y143.611 E13.91297
G1 X134.809 Y150.877 E14.15518
G1 X134.738 Y153.238 E14.23375
G1 X134.678 Y153.927 E14.25675
G1 X134.538 Y154.606 E14.27981
G1 X134.321 Y155.263 E14.30282
G1 X134.03 Y155.892 E14.32587
G1 X133.668 Y156.482 E14.34889
G1 X133.241 Y157.027 E14.37192
G1 X132.753 Y157.519 E14.39497
G1 X132.212 Y157.952 E14.41802
G1 X131.625 Y158.319 E14.44104
G1 X131 Y158.617 E14.46407
G1 X130.344 Y158.84 E14.48712
G1 X129.667 Y158.986 E14.51015
G1 X129.302 Y159.032 E14.52239
G1 X116.435 Y160.241 E14.95223
G1 X115.743 Y160.266 E14.97526
G1 X115.131 Y160.221 E14.99567
G1 X108.376 Y159.378 E15.22209
G1 X103.112 Y159.045 E15.39752
G1 X96.472 Y159.059 E15.61837
G1 X95.279 Y159.093 E15.65806
G1 X94.802 Y159.087 E15.67393
G1 X81.758 Y158.423 E16.10834
G1 X81.07 Y158.348 E16.13135
G1 X80.394 Y158.194 E16.15441
G1 X79.741 Y157.964 E16.17744
G1 X79.119 Y157.659 E16.20048
G1 X78.536 Y157.285 E16.22352
G1 X78.001 Y156.846 E16.24654
G1 X77.519 Y156.349 E16.26957
G1 X77.098 Y155.799 E16.2926
G1 X76.743 Y155.205 E16.31562
G1 X76.353 Y154.274 E16.34919
G1 X74.331 Y148.011 E16.56809
G1 X72.405 Y143.095 E16.74369
G1 X70.182 Y138.249 E16.92102
G1 X67.692 Y133.543 E17.0981
G1 X64.935 Y128.979 E17.27545
G1 X62.489 Y125.345 E17.42115
G1 X62.136 Y124.749 E17.44419
G1 X61.854 Y124.116 E17.46723
G1 X61.647 Y123.456 E17.49024
G1 X61.517 Y122.775 E17.5133
G1 X61.466 Y121.994 E17.53933
G1 X61.466 Y114.403 E17.79181
G1 X61.506 Y113.712 E17.81483
G1 X61.625 Y113.029 E17.83789
G1 X61.823 Y112.366 E17.8609
G1 X62.095 Y111.729 E17.88394
G1 X62.439 Y111.128 E17.90697
G1 X62.85 Y110.57 E17.93002
G1 X63.233 Y110.151 E17.9489
G1 X63.465 Y109.92 E17.95979
G1 X63.983 Y109.461 E17.98281
G1 X64.55 Y109.064 E18.00583
M204 S5000
M205 X30 Y30
G0 F3600 X64.799 Y109.381
M204 S500
M205 X20 Y20
G1 F1800 X65.391 Y109.069 E18.02809
G1 X65.887 Y108.873 E18.04583
G1 X69.332 Y107.696 E18.16691
G1 X71.818 Y106.757 E18.2553
G1 X76.747 Y104.652 E18.43356
G1 X81.515 Y102.291 E18.61052
G1 X86.169 Y99.647 E18.78855
G1 X90.668 Y96.744 E18.96664
G1 X94.972 Y93.609 E19.14374
G1 X99.101 Y90.228 E19.32123
G1 X103.032 Y86.619 E19.49873
G1 X106.76 Y82.785 E19.67659
G1 X110.306 Y78.701 E19.85648
G1 X111.474 Y77.242 E19.91864
G1 X111.922 Y76.746 E19.94087
G1 X112.427 Y76.306 E19.96315
G1 X112.98 Y75.93 E19.98539
G1 X113.574 Y75.623 E20.00763
G1 X114.201 Y75.389 E20.02989
G1 X114.851 Y75.231 E20.05214
G1 X115.515 Y75.152 E20.07438
G1 X116.184 Y75.152 E20.09663
G1 X117.087 Y75.281 E20.12697
G1 X129.978 Y78.212 E20.56667
G1 X130.62 Y78.399 E20.58891
G1 X131.235 Y78.662 E20.61116
G1 X131.815 Y78.996 E20.63342
G1 X132.351 Y79.396 E20.65566
G1 X132.835 Y79.858 E20.67792
G1 X133.261 Y80.374 E20.70017
G1 X133.622 Y80.937 E20.72241
G1 X133.914 Y81.539 E20.74467
G1 X134.131 Y82.172 E20.76692
G1 X134.272 Y82.826 E20.78918
G1 X134.329 Y83.387 E20.80793
G1 X134.756 Y91.725 E21.08562
G1 X135.295 Y97.059 E21.26393
G1 X136.133 Y102.335 E21.44161
G1 X137.268 Y107.556 E21.61932
G1 X137.938 Y110.116 E21.70733
G1 X139.102 Y114.004 E21.84232
G1 X139.255 Y114.655 E21.86456
G1 X139.337 Y115.607 E21.89634
G1 X139.34 Y121.998 E22.10891
G1 X139.3 Y122.666 E22.13116
G1 X139.105 Y123.607 E22.16313
G1 X137.841 Y127.831 E22.30977
G1 X136.551 Y133.074 E22.48936
G1 X136.026 Y135.683 E22.57787
G1 X135.586 Y138.244 E22.6643
G1 X134.902 Y143.566 E22.84277
G1 X134.409 Y150.864 E23.08605
G1 X134.338 Y153.226 E23.16465
G1 X134.279 Y153.892 E23.18689
G1 X134.14 Y154.546 E23.20912
G1 X133.924 Y155.18 E23.2314
G1 X133.634 Y155.783 E23.25366
G1 X133.274 Y156.347 E23.27591
G1 X132.849 Y156.864 E23.29817
G1 X132.366 Y157.326 E23.3204
G1 X131.831 Y157.728 E23.34266
G1 X131.252 Y158.063 E23.36491
G1 X130.637 Y158.327 E23.38717
G1 X129.995 Y158.516 E23.40943
G1 X129.265 Y158.633 E23.43402
G1 X116.398 Y159.842 E23.86386
G1 X115.729 Y159.865 E23.88612
G1 X115.181 Y159.824 E23.9044
G1 X108.418 Y158.98 E24.13108
G1 X103.122 Y158.645 E24.30758
G1 X96.459 Y158.659 E24.52919
G1 X95.267 Y158.693 E24.56886
G1 X94.822 Y158.688 E24.58366
G1 X81.778 Y158.024 E25.01806
G1 X81.113 Y157.95 E25.04032
G1 X80.462 Y157.797 E25.06256
G1 X79.833 Y157.568 E25.08483
G1 X79.237 Y157.265 E25.10706
G1 X78.68 Y156.894 E25.12932
G1 X78.172 Y156.459 E25.15157
G1 X77.72 Y155.966 E25.17381
G1 X77.329 Y155.423 E25.19607
G1 X77.006 Y154.837 E25.21832
G1 X76.734 Y154.151 E25.24287
G1 X74.712 Y147.888 E25.46176
G1 X72.767 Y142.925 E25.63906
G1 X70.542 Y138.074 E25.81656
G1 X68.038 Y133.341 E25.99466
G1 X65.274 Y128.765 E26.17246
G1 X62.821 Y125.121 E26.31857
G1 X62.481 Y124.545 E26.34081
G1 X62.212 Y123.932 E26.36308
G1 X62.019 Y123.292 E26.38531
G1 X61.903 Y122.633 E26.40757
G1 X61.866 Y121.994 E26.42886
G1 X61.866 Y114.403 E26.68133
G1 X61.906 Y113.735 E26.70359
G1 X62.025 Y113.077 E26.72583
G1 X62.222 Y112.437 E26.7481
G1 X62.494 Y111.826 E26.77035
G1 X62.837 Y111.252 E26.79259
G1 X63.246 Y110.722 E26.81485
G1 X63.515 Y110.435 E26.82794
G1 X63.747 Y110.204 E26.83883
G1 X64.248 Y109.761 E26.86107
G1 X64.799 Y109.381 E26.88333
M204 S5000
M205 X30 Y30
G0 F3600 X65.046 Y109.699
M204 S500
M205 X20 Y20
G1 F1800 X65.62 Y109.405 E26.90478
G1 X66.017 Y109.251 E26.91895
G1 X69.477 Y108.069 E27.04056
G1 X71.968 Y107.128 E27.12912
G1 X76.91 Y105.018 E27.30785
G1 X81.712 Y102.64 E27.48607
G1 X86.37 Y99.993 E27.66427
G1 X90.887 Y97.08 E27.84303
G1 X95.215 Y93.926 E28.02115
G1 X99.369 Y90.524 E28.19974
G1 X103.316 Y86.901 E28.37793
G1 X107.049 Y83.062 E28.55603
G1 X110.613 Y78.958 E28.73682
G1 X111.786 Y77.492 E28.79927
G1 X112.219 Y77.015 E28.82069
G1 X112.708 Y76.595 E28.84213
G1 X113.245 Y76.238 E28.86358
G1 X113.823 Y75.951 E28.88504
G1 X114.431 Y75.738 E28.90647
G1 X115.061 Y75.601 E28.92791
G1 X115.703 Y75.544 E28.94935
G1 X116.347 Y75.566 E28.97078
G1 X116.998 Y75.671 E28.99272
G1 X129.889 Y78.602 E29.43242
G1 X130.507 Y78.784 E29.45384
G1 X131.099 Y79.041 E29.47531
G1 X131.654 Y79.369 E29.49675
G1 X132.164 Y79.763 E29.51819
G1 X132.621 Y80.217 E29.53961
G1 X133.019 Y80.724 E29.56105
G1 X133.351 Y81.277 E29.5825
G1 X133.612 Y81.867 E29.60396
G1 X133.798 Y82.484 E29.62539
G1 X133.929 Y83.407 E29.6564
G1 X134.356 Y91.745 E29.93409
G1 X134.898 Y97.11 E30.11344
G1 X135.74 Y102.412 E30.29199
G1 X136.878 Y107.645 E30.47011
G1 X137.553 Y110.222 E30.55871
G1 X138.719 Y114.119 E30.694
G1 X138.865 Y114.747 E30.71545
G1 X138.937 Y115.608 E30.74419
G1 X138.94 Y121.999 E30.95675
G1 X138.9 Y122.642 E30.97818
G1 X138.722 Y123.492 E31.00706
G1 X137.45 Y127.741 E31.15458
G1 X136.164 Y132.969 E31.33365
G1 X135.636 Y135.593 E31.42267
G1 X135.192 Y138.176 E31.50984
G1 X134.503 Y143.538 E31.68965
G1 X134.011 Y150.826 E31.9326
G1 X133.939 Y153.214 E32.01206
G1 X133.879 Y153.856 E32.03351
G1 X133.741 Y154.485 E32.05493
G1 X133.526 Y155.093 E32.07638
G1 X133.238 Y155.67 E32.09783
G1 X132.88 Y156.206 E32.11926
G1 X132.459 Y156.694 E32.1407
G1 X131.98 Y157.126 E32.16215
G1 X131.452 Y157.495 E32.18358
G1 X130.882 Y157.797 E32.20503
G1 X130.279 Y158.025 E32.22648
G1 X129.653 Y158.177 E32.2479
G1 X129.227 Y158.235 E32.2622
G1 X116.36 Y159.444 E32.69204
G1 X115.716 Y159.465 E32.71348
G1 X115.23 Y159.427 E32.72969
G1 X108.459 Y158.582 E32.95664
G1 X103.131 Y158.245 E33.1342
G1 X96.447 Y158.259 E33.35652
G1 X95.256 Y158.293 E33.39614
G1 X94.843 Y158.288 E33.40988
G1 X81.799 Y157.624 E33.84429
G1 X81.158 Y157.552 E33.86574
G1 X80.531 Y157.4 E33.8872
G1 X79.928 Y157.173 E33.90863
G1 X79.358 Y156.872 E33.93007
G1 X78.829 Y156.503 E33.95152
G1 X78.35 Y156.072 E33.97295
G1 X77.928 Y155.584 E33.99441
G1 X77.57 Y155.049 E34.01582
G1 X77.28 Y154.472 E34.0373
G1 X77.114 Y154.028 E34.05307
G1 X75.087 Y147.75 E34.27249
G1 X73.13 Y142.754 E34.45095
G1 X70.902 Y137.898 E34.62865
G1 X68.392 Y133.153 E34.80719
G1 X65.618 Y128.562 E34.9856
G1 X63.152 Y124.898 E35.13249
G1 X62.826 Y124.342 E35.15393
G1 X62.571 Y123.75 E35.17537
G1 X62.392 Y123.131 E35.1968
G1 X62.29 Y122.494 E35.21826
G1 X62.266 Y121.994 E35.2349
G1 X62.266 Y114.403 E35.48738
G1 X62.306 Y113.76 E35.50881
G1 X62.425 Y113.126 E35.53027
G1 X62.622 Y112.512 E35.55171
G1 X62.893 Y111.927 E35.57316
G1 X63.235 Y111.38 E35.59461
G1 X63.797 Y110.718 E35.62349
G1 X64.029 Y110.487 E35.63438
G1 X64.513 Y110.061 E35.65583
G1 X65.046 Y109.699 E35.67726
M204 S5000
M205 X30 Y30
G0 F3600 X67.772 Y114.364
M204 S500
M205 X20 Y20
;TYPE:SUPPORT
G1 F1800 X81.156 Y114.364 E36.12241
G1 X81.156 Y115.421 E36.15757
G1 X82.366 Y116.031 E36.20264
G1 X83.463 Y115.22 E36.24801
G1 X84.334 Y114.714 E36.28152
G1 X85.27 Y114.303 E36.31552
G1 X86.267 Y113.993 E36.35024
G1 X94.956 Y111.822 E36.64812
G1 X94.956 Y113.965 E36.7194
G1 X95.355 Y114.364 E36.73817
G1 X99.64 Y114.364 E36.88069
G1 X99.756 Y114.48 E36.88614
G1 X99.756 Y121.914 E37.1334
G1 X99.64 Y122.03 E37.13886
G1 X99.295 Y122.03 E37.15033
G1 X98.861 Y122.318 E37.16766
G1 X98.747 Y122.588 E37.1774
G1 X95.355 Y122.588 E37.29022
G1 X94.956 Y122.987 E37.30899
G1 X94.956 Y150.028 E38.20838
G1 X92.821 Y150.14 E38.27948
G1 X88.496 Y150.14 E38.42333
G1 X87.199 Y150.051 E38.46657
G1 X85.952 Y149.786 E38.50898
G1 X84.776 Y149.361 E38.55057
G1 X83.655 Y148.769 E38.59273
G1 X82.354 Y147.83 E38.6461
G1 X82.056 Y147.983 E38.65724
G1 X82.056 Y122.429 E39.50717
G1 X81.657 Y122.03 E39.52593
G1 X71.495 Y122.03 E39.86392
G1 X71.061 Y122.318 E39.88125
G1 X70.947 Y122.588 E39.891
G1 X68.665 Y122.588 E39.9669
G1 X68.551 Y122.318 E39.97664
G1 X68.117 Y122.03 E39.99397
G1 X67.772 Y122.03 E40.00544
G1 X67.656 Y121.914 E40.0109
G1 X67.656 Y114.48 E40.25815
G1 X67.772 Y114.364 E40.26361
M204 S5000
M205 X30 Y30
G0 F3600 X86.865 Y139.106
M204 S500
M205 X20 Y20
G1 F1800 X86.574 Y139.376 E40.27681
G1 X86.256 Y139.837 E40.29544
G1 X86.098 Y140.204 E40.30873
G1 X85.998 Y140.568 E40.32129
G1 X85.96 Y140.924 E40.33319
G1 X85.975 Y141.449 E40.35066
G1 X86.129 Y141.93 E40.36746
G1 X86.275 Y142.239 E40.37883
G1 X86.654 Y142.82 E40.4019
G1 X87.207 Y143.192 E40.42407
G1 X87.564 Y143.371 E40.43735
G1 X88.039 Y143.5 E40.45372
G1 X88.456 Y143.533 E40.46763
G1 X88.873 Y143.5 E40.48155
G1 X89.348 Y143.371 E40.49792
G1 X89.705 Y143.192 E40.5112
G1 X90.258 Y142.82 E40.53337
G1 X90.637 Y142.239 E40.55644
G1 X90.783 Y141.93 E40.56781
G1 X90.937 Y141.449 E40.5846
G1 X90.952 Y140.924 E40.60207
G1 X90.914 Y140.568 E40.61398
G1 X90.814 Y140.204 E40.62654
G1 X90.656 Y139.837 E40.63982
G1 X90.338 Y139.376 E40.65845
