;FLAVOR:Marlin
;TIME:2568
;Filament used: 2.13252m
;Layer height: 0.2
;Generated with Cura_SteamEngine 3.6.0
M140 S60
M105
M190 S60
M104 S200
M105
M109 S200
M82 ;absolute extrusion mode
; Ender 3 Custom Start G-code
G28 ; Home all axes
G92 E0 ; Reset Extruder
G1 Z2.0 F3000 ; Move Z Axis up little to prevent scratching of Heat Bed
G1 X0.1 Y20 Z0.3 F5000.0 ; Move to start position
G1 X0.1 Y200.0 Z0.3 F1500.0 E15 ; Draw the first line
G1 X0.4 Y200.0 Z0.3 F5000.0 ; Move to side a little
G1 X0.4 Y20 Z0.3 F1500.0 E30 ; Draw the second line
G92 E0 ; Reset Extruder
G1 Z2.0 F3000 ; Move Z Axis up little to prevent scratching of Heat Bed
; End of custom start GCode
G92 E0
G1 F2400 E-5
;LAYER_COUNT:69
;LAYER:0
M107
M204 S5000
M205 X30 Y30
G0 F3600 X96.989 Y87.045 Z0.2
M204 S500
M205 X20 Y20
;TYPE:SKIRT
G1 F2400 E0
G1 F1800 X97.514 Y86.559 E0.02379
G1 X98.129 Y86.109 E0.04914
G1 X98.43 Y85.915 E0.06105
G1 X99.052 Y85.561 E0.08486
G1 X99.709 Y85.28 E0.10862
G1 X100.615 Y85.024 E0.13994
G1 X101.021 Y84.941 E0.15372
G1 X101.729 Y84.837 E0.17752
G1 X102.28 Y84.811 E0.19587
G1 X115.915 Y84.761 E0.64937
G1 X115.973 Y84.761 E0.6513
G1 X133.014 Y84.855 E1.21809
G1 X133.728 Y84.899 E1.24189
G1 X134.433 Y85.022 E1.26569
G1 X135.119 Y85.223 E1.28947
G1 X135.779 Y85.5 E1.31327
G1 X136.297 Y85.782 E1.33289
G1 X136.777 Y86.073 E1.35156
G1 X137.367 Y86.478 E1.37536
G1 X137.908 Y86.945 E1.39913
G1 X138.394 Y87.47 E1.42293
G1 X138.929 Y88.223 E1.45365
G1 X139.155 Y88.595 E1.46813
G1 X139.491 Y89.226 E1.4919
G1 X139.755 Y89.891 E1.5157
G1 X139.944 Y90.581 E1.53949
G1 X140.078 Y91.613 E1.57411
G1 X140.135 Y92.808 E1.6139
G1 X140.142 Y93.114 E1.62408
G1 X140.14 Y102.749 E1.94454
G1 X140.137 Y102.938 E1.95083
G1 X140.039 Y106.253 E2.06113
G1 X140.149 Y121.99 E2.58456
G1 X140.148 Y122.133 E2.58932
G1 X140.045 Y128.904 E2.81455
G1 X140.1 Y130.414 E2.8648
G1 X140.104 Y130.642 E2.87239
G1 X140.116 Y142.975 E3.28258
G1 X140.077 Y143.689 E3.30637
G1 X139.958 Y144.394 E3.33015
G1 X139.657 Y145.362 E3.36386
G1 X139.548 Y145.634 E3.37361
G1 X139.245 Y146.282 E3.3974
G1 X138.872 Y146.892 E3.42118
G1 X138.535 Y147.337 E3.43975
G1 X138.298 Y147.623 E3.4521
G1 X137.811 Y148.147 E3.4759
G1 X137.27 Y148.614 E3.49967
G1 X136.679 Y149.017 E3.52346
G1 X135.976 Y149.384 E3.54984
G1 X135.431 Y149.627 E3.56968
G1 X134.763 Y149.882 E3.59346
G1 X134.07 Y150.06 E3.61726
G1 X133.362 Y150.159 E3.64104
G1 X132.854 Y150.182 E3.65795
G1 X111.552 Y150.279 E4.36647
G1 X111.45 Y150.279 E4.36986
G1 X102.056 Y150.172 E4.68233
G1 X101.342 Y150.123 E4.70613
G1 X100.639 Y149.996 E4.72989
G1 X99.953 Y149.791 E4.7537
G1 X99.418 Y149.57 E4.77296
G1 X98.909 Y149.332 E4.79164
G1 X98.279 Y148.993 E4.81544
G1 X97.691 Y148.586 E4.83922
G1 X97.152 Y148.116 E4.86301
G1 X96.466 Y147.328 E4.89776
G1 X96.19 Y146.953 E4.91324
G1 X95.798 Y146.354 E4.93705
G1 X95.477 Y145.715 E4.96084
G1 X95.228 Y145.044 E4.98464
G1 X95.069 Y144.417 E5.00616
G1 X94.993 Y144.038 E5.01901
G1 X94.892 Y143.33 E5.0428
G1 X94.868 Y142.744 E5.06231
G1 X94.96 Y126.142 E5.6145
G1 X94.852 Y121.995 E5.75248
G1 X94.85 Y121.821 E5.75826
G1 X94.86 Y112.24 E6.07693
G1 X94.863 Y112.051 E6.08322
G1 X94.959 Y108.932 E6.187
G1 X94.851 Y102.295 E6.40778
G1 X94.85 Y102.163 E6.41217
G1 X94.895 Y91.958 E6.7516
G1 X94.938 Y91.244 E6.77539
G1 X95.061 Y90.539 E6.79919
G1 X95.261 Y89.853 E6.82295
G1 X95.537 Y89.193 E6.84675
G1 X95.818 Y88.675 E6.86635
G1 X96.119 Y88.177 E6.8857
G1 X96.522 Y87.587 E6.90947
G1 X96.989 Y87.045 E6.93326
M204 S5000
M205 X30 Y30
G0 F3600 X97.308 Y87.291
M204 S500
M205 X20 Y20
G1 F1800 X97.82 Y86.825 E6.95629
G1 X98.346 Y86.445 E6.97787
G1 X98.647 Y86.251 E6.98978
G1 X99.249 Y85.91 E7.01279
G1 X99.887 Y85.641 E7.03582
G1 X100.695 Y85.416 E7.06372
G1 X101.101 Y85.333 E7.0775
G1 X101.787 Y85.233 E7.10056
G1 X102.281 Y85.211 E7.11701
G1 X115.916 Y85.161 E7.57051
G1 X115.971 Y85.161 E7.57234
G1 X133.012 Y85.255 E8.13914
G1 X133.703 Y85.299 E8.16217
G1 X134.385 Y85.422 E8.18521
G1 X135.048 Y85.623 E8.20826
G1 X135.683 Y85.899 E8.23129
G1 X136.09 Y86.124 E8.24675
G1 X136.57 Y86.415 E8.26542
G1 X137.14 Y86.808 E8.28845
G1 X137.661 Y87.264 E8.31148
G1 X138.127 Y87.776 E8.33451
G1 X138.587 Y88.431 E8.36113
G1 X138.813 Y88.803 E8.3756
G1 X139.138 Y89.414 E8.39862
G1 X139.39 Y90.059 E8.42165
G1 X139.566 Y90.729 E8.44469
G1 X139.678 Y91.632 E8.47496
G1 X139.735 Y92.827 E8.51475
G1 X139.742 Y93.114 E8.5243
G1 X139.74 Y102.749 E8.84476
G1 X139.737 Y102.926 E8.85065
G1 X139.639 Y106.244 E8.96105
G1 X139.749 Y121.993 E9.48488
G1 X139.748 Y122.127 E9.48934
G1 X139.644 Y128.913 E9.71507
G1 X139.7 Y130.428 E9.76549
G1 X139.704 Y130.642 E9.77261
G1 X139.716 Y142.975 E10.18281
G1 X139.677 Y143.667 E10.20586
G1 X139.558 Y144.349 E10.22888
G1 X139.285 Y145.213 E10.25902
G1 X139.176 Y145.485 E10.26877
G1 X138.882 Y146.112 E10.2918
G1 X138.518 Y146.701 E10.31483
G1 X138.227 Y147.081 E10.33075
G1 X137.99 Y147.367 E10.3431
G1 X137.518 Y147.874 E10.36614
G1 X136.991 Y148.323 E10.38917
G1 X136.415 Y148.709 E10.41223
G1 X135.813 Y149.019 E10.43475
G1 X135.268 Y149.262 E10.4546
G1 X134.621 Y149.507 E10.47761
G1 X133.949 Y149.676 E10.50066
G1 X133.262 Y149.766 E10.5237
G1 X132.852 Y149.782 E10.53735
G1 X111.55 Y149.879 E11.24586
G1 X111.455 Y149.879 E11.24902
G1 X102.061 Y149.772 E11.56149
G1 X101.37 Y149.724 E11.58453
G1 X100.689 Y149.597 E11.60757
G1 X100.027 Y149.392 E11.63062
G1 X99.588 Y149.207 E11.64646
G1 X99.079 Y148.969 E11.66515
G1 X98.469 Y148.64 E11.6882
G1 X97.902 Y148.243 E11.71122
G1 X97.384 Y147.783 E11.73427
G1 X96.788 Y147.091 E11.76464
G1 X96.512 Y146.716 E11.78013
G1 X96.134 Y146.135 E11.80318
G1 X95.826 Y145.515 E11.82621
G1 X95.591 Y144.863 E11.84926
G1 X95.461 Y144.339 E11.86722
G1 X95.385 Y143.96 E11.88007
G1 X95.288 Y143.274 E11.90312
G1 X95.268 Y142.747 E11.92066
G1 X95.36 Y126.135 E12.47318
G1 X95.252 Y121.985 E12.61126
G1 X95.25 Y121.822 E12.61668
G1 X95.26 Y112.241 E12.93535
G1 X95.263 Y112.063 E12.94127
G1 X95.359 Y108.938 E13.04525
G1 X95.251 Y102.288 E13.26646
G1 X95.25 Y102.165 E13.27055
G1 X95.295 Y91.96 E13.60998
G1 X95.338 Y91.268 E13.63304
G1 X95.46 Y90.587 E13.65605
G1 X95.661 Y89.924 E13.67909
G1 X95.936 Y89.288 E13.70214
G1 X96.16 Y88.882 E13.71756
G1 X96.461 Y88.384 E13.73691
G1 X96.853 Y87.813 E13.75995
G1 X97.308 Y87.291 E13.78298
M204 S5000
M205 X30 Y30
G0 F3600 X97.626 Y87.539
M204 S500
M205 X20 Y20
G1 F1800 X98.125 Y87.093 E13.80524
G1 X98.562 Y86.781 E13.8231
G1 X98.863 Y86.587 E13.83501
G1 X99.446 Y86.259 E13.85726
G1 X100.064 Y86.002 E13.87952
G1 X100.775 Y85.807 E13.90404
G1 X101.181 Y85.724 E13.91783
G1 X101.844 Y85.63 E13.9401
G1 X102.282 Y85.611 E13.95468
G1 X115.917 Y85.561 E14.40818
G1 X115.969 Y85.561 E14.40991
G1 X133.01 Y85.655 E14.97671
G1 X133.677 Y85.699 E14.99894
G1 X134.335 Y85.822 E15.02121
G1 X134.973 Y86.022 E15.04344
G1 X135.583 Y86.297 E15.0657
G1 X135.882 Y86.466 E15.07712
G1 X136.362 Y86.757 E15.09579
G1 X136.913 Y87.138 E15.11807
G1 X137.414 Y87.581 E15.14032
G1 X137.858 Y88.081 E15.16256
G1 X138.245 Y88.638 E15.18511
G1 X138.471 Y89.01 E15.19959
G1 X138.784 Y89.602 E15.22186
G1 X139.023 Y90.226 E15.24409
G1 X139.187 Y90.875 E15.26635
G1 X139.279 Y91.651 E15.29234
G1 X139.336 Y92.846 E15.33213
G1 X139.342 Y93.114 E15.34105
G1 X139.34 Y102.749 E15.66151
G1 X139.338 Y102.914 E15.667
G1 X139.239 Y106.262 E15.7784
G1 X139.349 Y121.996 E16.30173
G1 X139.348 Y122.12 E16.30586
G1 X139.244 Y128.921 E16.53208
G1 X139.3 Y130.443 E16.58274
G1 X139.304 Y130.643 E16.58939
G1 X139.316 Y142.976 E16.99959
G1 X139.277 Y143.643 E17.02181
G1 X139.158 Y144.302 E17.04409
G1 X138.914 Y145.064 E17.0707
G1 X138.805 Y145.336 E17.08045
G1 X138.52 Y145.941 E17.10269
G1 X138.164 Y146.508 E17.12496
G1 X137.919 Y146.826 E17.13831
G1 X137.682 Y147.112 E17.15066
G1 X137.225 Y147.601 E17.17292
G1 X136.713 Y148.032 E17.19518
G1 X136.153 Y148.398 E17.21743
G1 X135.65 Y148.654 E17.23621
G1 X135.105 Y148.897 E17.25605
G1 X134.479 Y149.132 E17.27829
G1 X133.829 Y149.291 E17.30055
G1 X132.85 Y149.382 E17.33325
G1 X111.548 Y149.479 E18.04177
G1 X111.459 Y149.479 E18.04473
G1 X102.065 Y149.372 E18.35719
G1 X101.398 Y149.324 E18.37943
G1 X100.741 Y149.197 E18.40169
G1 X100.104 Y148.993 E18.42394
G1 X99.757 Y148.845 E18.43648
G1 X99.248 Y148.607 E18.45517
G1 X98.66 Y148.288 E18.47742
G1 X98.114 Y147.901 E18.49968
G1 X97.618 Y147.452 E18.52193
G1 X97.11 Y146.853 E18.54806
G1 X96.834 Y146.478 E18.56354
G1 X96.47 Y145.917 E18.58579
G1 X96.176 Y145.316 E18.60804
G1 X95.956 Y144.684 E18.6303
G1 X95.853 Y144.26 E18.64481
G1 X95.777 Y143.881 E18.65766
G1 X95.685 Y143.218 E18.67993
G1 X95.668 Y142.749 E18.69554
G1 X95.761 Y126.126 E19.24843
G1 X95.652 Y121.974 E19.38657
G1 X95.65 Y121.822 E19.39163
G1 X95.66 Y112.241 E19.71029
G1 X95.663 Y112.076 E19.71578
G1 X95.759 Y108.944 E19.82
G1 X95.651 Y102.282 E20.04161
G1 X95.65 Y102.166 E20.04547
G1 X95.695 Y91.961 E20.38489
G1 X95.738 Y91.294 E20.40712
G1 X95.86 Y90.636 E20.42938
G1 X96.06 Y89.997 E20.45165
G1 X96.334 Y89.387 E20.47389
G1 X96.502 Y89.089 E20.48527
G1 X96.803 Y88.591 E20.50462
G1 X97.183 Y88.04 E20.52689
G1 X97.626 Y87.539 E20.54913
M204 S5000
M205 X30 Y30
G0 F3600 X97.943 Y87.788
M204 S500
M205 X20 Y20
G1 F1800 X98.428 Y87.364 E20.57056
G1 X98.779 Y87.117 E20.58483
G1 X99.08 Y86.923 E20.59674
G1 X99.642 Y86.608 E20.61817
G1 X100.24 Y86.365 E20.63964
G1 X100.855 Y86.199 E20.66083
G1 X101.261 Y86.116 E20.67461
G1 X101.9 Y86.027 E20.69607
G1 X102.284 Y86.011 E20.70885
G1 X115.919 Y85.961 E21.16235
G1 X115.967 Y85.961 E21.16395
G1 X133.008 Y86.055 E21.73075
G1 X133.651 Y86.099 E21.75218
G1 X134.284 Y86.221 E21.77362
G1 X134.897 Y86.421 E21.79507
G1 X135.675 Y86.808 E21.82397
G1 X136.155 Y87.099 E21.84264
G1 X136.684 Y87.467 E21.86407
G1 X137.164 Y87.898 E21.88553
G1 X137.587 Y88.384 E21.90696
G1 X137.903 Y88.846 E21.92558
G1 X138.129 Y89.218 E21.94005
G1 X138.429 Y89.789 E21.96151
G1 X138.656 Y90.392 E21.98294
G1 X138.807 Y91.019 E22.00439
G1 X138.879 Y91.67 E22.02617
G1 X138.936 Y92.865 E22.06596
G1 X138.942 Y93.114 E22.07425
G1 X138.94 Y102.749 E22.39471
G1 X138.938 Y102.902 E22.3998
G1 X138.839 Y106.253 E22.5113
G1 X138.949 Y121.999 E23.03503
G1 X138.948 Y122.114 E23.03885
G1 X138.844 Y128.911 E23.26495
G1 X138.901 Y130.458 E23.31644
G1 X138.904 Y130.643 E23.32259
G1 X138.916 Y142.976 E23.73279
G1 X138.877 Y143.619 E23.75421
G1 X138.758 Y144.253 E23.77567
G1 X138.543 Y144.915 E23.79882
G1 X138.434 Y145.187 E23.80856
G1 X138.157 Y145.77 E23.83003
G1 X137.811 Y146.313 E23.85145
G1 X137.611 Y146.571 E23.8623
G1 X137.374 Y146.857 E23.87466
G1 X136.933 Y147.327 E23.89609
G1 X136.437 Y147.739 E23.91754
G1 X135.893 Y148.086 E23.939
G1 X135.488 Y148.288 E23.95405
G1 X134.943 Y148.531 E23.9739
G1 X134.339 Y148.757 E23.99535
G1 X133.711 Y148.906 E24.01682
G1 X132.849 Y148.982 E24.0456
G1 X111.547 Y149.079 E24.75411
G1 X111.464 Y149.079 E24.75688
G1 X102.07 Y148.972 E25.06934
G1 X101.427 Y148.924 E25.09079
G1 X100.795 Y148.798 E25.11222
G1 X99.926 Y148.482 E25.14298
G1 X99.417 Y148.244 E25.16166
G1 X98.852 Y147.936 E25.18307
G1 X98.328 Y147.559 E25.20454
G1 X97.855 Y147.121 E25.22598
G1 X97.432 Y146.616 E25.24789
G1 X97.156 Y146.241 E25.26338
G1 X96.807 Y145.699 E25.28482
G1 X96.527 Y145.119 E25.30624
G1 X96.322 Y144.507 E25.3277
G1 X96.245 Y144.181 E25.33885
G1 X96.169 Y143.802 E25.3517
G1 X96.082 Y143.164 E25.37312
G1 X96.068 Y142.751 E25.38686
G1 X96.161 Y126.118 E25.94009
G1 X96.052 Y121.964 E26.0783
G1 X96.05 Y121.823 E26.08299
G1 X96.06 Y112.242 E26.40165
G1 X96.062 Y112.088 E26.40678
G1 X96.159 Y108.928 E26.51193
G1 X96.051 Y102.275 E26.73324
G1 X96.05 Y102.168 E26.73679
G1 X96.095 Y91.963 E27.07622
G1 X96.138 Y91.32 E27.09765
G1 X96.26 Y90.687 E27.11909
G1 X96.459 Y90.074 E27.14053
G1 X96.845 Y89.296 E27.16942
G1 X97.146 Y88.798 E27.18877
G1 X97.513 Y88.268 E27.21021
G1 X97.943 Y87.788 E27.23164
M204 S5000
M205 X30 Y30
G0 F3600 X101.735 Y91.615
M204 S500
M205 X20 Y20
;TYPE:SUPPORT
G1 F1800 X101.856 Y91.522 E27.23672
G1 X102.005 Y91.455 E27.24215
G1 X102.167 Y91.411 E27.24774
G1 X102.303 Y91.4 E27.25228
G1 X108.746 Y91.402 E27.46657
G1 X108.145 Y91.777 E27.49013
G1 X107.331 Y92.475 E27.5258
G1 X106.633 Y93.287 E27.56141
G1 X106.061 Y94.2 E27.59724
G1 X105.634 Y95.188 E27.63304
G1 X105.353 Y96.26 E27.6699
G1 X105.35 Y98.705 E27.75122
G1 X105.567 Y99.603 E27.78195
G1 X105.875 Y100.416 E27.81087
G1 X106.279 Y101.185 E27.83976
G1 X106.892 Y102.07 E27.87557
G1 X107.834 Y102.213 E27.90726
G1 X108.781 Y101.462 E27.94745
G1 X108.919 Y100.613 E27.97606
G1 X108.552 Y100.064 E27.99803
G1 X108.835 Y100.463 E28.0143
G1 X109.385 Y101.019 E28.04031
G1 X110.048 Y101.478 E28.06713
G1 X110.782 Y101.826 E28.09415
G1 X111.562 Y102.033 E28.12099
G1 X112.35 Y102.103 E28.1473
G1 X113.138 Y102.033 E28.17361
G1 X113.918 Y101.826 E28.20045
G1 X114.652 Y101.478 E28.22747
G1 X115.315 Y101.019 E28.25429
G1 X115.865 Y100.463 E28.2803
G1 X116.148 Y100.064 E28.29657
G1 X115.781 Y100.613 E28.31854
G1 X115.918 Y101.461 E28.34711
G1 X116.864 Y102.212 E28.38728
G1 X117.815 Y102.063 E28.4193
G1 X118.529 Y101.001 E28.46186
G1 X118.985 Y100.033 E28.49745
G1 X119.291 Y99.001 E28.53325
G1 X119.439 Y97.941 E28.56885
G1 X119.424 Y96.866 E28.60461
G1 X119.249 Y95.809 E28.64024
G1 X118.915 Y94.791 E28.67588
G1 X118.429 Y93.828 E28.71175
G1 X117.809 Y92.957 E28.74731
G1 X117.06 Y92.184 E28.78311
G1 X116.21 Y91.538 E28.81862
G1 X115.883 Y91.361 E28.83099
G1 X118.643 Y91.404 E28.9228
G1 X120.067 Y92.856 E28.99044
G1 X120.669 Y92.737 E29.01085
G1 X121.209 Y91.404 E29.05869
G1 X132.573 Y91.401 E29.43665
G1 X132.823 Y91.412 E29.44498
G1 X132.941 Y91.434 E29.44897
G1 X133.068 Y91.481 E29.45347
G1 X133.207 Y91.566 E29.45889
G1 X133.313 Y91.668 E29.46379
G1 X133.412 Y91.787 E29.46893
G1 X133.451 Y91.849 E29.47137
G1 X133.494 Y91.949 E29.47499
G1 X133.542 Y92.124 E29.48103
G1 X133.549 Y92.253 E29.48532
G1 X133.55 Y102.762 E29.83485
G1 X133.538 Y102.895 E29.8393
G1 X133.496 Y103.046 E29.84451
G1 X133.436 Y103.173 E29.84918
G1 X133.373 Y103.265 E29.85289
G1 X133.213 Y103.42 E29.8603
G1 X133.125 Y103.485 E29.86394
G1 X132.982 Y103.553 E29.8692
G1 X132.859 Y103.585 E29.87343
G1 X132.724 Y103.6 E29.87795
G1 X121.226 Y103.594 E30.26037
G1 X120.669 Y102.251 E30.30873
G1 X120.067 Y102.134 E30.32913
G1 X118.636 Y103.587 E30.39696
G1 X112.329 Y103.691 E30.60676
G1 X104.834 Y103.577 E30.85607
G1 X104.416 Y103.6 E30.87
G1 X102.299 Y103.6 E30.94041
G1 X102.129 Y103.582 E30.94609
G1 X102.005 Y103.547 E30.95038
G1 X101.846 Y103.473 E30.95621
G1 X101.768 Y103.413 E30.95948
G1 X101.647 Y103.292 E30.96518
G1 X101.554 Y103.155 E30.97068
G1 X101.495 Y103.021 E30.97555
G1 X101.461 Y102.889 E30.98009
G1 X101.45 Y102.749 E30.98476
G1 X101.45 Y92.253 E31.33386
G1 X101.474 Y92.056 E31.34046
G1 X101.502 Y91.961 E31.34375
G1 X101.583 Y91.793 E31.34995
G1 X101.625 Y91.735 E31.35234
G1 X101.735 Y91.615 E31.35775
M204 S5000
M205 X30 Y30
G1 F2400 E26.35775
G0 F3600 X106.481 Y101.062
G0 X107.03 Y101.848
G0 X107.767 Y101.961
G0 X108.561 Y101.332
G0 X108.648 Y100.795
G0 X108.294 Y95.354
M204 S500
M205 X20 Y20
G1 F2400 E31.35775
G1 F1800 X108.139 Y95.682 E31.36982
G1 X108.214 Y95.49 E31.37667
G1 X108.294 Y95.354 E31.38192
M204 S5000
M205 X30 Y30
G0 F3600 X108.581 Y94.867
M204 S500
M205 X20 Y20
G1 F1800 X108.71 Y94.711 E31.38865
G1 X108.472 Y95.053 E31.40251
G1 X108.581 Y94.867 E31.40968
M204 S5000
M205 X30 Y30
G0 F3600 X108.965 Y94.403
M204 S500
M205 X20 Y20
G1 F1800 X109.056 Y94.292 E31.41445
G1 X109.22 Y94.149 E31.42169
G1 X108.965 Y94.403 E31.43366
M204 S5000
M205 X30 Y30
G0 F3600 X109.488 Y93.913
M204 S500
M205 X20 Y20
G1 F1800 X109.605 Y93.81 E31.43885
G1 X109.857 Y93.653 E31.44872
G1 X109.488 Y93.913 E31.46374
M204 S5000
M205 X30 Y30
G0 F3600 X110.159 Y93.463
M204 S500
M205 X20 Y20
G1 F1800 X110.222 Y93.424 E31.4662
G1 X110.452 Y93.327 E31.4745
G1 X110.159 Y93.463 E31.48525
M204 S5000
M205 X30 Y30
G0 F3600 X107.985 Y96.077
M204 S500
M205 X20 Y20
G1 F1800 X107.897 Y96.41 E31.4967
G1 X107.948 Y96.172 E31.5048
G1 X107.985 Y96.077 E31.50819
M204 S5000
M205 X30 Y30
G0 F3600 X107.807 Y96.829
M204 S500
M205 X20 Y20
